(Exported by FreeCAD)
(Post Processor: grbl_post)
(Output Time:2018-11-25 17:13:15.947000)
(begin preamble)
G17 G90
G21
(begin operation: T1: Default tool)
(Path: T1: Default tool)
(T1: Default tool)
(begin toolchange)
; M6 T1.0
M3 S10000.0000
(finish operation: T1: Default tool)
(begin operation: Profile_Faces)
(Path: Profile_Faces)
(Profile_Faces)
(Compensated Tool Path. Diameter: 2.0)
G0 Z6.0000
G0 X33.7071 Y18.5071
G0 Z4.0000
G1 X33.7071 Y18.5071 Z-1.5000 F6000.00
G2 X34.0000 Y17.8000 Z-1.5000 I-0.7071 J-0.7071 F9000.00
G1 X34.0000 Y0.0000 Z-1.5000 F9000.00
G2 X33.0000 Y-1.0000 Z-1.5000 I-1.0000 J0.0000 F9000.00
G1 X0.0000 Y-1.0000 Z-1.5000 F9000.00
G2 X-1.0000 Y0.0000 Z-1.5000 I0.0000 J1.0000 F9000.00
G1 X-1.0000 Y17.8000 Z-1.5000 F9000.00
G2 X0.0000 Y18.8000 Z-1.5000 I1.0000 J-0.0000 F9000.00
G1 X33.0000 Y18.8000 Z-1.5000 F9000.00
G2 X33.7071 Y18.5071 Z-1.5000 I-0.0000 J-1.0000 F9000.00
G1 X33.7071 Y18.5071 Z-2.5000 F6000.00
G2 X34.0000 Y17.8000 Z-2.5000 I-0.7071 J-0.7071 F9000.00
G1 X34.0000 Y0.0000 Z-2.5000 F9000.00
G2 X33.0000 Y-1.0000 Z-2.5000 I-1.0000 J0.0000 F9000.00
G1 X0.0000 Y-1.0000 Z-2.5000 F9000.00
G2 X-1.0000 Y0.0000 Z-2.5000 I0.0000 J1.0000 F9000.00
G1 X-1.0000 Y17.8000 Z-2.5000 F9000.00
G2 X0.0000 Y18.8000 Z-2.5000 I1.0000 J-0.0000 F9000.00
G1 X33.0000 Y18.8000 Z-2.5000 F9000.00
G2 X33.7071 Y18.5071 Z-2.5000 I-0.0000 J-1.0000 F9000.00
G0 Z6.0000
(finish operation: Profile_Faces)
(begin postamble)
M5
G17 G90
; M2
