(G-CODE GENERATED BY FLATCAM v8.99 - www.flatcam.org - Version Date: 2019/12/15)

(Name: copper_iso_cnc)
(Type: G-code from Geometry)
(Units: MM)

(Created on Monday, 13 April 2020 at 10:36)

(TOOL DIAMETER: 0.6 mm)
(Feedrate: 175.0 mm/min)
(Feedrate_Z: 76.2 mm/min)
(Feedrate rapids 76.2 mm/min)

(Z_Cut: -0.1 mm)
(Z_Move: 1.0 mm)
(Z Toolchange: 20.0 mm)
(X,Y Toolchange: 0.0000, 0.0000 mm)
(Z Start: None mm)
(Z End: 20.0 mm)
(Steps per circle: 128)
(Preprocessor Geometry: default)

(X range:  -79.3701 ...   -0.4749  mm)
(Y range:    0.2395 ...   79.6903  mm)

(Spindle Speed: 12000 RPM)
G21
G90
G94




G01 F175.00
G00 Z1.0000

M03 S12000
G00 X-7.1880 Y37.3080
G01 F76.20
G01 Z-0.1000
G01 F175.00
G01 X-7.1602 Y37.3093
G01 X-7.1326 Y37.3132
G01 X-7.1054 Y37.3196
G01 X-7.0790 Y37.3285
G01 X-7.0529 Y37.3401
G01 X-7.0274 Y37.3546
G01 X-7.0034 Y37.3716
G01 X-6.9811 Y37.3907
G01 X-6.9609 Y37.4120
G01 X-6.9428 Y37.4351
G01 X-6.9346 Y37.4474
G01 X-6.9201 Y37.4729
G01 X-6.9085 Y37.4990
G01 X-6.8996 Y37.5254
G01 X-6.8932 Y37.5526
G01 X-6.8893 Y37.5802
G01 X-6.8880 Y37.6080
G01 X-6.8883 Y39.1459
G01 X-6.8909 Y39.1737
G01 X-6.8961 Y39.2011
G01 X-6.9037 Y39.2279
G01 X-6.9085 Y39.2410
G01 X-6.9201 Y39.2671
G01 X-6.9346 Y39.2926
G01 X-6.9516 Y39.3166
G01 X-6.9609 Y39.3280
G01 X-6.9707 Y39.3389
G01 X-6.9920 Y39.3591
G01 X-7.0152 Y39.3772
G01 X-7.0399 Y39.3929
G01 X-7.0662 Y39.4061
G01 X-7.0921 Y39.4163
G01 X-7.1189 Y39.4239
G01 X-7.1463 Y39.4291
G01 X-7.1741 Y39.4317
G01 X-7.1880 Y39.4320
G01 X-8.7259 Y39.4317
G01 X-8.7537 Y39.4291
G01 X-8.7811 Y39.4239
G01 X-8.7946 Y39.4204
G01 X-8.8210 Y39.4115
G01 X-8.8471 Y39.3998
G01 X-8.8727 Y39.3854
G01 X-8.8967 Y39.3684
G01 X-8.9080 Y39.3591
G01 X-8.9293 Y39.3389
G01 X-8.9484 Y39.3166
G01 X-8.9654 Y39.2926
G01 X-8.9799 Y39.2671
G01 X-8.9861 Y39.2538
G01 X-8.9963 Y39.2279
G01 X-9.0039 Y39.2011
G01 X-9.0091 Y39.1737
G01 X-9.0107 Y39.1598
G01 X-9.0120 Y39.1320
G01 X-9.0117 Y37.5941
G01 X-9.0091 Y37.5663
G01 X-9.0039 Y37.5389
G01 X-8.9963 Y37.5121
G01 X-8.9915 Y37.4990
G01 X-8.9799 Y37.4729
G01 X-8.9654 Y37.4474
G01 X-8.9572 Y37.4351
G01 X-8.9391 Y37.4120
G01 X-8.9189 Y37.3907
G01 X-8.8966 Y37.3716
G01 X-8.8726 Y37.3546
G01 X-8.8471 Y37.3401
G01 X-8.8210 Y37.3285
G01 X-8.7946 Y37.3196
G01 X-8.7674 Y37.3132
G01 X-8.7537 Y37.3109
G01 X-8.7259 Y37.3083
G01 X-7.1880 Y37.3080
G00 Z1.0000
G00 X-9.0109 Y40.8653
G01 F76.20
G01 Z-0.1000
G01 F175.00
G01 X-9.0075 Y40.8132
G01 X-9.0015 Y40.7615
G01 X-8.9915 Y40.7025
G01 X-8.9819 Y40.6591
G01 X-8.9683 Y40.6088
G01 X-8.9523 Y40.5592
G01 X-8.9325 Y40.5070
G01 X-8.9131 Y40.4626
G01 X-8.8900 Y40.4159
G01 X-8.8646 Y40.3704
G01 X-8.8370 Y40.3262
G01 X-8.8020 Y40.2761
G01 X-8.7755 Y40.2420
G01 X-8.7418 Y40.2023
G01 X-8.7009 Y40.1591
G01 X-8.6686 Y40.1281
G01 X-8.6280 Y40.0926
G01 X-8.5839 Y40.0580
G01 X-8.5461 Y40.0311
G01 X-8.5010 Y40.0022
G01 X-8.4571 Y39.9769
G01 X-8.4100 Y39.9528
G01 X-8.3632 Y39.9317
G01 X-8.3147 Y39.9126
G01 X-8.2653 Y39.8960
G01 X-8.2152 Y39.8817
G01 X-8.1575 Y39.8685
G01 X-8.1131 Y39.8607
G01 X-8.0597 Y39.8537
G01 X-8.0095 Y39.8497
G01 X-7.9500 Y39.8480
G01 X-7.9052 Y39.8490
G01 X-7.8532 Y39.8525
G01 X-7.8015 Y39.8585
G01 X-7.7425 Y39.8685
G01 X-7.6991 Y39.8781
G01 X-7.6488 Y39.8917
G01 X-7.5992 Y39.9077
G01 X-7.5470 Y39.9275
G01 X-7.5026 Y39.9469
G01 X-7.4559 Y39.9700
G01 X-7.4104 Y39.9954
G01 X-7.3662 Y40.0230
G01 X-7.3161 Y40.0580
G01 X-7.2820 Y40.0845
G01 X-7.2423 Y40.1182
G01 X-7.1990 Y40.1591
G01 X-7.1681 Y40.1914
G01 X-7.1326 Y40.2320
G01 X-7.0980 Y40.2761
G01 X-7.0711 Y40.3139
G01 X-7.0422 Y40.3590
G01 X-7.0169 Y40.4029
G01 X-6.9928 Y40.4500
G01 X-6.9717 Y40.4968
G01 X-6.9526 Y40.5453
G01 X-6.9360 Y40.5947
G01 X-6.9217 Y40.6448
G01 X-6.9085 Y40.7025
G01 X-6.9007 Y40.7469
G01 X-6.8937 Y40.8003
G01 X-6.8897 Y40.8505
G01 X-6.8880 Y40.9100
G01 X-6.8890 Y40.9548
G01 X-6.8925 Y41.0068
G01 X-6.8985 Y41.0585
G01 X-6.9085 Y41.1175
G01 X-6.9181 Y41.1609
G01 X-6.9317 Y41.2112
G01 X-6.9477 Y41.2608
G01 X-6.9675 Y41.3130
G01 X-6.9869 Y41.3574
G01 X-7.0100 Y41.4041
G01 X-7.0354 Y41.4496
G01 X-7.0630 Y41.4938
G01 X-7.0980 Y41.5439
G01 X-7.1245 Y41.5780
G01 X-7.1582 Y41.6177
G01 X-7.1990 Y41.6609
G01 X-7.2314 Y41.6919
G01 X-7.2720 Y41.7274
G01 X-7.3161 Y41.7620
G01 X-7.3539 Y41.7889
G01 X-7.3990 Y41.8178
G01 X-7.4429 Y41.8431
G01 X-7.4900 Y41.8672
G01 X-7.5368 Y41.8883
G01 X-7.5853 Y41.9074
G01 X-7.6347 Y41.9240
G01 X-7.6848 Y41.9383
G01 X-7.7425 Y41.9515
G01 X-7.7869 Y41.9593
G01 X-7.8403 Y41.9663
G01 X-7.8905 Y41.9703
G01 X-7.9500 Y41.9720
G01 X-7.9948 Y41.9710
G01 X-8.0468 Y41.9675
G01 X-8.0985 Y41.9615
G01 X-8.1575 Y41.9515
G01 X-8.2009 Y41.9419
G01 X-8.2512 Y41.9283
G01 X-8.3008 Y41.9123
G01 X-8.3530 Y41.8925
G01 X-8.3974 Y41.8731
G01 X-8.4441 Y41.8500
G01 X-8.4896 Y41.8246
G01 X-8.5338 Y41.7970
G01 X-8.5839 Y41.7620
G01 X-8.6180 Y41.7355
G01 X-8.6577 Y41.7018
G01 X-8.7009 Y41.6609
G01 X-8.7319 Y41.6286
G01 X-8.7674 Y41.5880
G01 X-8.8020 Y41.5439
G01 X-8.8289 Y41.5061
G01 X-8.8578 Y41.4610
G01 X-8.8831 Y41.4171
G01 X-8.9072 Y41.3700
G01 X-8.9283 Y41.3232
G01 X-8.9474 Y41.2747
G01 X-8.9640 Y41.2253
G01 X-8.9783 Y41.1752
G01 X-8.9915 Y41.1175
G01 X-8.9993 Y41.0731
G01 X-9.0063 Y41.0197
G01 X-9.0103 Y40.9695
G01 X-9.0120 Y40.9100
G01 X-9.0109 Y40.8653
G00 Z1.0000
G00 X-16.6309 Y40.8653
G01 F76.20
G01 Z-0.1000
G01 F175.00
G01 X-16.6275 Y40.8132
G01 X-16.6215 Y40.7615
G01 X-16.6115 Y40.7025
G01 X-16.6019 Y40.6591
G01 X-16.5883 Y40.6088
G01 X-16.5723 Y40.5592
G01 X-16.5525 Y40.5070
G01 X-16.5331 Y40.4626
G01 X-16.5100 Y40.4159
G01 X-16.4846 Y40.3704
G01 X-16.4570 Y40.3262
G01 X-16.4220 Y40.2761
G01 X-16.3955 Y40.2420
G01 X-16.3618 Y40.2023
G01 X-16.3209 Y40.1591
G01 X-16.2886 Y40.1281
G01 X-16.2480 Y40.0926
G01 X-16.2039 Y40.0580
G01 X-16.1661 Y40.0311
G01 X-16.1210 Y40.0022
G01 X-16.0771 Y39.9769
G01 X-16.0300 Y39.9528
G01 X-15.9832 Y39.9317
G01 X-15.9347 Y39.9126
G01 X-15.8853 Y39.8960
G01 X-15.8352 Y39.8817
G01 X-15.7775 Y39.8685
G01 X-15.7331 Y39.8607
G01 X-15.6797 Y39.8537
G01 X-15.6295 Y39.8497
G01 X-15.5700 Y39.8480
G01 X-15.5252 Y39.8490
G01 X-15.4732 Y39.8525
G01 X-15.4215 Y39.8585
G01 X-15.3625 Y39.8685
G01 X-15.3191 Y39.8781
G01 X-15.2688 Y39.8917
G01 X-15.2192 Y39.9077
G01 X-15.1670 Y39.9275
G01 X-15.1226 Y39.9469
G01 X-15.0759 Y39.9700
G01 X-15.0304 Y39.9954
G01 X-14.9862 Y40.0230
G01 X-14.9361 Y40.0580
G01 X-14.9020 Y40.0845
G01 X-14.8623 Y40.1182
G01 X-14.8191 Y40.1591
G01 X-14.7881 Y40.1914
G01 X-14.7526 Y40.2320
G01 X-14.7180 Y40.2761
G01 X-14.6911 Y40.3139
G01 X-14.6622 Y40.3590
G01 X-14.6369 Y40.4029
G01 X-14.6128 Y40.4500
G01 X-14.5917 Y40.4968
G01 X-14.5726 Y40.5453
G01 X-14.5560 Y40.5947
G01 X-14.5417 Y40.6448
G01 X-14.5285 Y40.7025
G01 X-14.5207 Y40.7469
G01 X-14.5137 Y40.8003
G01 X-14.5097 Y40.8505
G01 X-14.5080 Y40.9100
G01 X-14.5090 Y40.9548
G01 X-14.5125 Y41.0068
G01 X-14.5185 Y41.0585
G01 X-14.5285 Y41.1175
G01 X-14.5381 Y41.1609
G01 X-14.5517 Y41.2112
G01 X-14.5677 Y41.2608
G01 X-14.5875 Y41.3130
G01 X-14.6069 Y41.3574
G01 X-14.6300 Y41.4041
G01 X-14.6554 Y41.4496
G01 X-14.6830 Y41.4938
G01 X-14.7180 Y41.5439
G01 X-14.7445 Y41.5780
G01 X-14.7782 Y41.6177
G01 X-14.8191 Y41.6609
G01 X-14.8514 Y41.6919
G01 X-14.8920 Y41.7274
G01 X-14.9361 Y41.7620
G01 X-14.9739 Y41.7889
G01 X-15.0190 Y41.8178
G01 X-15.0629 Y41.8431
G01 X-15.1100 Y41.8672
G01 X-15.1568 Y41.8883
G01 X-15.2053 Y41.9074
G01 X-15.2547 Y41.9240
G01 X-15.3048 Y41.9383
G01 X-15.3625 Y41.9515
G01 X-15.4069 Y41.9593
G01 X-15.4603 Y41.9663
G01 X-15.5105 Y41.9703
G01 X-15.5700 Y41.9720
G01 X-15.6148 Y41.9710
G01 X-15.6668 Y41.9675
G01 X-15.7185 Y41.9615
G01 X-15.7775 Y41.9515
G01 X-15.8209 Y41.9419
G01 X-15.8712 Y41.9283
G01 X-15.9208 Y41.9123
G01 X-15.9730 Y41.8925
G01 X-16.0174 Y41.8731
G01 X-16.0641 Y41.8500
G01 X-16.1096 Y41.8246
G01 X-16.1538 Y41.7970
G01 X-16.2039 Y41.7620
G01 X-16.2380 Y41.7355
G01 X-16.2777 Y41.7018
G01 X-16.3209 Y41.6609
G01 X-16.3519 Y41.6286
G01 X-16.3874 Y41.5880
G01 X-16.4220 Y41.5439
G01 X-16.4489 Y41.5061
G01 X-16.4778 Y41.4610
G01 X-16.5031 Y41.4171
G01 X-16.5272 Y41.3700
G01 X-16.5483 Y41.3232
G01 X-16.5674 Y41.2747
G01 X-16.5840 Y41.2253
G01 X-16.5983 Y41.1752
G01 X-16.6115 Y41.1175
G01 X-16.6193 Y41.0731
G01 X-16.6263 Y41.0197
G01 X-16.6303 Y40.9695
G01 X-16.6320 Y40.9100
G01 X-16.6309 Y40.8653
G00 Z1.0000
G00 X-28.1623 Y42.1303
G01 F76.20
G01 Z-0.1000
G01 F175.00
G01 X-28.1572 Y42.0586
G01 X-28.1498 Y42.0020
G01 X-28.1412 Y41.9527
G01 X-28.1304 Y41.9044
G01 X-28.1155 Y41.8493
G01 X-28.0930 Y41.7811
G01 X-28.0764 Y41.7381
G01 X-28.0490 Y41.6766
G01 X-28.0296 Y41.6380
G01 X-28.0018 Y41.5882
G01 X-27.9633 Y41.5275
G01 X-27.9336 Y41.4856
G01 X-27.9041 Y41.4476
G01 X-27.8572 Y41.3932
G01 X-27.8228 Y41.3572
G01 X-27.7759 Y41.3130
G01 X-27.7424 Y41.2841
G01 X-27.6990 Y41.2498
G01 X-27.6403 Y41.2085
G01 X-27.6033 Y41.1850
G01 X-27.5550 Y41.1573
G01 X-27.5034 Y41.1310
G01 X-27.4521 Y41.1079
G01 X-27.3850 Y41.0820
G01 X-27.3307 Y41.0645
G01 X-27.2756 Y41.0496
G01 X-27.2198 Y41.0374
G01 X-27.1634 Y41.0280
G01 X-27.1214 Y41.0228
G01 X-27.0644 Y41.0183
G01 X-27.0000 Y41.0164
G01 X-26.9356 Y41.0183
G01 X-26.8786 Y41.0228
G01 X-26.8220 Y41.0302
G01 X-26.7802 Y41.0374
G01 X-26.7244 Y41.0496
G01 X-26.6552 Y41.0687
G01 X-26.6011 Y41.0870
G01 X-26.5581 Y41.1036
G01 X-26.4966 Y41.1310
G01 X-26.4580 Y41.1504
G01 X-26.4082 Y41.1782
G01 X-26.3475 Y41.2167
G01 X-26.3056 Y41.2463
G01 X-26.2676 Y41.2759
G01 X-26.2132 Y41.3228
G01 X-26.1772 Y41.3572
G01 X-26.1556 Y41.3797
G01 X-25.7713 Y41.3798
G01 X-25.7321 Y41.3812
G01 X-25.7076 Y41.3830
G01 X-25.6686 Y41.3874
G01 X-25.6223 Y41.3952
G01 X-25.5914 Y41.4020
G01 X-25.5535 Y41.4122
G01 X-25.5161 Y41.4241
G01 X-25.4657 Y41.4436
G01 X-25.4306 Y41.4594
G01 X-25.3950 Y41.4778
G01 X-25.3610 Y41.4975
G01 X-25.3403 Y41.5106
G01 X-25.3007 Y41.5382
G01 X-25.2768 Y41.5568
G01 X-25.2468 Y41.5822
G01 X-25.2128 Y41.6141
G01 X-20.3672 Y46.4597
G01 X-14.6315 Y46.4597
G01 X-11.2903 Y43.1185
G01 X-11.2903 Y41.6078
G01 X-11.3155 Y41.5780
G01 X-11.3473 Y41.5367
G01 X-11.3770 Y41.4938
G01 X-11.4046 Y41.4496
G01 X-11.4300 Y41.4041
G01 X-11.4472 Y41.3700
G01 X-11.4683 Y41.3232
G01 X-11.4874 Y41.2747
G01 X-11.5083 Y41.2112
G01 X-11.5219 Y41.1609
G01 X-11.5329 Y41.1099
G01 X-11.5415 Y41.0585
G01 X-11.5475 Y41.0068
G01 X-11.5510 Y40.9548
G01 X-11.5520 Y40.9100
G01 X-11.5503 Y40.8505
G01 X-11.5461 Y40.7986
G01 X-11.5393 Y40.7469
G01 X-11.5315 Y40.7025
G01 X-11.5219 Y40.6591
G01 X-11.5083 Y40.6088
G01 X-11.4923 Y40.5592
G01 X-11.4739 Y40.5104
G01 X-11.4531 Y40.4626
G01 X-11.4300 Y40.4159
G01 X-11.4046 Y40.3704
G01 X-11.3770 Y40.3262
G01 X-11.3385 Y40.2715
G01 X-11.3062 Y40.2306
G01 X-11.2719 Y40.1914
G01 X-11.2409 Y40.1591
G01 X-11.2086 Y40.1281
G01 X-11.1580 Y40.0845
G01 X-11.1239 Y40.0580
G01 X-11.0861 Y40.0311
G01 X-11.0296 Y39.9954
G01 X-10.9841 Y39.9700
G01 X-10.9500 Y39.9528
G01 X-10.8930 Y39.9275
G01 X-10.8547 Y39.9126
G01 X-10.8053 Y39.8960
G01 X-10.7409 Y39.8781
G01 X-10.6975 Y39.8685
G01 X-10.6531 Y39.8607
G01 X-10.5868 Y39.8525
G01 X-10.5348 Y39.8490
G01 X-10.4974 Y39.8481
G01 X-10.4305 Y39.8497
G01 X-10.3786 Y39.8539
G01 X-10.3415 Y39.8585
G01 X-10.2825 Y39.8685
G01 X-10.2391 Y39.8781
G01 X-10.1888 Y39.8917
G01 X-10.1253 Y39.9126
G01 X-10.0870 Y39.9275
G01 X-10.0426 Y39.9469
G01 X-9.9829 Y39.9769
G01 X-9.9378 Y40.0030
G01 X-9.9062 Y40.0230
G01 X-9.8561 Y40.0580
G01 X-9.8220 Y40.0845
G01 X-9.7823 Y40.1182
G01 X-9.7391 Y40.1591
G01 X-9.6982 Y40.2023
G01 X-9.6726 Y40.2320
G01 X-9.6380 Y40.2761
G01 X-9.6030 Y40.3262
G01 X-9.5822 Y40.3590
G01 X-9.5569 Y40.4029
G01 X-9.5269 Y40.4626
G01 X-9.5075 Y40.5070
G01 X-9.4926 Y40.5453
G01 X-9.4717 Y40.6088
G01 X-9.4581 Y40.6591
G01 X-9.4485 Y40.7025
G01 X-9.4385 Y40.7615
G01 X-9.4337 Y40.8003
G01 X-9.4297 Y40.8505
G01 X-9.4280 Y40.9100
G01 X-9.4290 Y40.9548
G01 X-9.4325 Y41.0068
G01 X-9.4385 Y41.0585
G01 X-9.4485 Y41.1175
G01 X-9.4581 Y41.1609
G01 X-9.4717 Y41.2112
G01 X-9.4877 Y41.2608
G01 X-9.5075 Y41.3130
G01 X-9.5269 Y41.3574
G01 X-9.5500 Y41.4041
G01 X-9.5754 Y41.4496
G01 X-9.6030 Y41.4938
G01 X-9.6327 Y41.5367
G01 X-9.6645 Y41.5780
G01 X-9.6897 Y41.6078
G01 X-9.6897 Y43.4500
G01 X-9.6912 Y43.4966
G01 X-9.6944 Y43.5358
G01 X-9.6974 Y43.5601
G01 X-9.7052 Y43.6064
G01 X-9.7156 Y43.6516
G01 X-9.7264 Y43.6893
G01 X-9.7341 Y43.7126
G01 X-9.7536 Y43.7630
G01 X-9.7695 Y43.7980
G01 X-9.7809 Y43.8207
G01 X-9.7999 Y43.8550
G01 X-9.8288 Y43.9007
G01 X-9.8482 Y43.9280
G01 X-9.8761 Y43.9633
G01 X-9.9021 Y43.9928
G01 X-9.9241 Y44.0159
G01 X-13.7341 Y47.8259
G01 X-13.7572 Y47.8479
G01 X-13.7881 Y47.8751
G01 X-13.8174 Y47.8983
G01 X-13.8616 Y47.9294
G01 X-13.8835 Y47.9433
G01 X-13.9163 Y47.9622
G01 X-13.9520 Y47.9805
G01 X-13.9870 Y47.9964
G01 X-14.0374 Y48.0159
G01 X-14.0748 Y48.0278
G01 X-14.1127 Y48.0380
G01 X-14.1436 Y48.0448
G01 X-14.1753 Y48.0504
G01 X-14.2160 Y48.0558
G01 X-14.2534 Y48.0588
G01 X-14.3000 Y48.0603
G01 X-20.6987 Y48.0603
G01 X-20.7453 Y48.0588
G01 X-20.7844 Y48.0556
G01 X-20.8234 Y48.0504
G01 X-20.8551 Y48.0448
G01 X-20.9003 Y48.0344
G01 X-20.9380 Y48.0236
G01 X-20.9752 Y48.0109
G01 X-21.0117 Y47.9964
G01 X-21.0467 Y47.9805
G01 X-21.0824 Y47.9622
G01 X-21.1164 Y47.9425
G01 X-21.1494 Y47.9212
G01 X-21.1767 Y47.9018
G01 X-21.2120 Y47.8739
G01 X-21.2415 Y47.8479
G01 X-21.2645 Y47.8259
G01 X-26.1102 Y42.9803
G01 X-26.1556 Y42.9803
G01 X-26.1825 Y43.0079
G01 X-26.2241 Y43.0470
G01 X-26.2576 Y43.0759
G01 X-26.3056 Y43.1137
G01 X-26.3475 Y43.1433
G01 X-26.3967 Y43.1750
G01 X-26.4580 Y43.2096
G01 X-26.4966 Y43.2290
G01 X-26.5479 Y43.2521
G01 X-26.6150 Y43.2780
G01 X-26.6693 Y43.2955
G01 X-26.7101 Y43.3069
G01 X-26.7727 Y43.3212
G01 X-26.8366 Y43.3320
G01 X-26.8804 Y43.3374
G01 X-26.9356 Y43.3417
G01 X-27.0074 Y43.3435
G01 X-27.0644 Y43.3417
G01 X-27.1067 Y43.3386
G01 X-27.1780 Y43.3298
G01 X-27.2273 Y43.3212
G01 X-27.2756 Y43.3104
G01 X-27.3448 Y43.2913
G01 X-27.3989 Y43.2730
G01 X-27.4419 Y43.2564
G01 X-27.4908 Y43.2349
G01 X-27.5420 Y43.2096
G01 X-27.6045 Y43.1742
G01 X-27.6525 Y43.1433
G01 X-27.6872 Y43.1189
G01 X-27.7438 Y43.0747
G01 X-27.7868 Y43.0372
G01 X-27.8175 Y43.0079
G01 X-27.8670 Y42.9559
G01 X-27.8959 Y42.9224
G01 X-27.9302 Y42.8790
G01 X-27.9715 Y42.8203
G01 X-27.9950 Y42.7833
G01 X-28.0227 Y42.7350
G01 X-28.0490 Y42.6834
G01 X-28.0721 Y42.6321
G01 X-28.0980 Y42.5650
G01 X-28.1155 Y42.5107
G01 X-28.1269 Y42.4699
G01 X-28.1426 Y42.3998
G01 X-28.1520 Y42.3434
G01 X-28.1574 Y42.2996
G01 X-28.1625 Y42.2297
G01 X-28.1636 Y42.1800
G01 X-28.1623 Y42.1303
G00 Z1.0000
G00 X-28.1623 Y44.6703
G01 F76.20
G01 Z-0.1000
G01 F175.00
G01 X-28.1586 Y44.6133
G01 X-28.1520 Y44.5566
G01 X-28.1412 Y44.4927
G01 X-28.1304 Y44.4444
G01 X-28.1155 Y44.3893
G01 X-28.0980 Y44.3350
G01 X-28.0764 Y44.2781
G01 X-28.0549 Y44.2292
G01 X-28.0296 Y44.1780
G01 X-28.0018 Y44.1282
G01 X-27.9715 Y44.0797
G01 X-27.9336 Y44.0256
G01 X-27.9041 Y43.9876
G01 X-27.8670 Y43.9441
G01 X-27.8228 Y43.8972
G01 X-27.7868 Y43.8628
G01 X-27.7424 Y43.8241
G01 X-27.6944 Y43.7863
G01 X-27.6525 Y43.7567
G01 X-27.6033 Y43.7250
G01 X-27.5550 Y43.6973
G01 X-27.5034 Y43.6710
G01 X-27.4419 Y43.6436
G01 X-27.3989 Y43.6270
G01 X-27.3448 Y43.6087
G01 X-27.2899 Y43.5931
G01 X-27.2273 Y43.5788
G01 X-27.1780 Y43.5702
G01 X-27.1196 Y43.5626
G01 X-27.0644 Y43.5583
G01 X-27.0000 Y43.5564
G01 X-26.9503 Y43.5575
G01 X-26.8933 Y43.5614
G01 X-26.8366 Y43.5680
G01 X-26.7727 Y43.5788
G01 X-26.7244 Y43.5896
G01 X-26.6693 Y43.6045
G01 X-26.6150 Y43.6220
G01 X-26.5581 Y43.6436
G01 X-26.5092 Y43.6651
G01 X-26.4580 Y43.6904
G01 X-26.4082 Y43.7182
G01 X-26.3597 Y43.7485
G01 X-26.3056 Y43.7863
G01 X-26.2676 Y43.8159
G01 X-26.2241 Y43.8530
G01 X-26.1772 Y43.8972
G01 X-26.1428 Y43.9332
G01 X-26.1041 Y43.9776
G01 X-26.0664 Y44.0256
G01 X-26.0367 Y44.0675
G01 X-26.0050 Y44.1167
G01 X-25.9773 Y44.1650
G01 X-25.9510 Y44.2166
G01 X-25.9236 Y44.2781
G01 X-25.9070 Y44.3211
G01 X-25.8887 Y44.3752
G01 X-25.8731 Y44.4301
G01 X-25.8588 Y44.4927
G01 X-25.8502 Y44.5420
G01 X-25.8426 Y44.6004
G01 X-25.8383 Y44.6556
G01 X-25.8364 Y44.7200
G01 X-25.8375 Y44.7697
G01 X-25.8414 Y44.8267
G01 X-25.8480 Y44.8834
G01 X-25.8588 Y44.9473
G01 X-25.8696 Y44.9956
G01 X-25.8845 Y45.0507
G01 X-25.9020 Y45.1050
G01 X-25.9236 Y45.1619
G01 X-25.9451 Y45.2108
G01 X-25.9704 Y45.2620
G01 X-25.9982 Y45.3118
G01 X-26.0285 Y45.3603
G01 X-26.0664 Y45.4144
G01 X-26.0959 Y45.4524
G01 X-26.1330 Y45.4959
G01 X-26.1772 Y45.5428
G01 X-26.2132 Y45.5772
G01 X-26.2576 Y45.6159
G01 X-26.3056 Y45.6537
G01 X-26.3475 Y45.6833
G01 X-26.3967 Y45.7150
G01 X-26.4450 Y45.7427
G01 X-26.4966 Y45.7690
G01 X-26.5581 Y45.7964
G01 X-26.6011 Y45.8130
G01 X-26.6552 Y45.8313
G01 X-26.7101 Y45.8469
G01 X-26.7727 Y45.8612
G01 X-26.8220 Y45.8698
G01 X-26.8804 Y45.8774
G01 X-26.9356 Y45.8817
G01 X-27.0000 Y45.8836
G01 X-27.0497 Y45.8825
G01 X-27.1067 Y45.8786
G01 X-27.1634 Y45.8720
G01 X-27.2273 Y45.8612
G01 X-27.2756 Y45.8504
G01 X-27.3307 Y45.8355
G01 X-27.3850 Y45.8180
G01 X-27.4419 Y45.7964
G01 X-27.4908 Y45.7749
G01 X-27.5420 Y45.7496
G01 X-27.5918 Y45.7218
G01 X-27.6403 Y45.6915
G01 X-27.6944 Y45.6537
G01 X-27.7324 Y45.6241
G01 X-27.7759 Y45.5870
G01 X-27.8228 Y45.5428
G01 X-27.8572 Y45.5068
G01 X-27.8959 Y45.4624
G01 X-27.9336 Y45.4144
G01 X-27.9633 Y45.3725
G01 X-27.9950 Y45.3233
G01 X-28.0227 Y45.2750
G01 X-28.0490 Y45.2234
G01 X-28.0764 Y45.1619
G01 X-28.0930 Y45.1189
G01 X-28.1113 Y45.0648
G01 X-28.1269 Y45.0099
G01 X-28.1412 Y44.9473
G01 X-28.1498 Y44.8980
G01 X-28.1574 Y44.8396
G01 X-28.1617 Y44.7844
G01 X-28.1636 Y44.7200
G01 X-28.1623 Y44.6703
G00 Z1.0000
G00 X-28.1623 Y37.0503
G01 F76.20
G01 Z-0.1000
G01 F175.00
G01 X-28.1572 Y36.9786
G01 X-28.1498 Y36.9220
G01 X-28.1412 Y36.8727
G01 X-28.1304 Y36.8244
G01 X-28.1155 Y36.7693
G01 X-28.0930 Y36.7011
G01 X-28.0764 Y36.6581
G01 X-28.0490 Y36.5966
G01 X-28.0296 Y36.5580
G01 X-28.0018 Y36.5082
G01 X-27.9715 Y36.4597
G01 X-27.9389 Y36.4128
G01 X-27.8947 Y36.3562
G01 X-27.8572 Y36.3132
G01 X-27.8228 Y36.2772
G01 X-27.7868 Y36.2428
G01 X-27.7438 Y36.2053
G01 X-27.6872 Y36.1611
G01 X-27.6403 Y36.1285
G01 X-27.6033 Y36.1050
G01 X-27.5550 Y36.0773
G01 X-27.5041 Y36.0513
G01 X-27.4385 Y36.0222
G01 X-27.3850 Y36.0020
G01 X-27.3307 Y35.9845
G01 X-27.2756 Y35.9696
G01 X-27.2342 Y35.9603
G01 X-27.1780 Y35.9502
G01 X-27.1196 Y35.9426
G01 X-27.0497 Y35.9375
G01 X-26.9926 Y35.9365
G01 X-26.9356 Y35.9383
G01 X-26.8786 Y35.9428
G01 X-26.8220 Y35.9502
G01 X-26.7802 Y35.9574
G01 X-26.7244 Y35.9696
G01 X-26.6552 Y35.9887
G01 X-26.6011 Y36.0070
G01 X-26.5581 Y36.0236
G01 X-26.4966 Y36.0510
G01 X-26.4580 Y36.0704
G01 X-26.4082 Y36.0982
G01 X-26.3475 Y36.1367
G01 X-26.3056 Y36.1663
G01 X-26.2676 Y36.1959
G01 X-26.2132 Y36.2428
G01 X-26.1772 Y36.2772
G01 X-26.1556 Y36.2997
G01 X-25.7713 Y36.2998
G01 X-25.7321 Y36.3012
G01 X-25.7076 Y36.3030
G01 X-25.6540 Y36.3096
G01 X-25.6223 Y36.3152
G01 X-25.5771 Y36.3256
G01 X-25.5394 Y36.3364
G01 X-25.5022 Y36.3491
G01 X-25.4657 Y36.3636
G01 X-25.4306 Y36.3795
G01 X-25.4080 Y36.3909
G01 X-25.3736 Y36.4099
G01 X-25.3403 Y36.4306
G01 X-25.3007 Y36.4582
G01 X-25.2768 Y36.4768
G01 X-25.2468 Y36.5022
G01 X-25.2128 Y36.5341
G01 X-17.8272 Y43.9197
G01 X-16.0938 Y43.9197
G01 X-13.8303 Y41.6562
G01 X-13.8303 Y41.6078
G01 X-13.8555 Y41.5780
G01 X-13.8820 Y41.5439
G01 X-13.9170 Y41.4938
G01 X-13.9378 Y41.4610
G01 X-13.9631 Y41.4171
G01 X-13.9931 Y41.3574
G01 X-14.0125 Y41.3130
G01 X-14.0323 Y41.2608
G01 X-14.0483 Y41.2112
G01 X-14.0619 Y41.1609
G01 X-14.0715 Y41.1175
G01 X-14.0793 Y41.0731
G01 X-14.0863 Y41.0197
G01 X-14.0903 Y40.9695
G01 X-14.0920 Y40.9100
G01 X-14.0903 Y40.8505
G01 X-14.0861 Y40.7986
G01 X-14.0815 Y40.7615
G01 X-14.0715 Y40.7025
G01 X-14.0583 Y40.6448
G01 X-14.0440 Y40.5947
G01 X-14.0323 Y40.5592
G01 X-14.0125 Y40.5070
G01 X-13.9872 Y40.4500
G01 X-13.9631 Y40.4029
G01 X-13.9370 Y40.3578
G01 X-13.9170 Y40.3262
G01 X-13.8820 Y40.2761
G01 X-13.8462 Y40.2306
G01 X-13.8119 Y40.1914
G01 X-13.7861 Y40.1643
G01 X-13.7377 Y40.1182
G01 X-13.6980 Y40.0845
G01 X-13.6639 Y40.0580
G01 X-13.6261 Y40.0311
G01 X-13.5810 Y40.0022
G01 X-13.5241 Y39.9700
G01 X-13.4774 Y39.9469
G01 X-13.4330 Y39.9275
G01 X-13.3947 Y39.9126
G01 X-13.3453 Y39.8960
G01 X-13.2952 Y39.8817
G01 X-13.2444 Y39.8699
G01 X-13.1785 Y39.8585
G01 X-13.1268 Y39.8525
G01 X-13.0748 Y39.8490
G01 X-13.0300 Y39.8480
G01 X-12.9705 Y39.8497
G01 X-12.9186 Y39.8539
G01 X-12.8669 Y39.8607
G01 X-12.8225 Y39.8685
G01 X-12.7791 Y39.8781
G01 X-12.7288 Y39.8917
G01 X-12.6792 Y39.9077
G01 X-12.6270 Y39.9275
G01 X-12.5826 Y39.9469
G01 X-12.5359 Y39.9700
G01 X-12.4904 Y39.9954
G01 X-12.4339 Y40.0311
G01 X-12.3961 Y40.0580
G01 X-12.3506 Y40.0938
G01 X-12.3114 Y40.1281
G01 X-12.2791 Y40.1591
G01 X-12.2481 Y40.1914
G01 X-12.2126 Y40.2320
G01 X-12.1780 Y40.2761
G01 X-12.1511 Y40.3139
G01 X-12.1154 Y40.3704
G01 X-12.0900 Y40.4159
G01 X-12.0669 Y40.4626
G01 X-12.0475 Y40.5070
G01 X-12.0326 Y40.5453
G01 X-12.0160 Y40.5947
G01 X-11.9981 Y40.6591
G01 X-11.9885 Y40.7025
G01 X-11.9807 Y40.7469
G01 X-11.9725 Y40.8132
G01 X-11.9690 Y40.8652
G01 X-11.9681 Y40.9026
G01 X-11.9697 Y40.9695
G01 X-11.9739 Y41.0214
G01 X-11.9807 Y41.0731
G01 X-11.9871 Y41.1099
G01 X-12.0017 Y41.1752
G01 X-12.0160 Y41.2253
G01 X-12.0277 Y41.2608
G01 X-12.0517 Y41.3232
G01 X-12.0728 Y41.3700
G01 X-12.0900 Y41.4041
G01 X-12.1230 Y41.4622
G01 X-12.1511 Y41.5061
G01 X-12.1780 Y41.5439
G01 X-12.2045 Y41.5780
G01 X-12.2297 Y41.6078
G01 X-12.2297 Y41.9876
G01 X-12.2312 Y42.0342
G01 X-12.2344 Y42.0734
G01 X-12.2396 Y42.1123
G01 X-12.2438 Y42.1365
G01 X-12.2520 Y42.1749
G01 X-12.2664 Y42.2269
G01 X-12.2791 Y42.2641
G01 X-12.2893 Y42.2905
G01 X-12.3035 Y42.3231
G01 X-12.3278 Y42.3713
G01 X-12.3475 Y42.4053
G01 X-12.3688 Y42.4383
G01 X-12.3829 Y42.4584
G01 X-12.4068 Y42.4896
G01 X-12.4322 Y42.5195
G01 X-12.4641 Y42.5535
G01 X-15.1965 Y45.2859
G01 X-15.2305 Y45.3178
G01 X-15.2505 Y45.3351
G01 X-15.2844 Y45.3618
G01 X-15.3117 Y45.3812
G01 X-15.3459 Y45.4033
G01 X-15.3917 Y45.4291
G01 X-15.4143 Y45.4405
G01 X-15.4494 Y45.4564
G01 X-15.4859 Y45.4709
G01 X-15.5231 Y45.4836
G01 X-15.5751 Y45.4980
G01 X-15.6059 Y45.5048
G01 X-15.6522 Y45.5126
G01 X-15.6913 Y45.5170
G01 X-15.7305 Y45.5196
G01 X-15.7550 Y45.5202
G01 X-18.1660 Y45.5202
G01 X-18.2053 Y45.5188
G01 X-18.2298 Y45.5170
G01 X-18.2834 Y45.5104
G01 X-18.3151 Y45.5048
G01 X-18.3460 Y45.4980
G01 X-18.3980 Y45.4836
G01 X-18.4352 Y45.4709
G01 X-18.4615 Y45.4607
G01 X-18.4941 Y45.4465
G01 X-18.5424 Y45.4222
G01 X-18.5764 Y45.4025
G01 X-18.6094 Y45.3812
G01 X-18.6294 Y45.3671
G01 X-18.6606 Y45.3432
G01 X-18.6906 Y45.3178
G01 X-18.7245 Y45.2859
G01 X-26.1102 Y37.9003
G01 X-26.1556 Y37.9003
G01 X-26.1825 Y37.9279
G01 X-26.2241 Y37.9670
G01 X-26.2576 Y37.9959
G01 X-26.3056 Y38.0337
G01 X-26.3475 Y38.0633
G01 X-26.3967 Y38.0950
G01 X-26.4580 Y38.1296
G01 X-26.4966 Y38.1490
G01 X-26.5479 Y38.1721
G01 X-26.6150 Y38.1980
G01 X-26.6693 Y38.2155
G01 X-26.7101 Y38.2269
G01 X-26.7727 Y38.2412
G01 X-26.8366 Y38.2520
G01 X-26.8804 Y38.2574
G01 X-26.9356 Y38.2617
G01 X-27.0074 Y38.2635
G01 X-27.0644 Y38.2617
G01 X-27.1067 Y38.2586
G01 X-27.1780 Y38.2498
G01 X-27.2273 Y38.2412
G01 X-27.2756 Y38.2304
G01 X-27.3448 Y38.2113
G01 X-27.3989 Y38.1930
G01 X-27.4419 Y38.1764
G01 X-27.4908 Y38.1549
G01 X-27.5420 Y38.1296
G01 X-27.6045 Y38.0942
G01 X-27.6525 Y38.0633
G01 X-27.6872 Y38.0389
G01 X-27.7438 Y37.9947
G01 X-27.7868 Y37.9572
G01 X-27.8175 Y37.9279
G01 X-27.8670 Y37.8759
G01 X-27.8959 Y37.8424
G01 X-27.9302 Y37.7990
G01 X-27.9715 Y37.7403
G01 X-27.9950 Y37.7033
G01 X-28.0227 Y37.6550
G01 X-28.0490 Y37.6034
G01 X-28.0721 Y37.5521
G01 X-28.0980 Y37.4850
G01 X-28.1155 Y37.4307
G01 X-28.1269 Y37.3899
G01 X-28.1426 Y37.3198
G01 X-28.1520 Y37.2634
G01 X-28.1574 Y37.2196
G01 X-28.1625 Y37.1497
G01 X-28.1636 Y37.1000
G01 X-28.1623 Y37.0503
G00 Z1.0000
G00 X-28.1623 Y34.5103
G01 F76.20
G01 Z-0.1000
G01 F175.00
G01 X-28.1572 Y34.4386
G01 X-28.1498 Y34.3820
G01 X-28.1397 Y34.3258
G01 X-28.1269 Y34.2701
G01 X-28.1113 Y34.2152
G01 X-28.0930 Y34.1611
G01 X-28.0764 Y34.1181
G01 X-28.0549 Y34.0692
G01 X-28.0296 Y34.0180
G01 X-28.0018 Y33.9682
G01 X-27.9715 Y33.9197
G01 X-27.9302 Y33.8610
G01 X-27.8947 Y33.8162
G01 X-27.8572 Y33.7732
G01 X-27.8228 Y33.7372
G01 X-27.7759 Y33.6930
G01 X-27.7424 Y33.6641
G01 X-27.6944 Y33.6263
G01 X-27.6525 Y33.5967
G01 X-27.6033 Y33.5650
G01 X-27.5550 Y33.5373
G01 X-27.5034 Y33.5110
G01 X-27.4419 Y33.4836
G01 X-27.3989 Y33.4670
G01 X-27.3448 Y33.4487
G01 X-27.2899 Y33.4331
G01 X-27.2198 Y33.4174
G01 X-27.1634 Y33.4080
G01 X-27.1067 Y33.4014
G01 X-27.0497 Y33.3975
G01 X-27.0000 Y33.3964
G01 X-26.9503 Y33.3975
G01 X-26.8933 Y33.4014
G01 X-26.8366 Y33.4080
G01 X-26.7727 Y33.4188
G01 X-26.7244 Y33.4296
G01 X-26.6552 Y33.4487
G01 X-26.6011 Y33.4670
G01 X-26.5479 Y33.4879
G01 X-26.4966 Y33.5110
G01 X-26.4580 Y33.5304
G01 X-26.4082 Y33.5582
G01 X-26.3597 Y33.5885
G01 X-26.3056 Y33.6263
G01 X-26.2562 Y33.6653
G01 X-26.2132 Y33.7028
G01 X-26.1772 Y33.7372
G01 X-26.1556 Y33.7597
G01 X-19.3800 Y33.7597
G01 X-19.3481 Y33.7604
G01 X-19.3089 Y33.7630
G01 X-19.2553 Y33.7696
G01 X-19.2236 Y33.7752
G01 X-19.1927 Y33.7820
G01 X-19.1407 Y33.7964
G01 X-19.1035 Y33.8091
G01 X-19.0670 Y33.8236
G01 X-19.0320 Y33.8395
G01 X-19.0093 Y33.8509
G01 X-18.9750 Y33.8699
G01 X-18.9293 Y33.8988
G01 X-18.8974 Y33.9217
G01 X-18.8667 Y33.9461
G01 X-18.8372 Y33.9721
G01 X-18.8194 Y33.9890
G01 X-15.4976 Y37.3107
G01 X-15.4586 Y37.3139
G01 X-15.4069 Y37.3207
G01 X-15.3625 Y37.3285
G01 X-15.3048 Y37.3417
G01 X-15.2547 Y37.3560
G01 X-15.2053 Y37.3726
G01 X-15.1568 Y37.3917
G01 X-15.1100 Y37.4128
G01 X-15.0629 Y37.4369
G01 X-15.0178 Y37.4630
G01 X-14.9739 Y37.4911
G01 X-14.9361 Y37.5180
G01 X-14.9020 Y37.5445
G01 X-14.8623 Y37.5782
G01 X-14.8191 Y37.6191
G01 X-14.7881 Y37.6514
G01 X-14.7445 Y37.7020
G01 X-14.7180 Y37.7361
G01 X-14.6911 Y37.7739
G01 X-14.6622 Y37.8190
G01 X-14.6300 Y37.8759
G01 X-14.6069 Y37.9226
G01 X-14.5875 Y37.9670
G01 X-14.5726 Y38.0053
G01 X-14.5517 Y38.0688
G01 X-14.5381 Y38.1191
G01 X-14.5299 Y38.1556
G01 X-14.5207 Y38.2069
G01 X-14.5125 Y38.2732
G01 X-14.5090 Y38.3252
G01 X-14.5081 Y38.3626
G01 X-14.5097 Y38.4295
G01 X-14.5139 Y38.4814
G01 X-14.5207 Y38.5331
G01 X-14.5271 Y38.5699
G01 X-14.5381 Y38.6209
G01 X-14.5560 Y38.6853
G01 X-14.5726 Y38.7347
G01 X-14.5875 Y38.7730
G01 X-14.6069 Y38.8174
G01 X-14.6300 Y38.8641
G01 X-14.6630 Y38.9222
G01 X-14.6911 Y38.9661
G01 X-14.7215 Y39.0085
G01 X-14.7538 Y39.0494
G01 X-14.7881 Y39.0886
G01 X-14.8139 Y39.1157
G01 X-14.8514 Y39.1519
G01 X-14.8920 Y39.1874
G01 X-14.9361 Y39.2220
G01 X-14.9862 Y39.2570
G01 X-15.0190 Y39.2778
G01 X-15.0629 Y39.3031
G01 X-15.1100 Y39.3272
G01 X-15.1670 Y39.3525
G01 X-15.2192 Y39.3723
G01 X-15.2688 Y39.3883
G01 X-15.3191 Y39.4019
G01 X-15.3556 Y39.4101
G01 X-15.4069 Y39.4193
G01 X-15.4603 Y39.4263
G01 X-15.5252 Y39.4310
G01 X-15.5774 Y39.4319
G01 X-15.6295 Y39.4303
G01 X-15.6668 Y39.4275
G01 X-15.7185 Y39.4215
G01 X-15.7775 Y39.4115
G01 X-15.8209 Y39.4019
G01 X-15.8853 Y39.3840
G01 X-15.9347 Y39.3674
G01 X-15.9832 Y39.3483
G01 X-16.0307 Y39.3268
G01 X-16.0771 Y39.3031
G01 X-16.1096 Y39.2846
G01 X-16.1538 Y39.2570
G01 X-16.2039 Y39.2220
G01 X-16.2380 Y39.1955
G01 X-16.2886 Y39.1519
G01 X-16.3261 Y39.1157
G01 X-16.3618 Y39.0777
G01 X-16.3862 Y39.0494
G01 X-16.4185 Y39.0085
G01 X-16.4570 Y38.9538
G01 X-16.4846 Y38.9096
G01 X-16.5100 Y38.8641
G01 X-16.5268 Y38.8307
G01 X-16.5483 Y38.7832
G01 X-16.5674 Y38.7347
G01 X-16.5840 Y38.6853
G01 X-16.6019 Y38.6209
G01 X-16.6129 Y38.5699
G01 X-16.6215 Y38.5185
G01 X-16.6263 Y38.4797
G01 X-16.6293 Y38.4424
G01 X-19.7115 Y35.3603
G01 X-26.1556 Y35.3603
G01 X-26.1772 Y35.3828
G01 X-26.2132 Y35.4172
G01 X-26.2576 Y35.4559
G01 X-26.3056 Y35.4937
G01 X-26.3597 Y35.5315
G01 X-26.4082 Y35.5618
G01 X-26.4580 Y35.5896
G01 X-26.4966 Y35.6090
G01 X-26.5479 Y35.6321
G01 X-26.6011 Y35.6530
G01 X-26.6693 Y35.6755
G01 X-26.7244 Y35.6904
G01 X-26.7802 Y35.7026
G01 X-26.8366 Y35.7120
G01 X-26.8786 Y35.7172
G01 X-26.9356 Y35.7217
G01 X-27.0000 Y35.7236
G01 X-27.0644 Y35.7217
G01 X-27.1214 Y35.7172
G01 X-27.1780 Y35.7098
G01 X-27.2273 Y35.7012
G01 X-27.2899 Y35.6869
G01 X-27.3448 Y35.6713
G01 X-27.3989 Y35.6530
G01 X-27.4521 Y35.6321
G01 X-27.5034 Y35.6090
G01 X-27.5550 Y35.5827
G01 X-27.6045 Y35.5542
G01 X-27.6525 Y35.5233
G01 X-27.6944 Y35.4937
G01 X-27.7324 Y35.4641
G01 X-27.7759 Y35.4270
G01 X-27.8228 Y35.3828
G01 X-27.8572 Y35.3468
G01 X-27.8947 Y35.3038
G01 X-27.9336 Y35.2544
G01 X-27.9633 Y35.2125
G01 X-27.9950 Y35.1633
G01 X-28.0227 Y35.1150
G01 X-28.0490 Y35.0634
G01 X-28.0721 Y35.0121
G01 X-28.0980 Y34.9450
G01 X-28.1155 Y34.8907
G01 X-28.1304 Y34.8356
G01 X-28.1412 Y34.7873
G01 X-28.1520 Y34.7234
G01 X-28.1586 Y34.6667
G01 X-28.1625 Y34.6097
G01 X-28.1636 Y34.5600
G01 X-28.1623 Y34.5103
G00 Z1.0000
G00 X-29.8630 Y31.5117
G01 F76.20
G01 Z-0.1000
G01 F175.00
G01 X-29.8592 Y31.4578
G01 X-29.8540 Y31.4189
G01 X-29.8469 Y31.3803
G01 X-29.8380 Y31.3420
G01 X-29.8272 Y31.3043
G01 X-29.8145 Y31.2671
G01 X-29.8000 Y31.2306
G01 X-29.7841 Y31.1956
G01 X-29.7658 Y31.1599
G01 X-29.7461 Y31.1259
G01 X-29.7248 Y31.0929
G01 X-29.7054 Y31.0656
G01 X-29.6868 Y31.0417
G01 X-29.6614 Y31.0117
G01 X-29.6346 Y30.9830
G01 X-26.2906 Y27.6390
G01 X-26.2619 Y27.6122
G01 X-26.2419 Y27.5949
G01 X-26.2080 Y27.5682
G01 X-26.1684 Y27.5406
G01 X-26.1465 Y27.5267
G01 X-26.1137 Y27.5078
G01 X-26.0655 Y27.4835
G01 X-26.0329 Y27.4693
G01 X-26.0065 Y27.4591
G01 X-25.9693 Y27.4464
G01 X-25.9173 Y27.4320
G01 X-25.8864 Y27.4252
G01 X-25.8547 Y27.4196
G01 X-25.8140 Y27.4142
G01 X-25.7766 Y27.4112
G01 X-25.7300 Y27.4097
G01 X-13.0300 Y27.4097
G01 X-12.9981 Y27.4104
G01 X-12.9589 Y27.4130
G01 X-12.9053 Y27.4196
G01 X-12.8736 Y27.4252
G01 X-12.8427 Y27.4320
G01 X-12.8048 Y27.4422
G01 X-12.7674 Y27.4541
G01 X-12.7271 Y27.4693
G01 X-12.6819 Y27.4895
G01 X-12.6463 Y27.5078
G01 X-12.6123 Y27.5275
G01 X-12.5793 Y27.5488
G01 X-12.5474 Y27.5717
G01 X-12.5167 Y27.5961
G01 X-12.4872 Y27.6221
G01 X-12.4694 Y27.6390
G01 X-9.9241 Y30.1841
G01 X-9.8922 Y30.2181
G01 X-9.8749 Y30.2381
G01 X-9.8517 Y30.2674
G01 X-9.8288 Y30.2993
G01 X-9.7999 Y30.3450
G01 X-9.7809 Y30.3793
G01 X-9.7695 Y30.4020
G01 X-9.7536 Y30.4370
G01 X-9.7391 Y30.4735
G01 X-9.7222 Y30.5248
G01 X-9.7120 Y30.5627
G01 X-9.7067 Y30.5867
G01 X-9.6974 Y30.6399
G01 X-9.6942 Y30.6660
G01 X-9.6912 Y30.7034
G01 X-9.6897 Y30.7500
G01 X-9.6897 Y37.6722
G01 X-9.6645 Y37.7020
G01 X-9.6380 Y37.7361
G01 X-9.6030 Y37.7862
G01 X-9.5822 Y37.8190
G01 X-9.5569 Y37.8629
G01 X-9.5328 Y37.9100
G01 X-9.5075 Y37.9670
G01 X-9.4877 Y38.0192
G01 X-9.4717 Y38.0688
G01 X-9.4617 Y38.1048
G01 X-9.4485 Y38.1625
G01 X-9.4385 Y38.2215
G01 X-9.4337 Y38.2603
G01 X-9.4297 Y38.3105
G01 X-9.4280 Y38.3700
G01 X-9.4297 Y38.4295
G01 X-9.4339 Y38.4814
G01 X-9.4385 Y38.5185
G01 X-9.4485 Y38.5775
G01 X-9.4617 Y38.6352
G01 X-9.4760 Y38.6853
G01 X-9.4877 Y38.7208
G01 X-9.5117 Y38.7832
G01 X-9.5328 Y38.8300
G01 X-9.5500 Y38.8641
G01 X-9.5830 Y38.9222
G01 X-9.6111 Y38.9661
G01 X-9.6380 Y39.0039
G01 X-9.6645 Y39.0380
G01 X-9.6982 Y39.0777
G01 X-9.7391 Y39.1209
G01 X-9.7823 Y39.1618
G01 X-9.8120 Y39.1874
G01 X-9.8561 Y39.2220
G01 X-9.8939 Y39.2489
G01 X-9.9390 Y39.2778
G01 X-9.9959 Y39.3100
G01 X-10.0300 Y39.3272
G01 X-10.0768 Y39.3483
G01 X-10.1392 Y39.3723
G01 X-10.1888 Y39.3883
G01 X-10.2248 Y39.3983
G01 X-10.2825 Y39.4115
G01 X-10.3269 Y39.4193
G01 X-10.3803 Y39.4263
G01 X-10.4452 Y39.4310
G01 X-10.4900 Y39.4320
G01 X-10.5348 Y39.4310
G01 X-10.6014 Y39.4261
G01 X-10.6531 Y39.4193
G01 X-10.6899 Y39.4129
G01 X-10.7552 Y39.3983
G01 X-10.8053 Y39.3840
G01 X-10.8408 Y39.3723
G01 X-10.9032 Y39.3483
G01 X-10.9500 Y39.3272
G01 X-10.9971 Y39.3031
G01 X-11.0422 Y39.2770
G01 X-11.0738 Y39.2570
G01 X-11.1285 Y39.2185
G01 X-11.1694 Y39.1862
G01 X-11.1977 Y39.1618
G01 X-11.2461 Y39.1157
G01 X-11.2818 Y39.0777
G01 X-11.3074 Y39.0480
G01 X-11.3473 Y38.9967
G01 X-11.3770 Y38.9538
G01 X-11.3978 Y38.9210
G01 X-11.4300 Y38.8641
G01 X-11.4531 Y38.8174
G01 X-11.4725 Y38.7730
G01 X-11.4923 Y38.7208
G01 X-11.5083 Y38.6712
G01 X-11.5183 Y38.6352
G01 X-11.5329 Y38.5699
G01 X-11.5415 Y38.5185
G01 X-11.5463 Y38.4797
G01 X-11.5510 Y38.4148
G01 X-11.5520 Y38.3700
G01 X-11.5510 Y38.3252
G01 X-11.5475 Y38.2732
G01 X-11.5393 Y38.2069
G01 X-11.5315 Y38.1625
G01 X-11.5219 Y38.1191
G01 X-11.5040 Y38.0547
G01 X-11.4874 Y38.0053
G01 X-11.4725 Y37.9670
G01 X-11.4531 Y37.9226
G01 X-11.4231 Y37.8629
G01 X-11.3970 Y37.8178
G01 X-11.3770 Y37.7862
G01 X-11.3420 Y37.7361
G01 X-11.3155 Y37.7020
G01 X-11.2903 Y37.6722
G01 X-11.2903 Y31.0815
G01 X-13.3615 Y29.0103
G01 X-25.3985 Y29.0103
G01 X-28.2634 Y31.8751
G01 X-28.2634 Y38.4662
G01 X-27.8898 Y38.8397
G01 X-27.8444 Y38.8397
G01 X-27.8175 Y38.8121
G01 X-27.7759 Y38.7730
G01 X-27.7424 Y38.7441
G01 X-27.6944 Y38.7063
G01 X-27.6525 Y38.6767
G01 X-27.6033 Y38.6450
G01 X-27.5550 Y38.6173
G01 X-27.5034 Y38.5910
G01 X-27.4419 Y38.5636
G01 X-27.3989 Y38.5470
G01 X-27.3307 Y38.5245
G01 X-27.2756 Y38.5096
G01 X-27.2342 Y38.5003
G01 X-27.1634 Y38.4880
G01 X-27.1196 Y38.4826
G01 X-27.0644 Y38.4783
G01 X-27.0000 Y38.4764
G01 X-26.9503 Y38.4775
G01 X-26.8786 Y38.4828
G01 X-26.8220 Y38.4902
G01 X-26.7727 Y38.4988
G01 X-26.7244 Y38.5096
G01 X-26.6693 Y38.5245
G01 X-26.6150 Y38.5420
G01 X-26.5615 Y38.5622
G01 X-26.5092 Y38.5851
G01 X-26.4580 Y38.6104
G01 X-26.3955 Y38.6458
G01 X-26.3475 Y38.6767
G01 X-26.3056 Y38.7063
G01 X-26.2676 Y38.7359
G01 X-26.2241 Y38.7730
G01 X-26.1721 Y38.8225
G01 X-26.1330 Y38.8641
G01 X-26.1041 Y38.8976
G01 X-26.0611 Y38.9528
G01 X-26.0285 Y38.9997
G01 X-26.0050 Y39.0367
G01 X-25.9704 Y39.0980
G01 X-25.9451 Y39.1492
G01 X-25.9236 Y39.1981
G01 X-25.9070 Y39.2411
G01 X-25.8887 Y39.2952
G01 X-25.8696 Y39.3644
G01 X-25.8588 Y39.4127
G01 X-25.8502 Y39.4620
G01 X-25.8426 Y39.5204
G01 X-25.8383 Y39.5756
G01 X-25.8365 Y39.6474
G01 X-25.8383 Y39.7044
G01 X-25.8414 Y39.7467
G01 X-25.8480 Y39.8034
G01 X-25.8574 Y39.8598
G01 X-25.8731 Y39.9299
G01 X-25.8887 Y39.9848
G01 X-25.9020 Y40.0250
G01 X-25.9236 Y40.0819
G01 X-25.9510 Y40.1434
G01 X-25.9704 Y40.1820
G01 X-25.9982 Y40.2318
G01 X-26.0367 Y40.2925
G01 X-26.0664 Y40.3344
G01 X-26.0959 Y40.3724
G01 X-26.1428 Y40.4268
G01 X-26.1772 Y40.4628
G01 X-26.2132 Y40.4972
G01 X-26.2576 Y40.5359
G01 X-26.3128 Y40.5789
G01 X-26.3597 Y40.6115
G01 X-26.3967 Y40.6350
G01 X-26.4580 Y40.6696
G01 X-26.4966 Y40.6890
G01 X-26.5479 Y40.7121
G01 X-26.6150 Y40.7380
G01 X-26.6693 Y40.7555
G01 X-26.7101 Y40.7669
G01 X-26.7802 Y40.7826
G01 X-26.8366 Y40.7920
G01 X-26.8786 Y40.7972
G01 X-26.9356 Y40.8017
G01 X-27.0000 Y40.8036
G01 X-27.0644 Y40.8017
G01 X-27.1214 Y40.7972
G01 X-27.1780 Y40.7898
G01 X-27.2198 Y40.7826
G01 X-27.2756 Y40.7704
G01 X-27.3448 Y40.7513
G01 X-27.3989 Y40.7330
G01 X-27.4385 Y40.7178
G01 X-27.4908 Y40.6949
G01 X-27.5550 Y40.6627
G01 X-27.6045 Y40.6342
G01 X-27.6525 Y40.6033
G01 X-27.6872 Y40.5789
G01 X-27.7324 Y40.5441
G01 X-27.7868 Y40.4972
G01 X-27.8228 Y40.4628
G01 X-27.8444 Y40.4403
G01 X-28.2213 Y40.4403
G01 X-28.2679 Y40.4388
G01 X-28.3071 Y40.4356
G01 X-28.3314 Y40.4326
G01 X-28.3777 Y40.4248
G01 X-28.4229 Y40.4144
G01 X-28.4606 Y40.4036
G01 X-28.4839 Y40.3959
G01 X-28.5242 Y40.3807
G01 X-28.5568 Y40.3665
G01 X-28.5920 Y40.3491
G01 X-28.6264 Y40.3301
G01 X-28.6597 Y40.3094
G01 X-28.6993 Y40.2818
G01 X-28.7232 Y40.2632
G01 X-28.7532 Y40.2378
G01 X-28.7872 Y40.2059
G01 X-29.6295 Y39.3636
G01 X-29.6515 Y39.3405
G01 X-29.6868 Y39.2996
G01 X-29.7054 Y39.2757
G01 X-29.7248 Y39.2484
G01 X-29.7537 Y39.2028
G01 X-29.7727 Y39.1684
G01 X-29.7841 Y39.1458
G01 X-29.8043 Y39.1006
G01 X-29.8145 Y39.0742
G01 X-29.8272 Y39.0370
G01 X-29.8416 Y38.9850
G01 X-29.8484 Y38.9541
G01 X-29.8540 Y38.9224
G01 X-29.8606 Y38.8688
G01 X-29.8632 Y38.8296
G01 X-29.8639 Y38.7977
G01 X-29.8639 Y31.5436
G01 X-29.8630 Y31.5117
G00 Z1.0000
G00 X-31.6094 Y30.4962
G01 F76.20
G01 Z-0.1000
G01 F175.00
G01 X-31.6056 Y30.4423
G01 X-31.6004 Y30.4034
G01 X-31.5933 Y30.3648
G01 X-31.5844 Y30.3265
G01 X-31.5736 Y30.2888
G01 X-31.5609 Y30.2516
G01 X-31.5464 Y30.2151
G01 X-31.5305 Y30.1800
G01 X-31.5122 Y30.1444
G01 X-31.4925 Y30.1104
G01 X-31.4712 Y30.0774
G01 X-31.4518 Y30.0501
G01 X-31.4332 Y30.0262
G01 X-31.4078 Y29.9962
G01 X-31.3810 Y29.9675
G01 X-23.9778 Y22.5641
G01 X-23.9438 Y22.5322
G01 X-23.9047 Y22.4997
G01 X-23.8700 Y22.4557
G01 X-23.8360 Y22.4168
G01 X-23.8053 Y22.3847
G01 X-23.7732 Y22.3540
G01 X-23.7343 Y22.3200
G01 X-23.6892 Y22.2844
G01 X-23.6516 Y22.2578
G01 X-23.6069 Y22.2290
G01 X-23.5633 Y22.2040
G01 X-23.5165 Y22.1801
G01 X-23.4701 Y22.1591
G01 X-23.4220 Y22.1402
G01 X-23.3730 Y22.1236
G01 X-23.3232 Y22.1095
G01 X-23.2659 Y22.0963
G01 X-23.2219 Y22.0886
G01 X-23.1689 Y22.0817
G01 X-23.1191 Y22.0777
G01 X-23.0600 Y22.0760
G01 X-23.0156 Y22.0770
G01 X-22.9640 Y22.0804
G01 X-22.9126 Y22.0864
G01 X-22.8541 Y22.0963
G01 X-22.8111 Y22.1059
G01 X-22.7611 Y22.1193
G01 X-22.7119 Y22.1352
G01 X-22.6600 Y22.1549
G01 X-22.6161 Y22.1741
G01 X-22.5697 Y22.1971
G01 X-22.5245 Y22.2222
G01 X-22.4806 Y22.2496
G01 X-22.4308 Y22.2844
G01 X-22.3971 Y22.3106
G01 X-22.3577 Y22.3442
G01 X-22.3147 Y22.3847
G01 X-22.2840 Y22.4168
G01 X-22.2500 Y22.4557
G01 X-22.2144 Y22.5008
G01 X-22.1878 Y22.5384
G01 X-22.1590 Y22.5831
G01 X-22.1340 Y22.6267
G01 X-22.1101 Y22.6735
G01 X-22.0891 Y22.7199
G01 X-22.0652 Y22.7819
G01 X-22.0493 Y22.8311
G01 X-22.0359 Y22.8811
G01 X-22.0263 Y22.9241
G01 X-22.0186 Y22.9681
G01 X-22.0117 Y23.0211
G01 X-22.0077 Y23.0709
G01 X-22.0060 Y23.1300
G01 X-22.0070 Y23.1744
G01 X-22.0119 Y23.2406
G01 X-22.0186 Y23.2919
G01 X-22.0278 Y23.3428
G01 X-22.0395 Y23.3932
G01 X-22.0536 Y23.4430
G01 X-22.0702 Y23.4920
G01 X-22.0849 Y23.5300
G01 X-22.1041 Y23.5739
G01 X-22.1271 Y23.6203
G01 X-22.1522 Y23.6655
G01 X-22.1796 Y23.7094
G01 X-22.2144 Y23.7592
G01 X-22.2406 Y23.7929
G01 X-22.2840 Y23.8432
G01 X-22.3147 Y23.8753
G01 X-22.3468 Y23.9060
G01 X-22.3871 Y23.9412
G01 X-22.4308 Y23.9756
G01 X-22.4806 Y24.0104
G01 X-22.5131 Y24.0310
G01 X-22.5567 Y24.0560
G01 X-22.6035 Y24.0799
G01 X-22.6600 Y24.1051
G01 X-22.6980 Y24.1198
G01 X-22.7470 Y24.1364
G01 X-22.8111 Y24.1541
G01 X-22.8616 Y24.1651
G01 X-22.9126 Y24.1736
G01 X-22.9511 Y24.1783
G01 X-23.0156 Y24.1830
G01 X-23.0600 Y24.1840
G01 X-23.1044 Y24.1830
G01 X-23.1560 Y24.1796
G01 X-23.2219 Y24.1714
G01 X-23.2659 Y24.1637
G01 X-23.3022 Y24.1556
G01 X-30.0097 Y30.8596
G01 X-30.0097 Y44.3398
G01 X-27.8898 Y46.4597
G01 X-27.8444 Y46.4597
G01 X-27.8228 Y46.4372
G01 X-27.7868 Y46.4028
G01 X-27.7424 Y46.3641
G01 X-27.6944 Y46.3263
G01 X-27.6403 Y46.2885
G01 X-27.5918 Y46.2582
G01 X-27.5420 Y46.2304
G01 X-27.5034 Y46.2110
G01 X-27.4521 Y46.1879
G01 X-27.3989 Y46.1670
G01 X-27.3448 Y46.1487
G01 X-27.2899 Y46.1331
G01 X-27.2273 Y46.1188
G01 X-27.1780 Y46.1102
G01 X-27.1196 Y46.1026
G01 X-27.0644 Y46.0983
G01 X-27.0000 Y46.0964
G01 X-26.9503 Y46.0975
G01 X-26.8933 Y46.1014
G01 X-26.8220 Y46.1102
G01 X-26.7727 Y46.1188
G01 X-26.7101 Y46.1331
G01 X-26.6552 Y46.1487
G01 X-26.6150 Y46.1620
G01 X-26.5615 Y46.1822
G01 X-26.5092 Y46.2051
G01 X-26.4580 Y46.2304
G01 X-26.4082 Y46.2582
G01 X-26.3597 Y46.2885
G01 X-26.3056 Y46.3263
G01 X-26.2676 Y46.3559
G01 X-26.2241 Y46.3930
G01 X-26.1772 Y46.4372
G01 X-26.1330 Y46.4841
G01 X-26.0959 Y46.5276
G01 X-26.0664 Y46.5656
G01 X-26.0367 Y46.6075
G01 X-26.0050 Y46.6567
G01 X-25.9704 Y46.7180
G01 X-25.9451 Y46.7692
G01 X-25.9222 Y46.8215
G01 X-25.9020 Y46.8750
G01 X-25.8887 Y46.9152
G01 X-25.8696 Y46.9844
G01 X-25.8574 Y47.0402
G01 X-25.8480 Y47.0966
G01 X-25.8428 Y47.1386
G01 X-25.8383 Y47.1956
G01 X-25.8365 Y47.2674
G01 X-25.8383 Y47.3244
G01 X-25.8414 Y47.3667
G01 X-25.8502 Y47.4380
G01 X-25.8603 Y47.4942
G01 X-25.8731 Y47.5499
G01 X-25.8887 Y47.6048
G01 X-25.9020 Y47.6450
G01 X-25.9236 Y47.7019
G01 X-25.9510 Y47.7634
G01 X-25.9773 Y47.8150
G01 X-26.0058 Y47.8645
G01 X-26.0285 Y47.9003
G01 X-26.0664 Y47.9544
G01 X-26.1053 Y48.0038
G01 X-26.1428 Y48.0468
G01 X-26.1772 Y48.0828
G01 X-26.2132 Y48.1172
G01 X-26.2576 Y48.1559
G01 X-26.3128 Y48.1989
G01 X-26.3597 Y48.2315
G01 X-26.3967 Y48.2550
G01 X-26.4450 Y48.2827
G01 X-26.4966 Y48.3090
G01 X-26.5581 Y48.3364
G01 X-26.6150 Y48.3580
G01 X-26.6693 Y48.3755
G01 X-26.7101 Y48.3869
G01 X-26.7727 Y48.4012
G01 X-26.8366 Y48.4120
G01 X-26.8804 Y48.4174
G01 X-26.9356 Y48.4217
G01 X-27.0000 Y48.4236
G01 X-27.0644 Y48.4217
G01 X-27.1214 Y48.4172
G01 X-27.1780 Y48.4098
G01 X-27.2198 Y48.4026
G01 X-27.2756 Y48.3904
G01 X-27.3448 Y48.3713
G01 X-27.3989 Y48.3530
G01 X-27.4419 Y48.3364
G01 X-27.5034 Y48.3090
G01 X-27.5420 Y48.2896
G01 X-27.5918 Y48.2618
G01 X-27.6525 Y48.2233
G01 X-27.6944 Y48.1937
G01 X-27.7324 Y48.1641
G01 X-27.7868 Y48.1172
G01 X-27.8228 Y48.0828
G01 X-27.8444 Y48.0603
G01 X-28.2213 Y48.0603
G01 X-28.2532 Y48.0596
G01 X-28.3071 Y48.0556
G01 X-28.3460 Y48.0504
G01 X-28.3702 Y48.0462
G01 X-28.4086 Y48.0380
G01 X-28.4606 Y48.0236
G01 X-28.4978 Y48.0109
G01 X-28.5343 Y47.9964
G01 X-28.5694 Y47.9805
G01 X-28.6050 Y47.9622
G01 X-28.6390 Y47.9425
G01 X-28.6720 Y47.9212
G01 X-28.6921 Y47.9071
G01 X-28.7346 Y47.8739
G01 X-28.7641 Y47.8479
G01 X-28.7872 Y47.8259
G01 X-31.3810 Y45.2319
G01 X-31.4078 Y45.2032
G01 X-31.4251 Y45.1832
G01 X-31.4518 Y45.1493
G01 X-31.4794 Y45.1097
G01 X-31.4933 Y45.0878
G01 X-31.5122 Y45.0550
G01 X-31.5305 Y45.0194
G01 X-31.5507 Y44.9742
G01 X-31.5659 Y44.9339
G01 X-31.5778 Y44.8965
G01 X-31.5844 Y44.8729
G01 X-31.5948 Y44.8277
G01 X-31.6026 Y44.7814
G01 X-31.6058 Y44.7553
G01 X-31.6088 Y44.7179
G01 X-31.6103 Y44.6713
G01 X-31.6103 Y30.5281
G01 X-31.6094 Y30.4962
G00 Z1.0000
G00 X-33.3094 Y29.6562
G01 F76.20
G01 Z-0.1000
G01 F175.00
G01 X-33.3056 Y29.6023
G01 X-33.3004 Y29.5634
G01 X-33.2934 Y29.5248
G01 X-33.2844 Y29.4865
G01 X-33.2736 Y29.4488
G01 X-33.2609 Y29.4116
G01 X-33.2464 Y29.3751
G01 X-33.2306 Y29.3400
G01 X-33.2122 Y29.3044
G01 X-33.1925 Y29.2704
G01 X-33.1712 Y29.2374
G01 X-33.1518 Y29.2101
G01 X-33.1239 Y29.1748
G01 X-33.0979 Y29.1453
G01 X-33.0759 Y29.1222
G01 X-24.5638 Y20.6101
G01 X-24.5298 Y20.5782
G01 X-24.4998 Y20.5528
G01 X-24.4759 Y20.5342
G01 X-24.4486 Y20.5148
G01 X-24.4144 Y20.4927
G01 X-24.3686 Y20.4669
G01 X-24.3334 Y20.4495
G01 X-24.3008 Y20.4353
G01 X-24.2744 Y20.4251
G01 X-24.2372 Y20.4124
G01 X-24.1852 Y20.3980
G01 X-24.1543 Y20.3912
G01 X-24.1226 Y20.3856
G01 X-24.0690 Y20.3790
G01 X-24.0298 Y20.3764
G01 X-24.0053 Y20.3758
G01 X-22.1221 Y20.3757
G01 X-22.0755 Y20.3772
G01 X-22.0363 Y20.3804
G01 X-21.9974 Y20.3856
G01 X-21.9657 Y20.3912
G01 X-21.9205 Y20.4016
G01 X-21.8828 Y20.4124
G01 X-21.8456 Y20.4251
G01 X-21.8091 Y20.4396
G01 X-21.7740 Y20.4555
G01 X-21.7384 Y20.4738
G01 X-21.7044 Y20.4935
G01 X-21.6714 Y20.5148
G01 X-21.6441 Y20.5342
G01 X-21.6202 Y20.5528
G01 X-21.5902 Y20.5782
G01 X-21.5615 Y20.6050
G01 X-19.8366 Y22.3297
G01 X-13.7156 Y22.3297
G01 X-13.6929 Y22.3106
G01 X-13.6519 Y22.2791
G01 X-13.6094 Y22.2496
G01 X-13.5655 Y22.2222
G01 X-13.5203 Y22.1971
G01 X-13.4739 Y22.1741
G01 X-13.4300 Y22.1549
G01 X-13.3781 Y22.1352
G01 X-13.3289 Y22.1193
G01 X-13.2789 Y22.1059
G01 X-13.2359 Y22.0963
G01 X-13.1774 Y22.0864
G01 X-13.1260 Y22.0804
G01 X-13.0744 Y22.0770
G01 X-13.0300 Y22.0760
G01 X-12.9709 Y22.0777
G01 X-12.9194 Y22.0819
G01 X-12.8681 Y22.0886
G01 X-12.8241 Y22.0963
G01 X-12.7811 Y22.1059
G01 X-12.7170 Y22.1236
G01 X-12.6680 Y22.1402
G01 X-12.6335 Y22.1535
G01 X-12.5735 Y22.1801
G01 X-12.5397 Y22.1971
G01 X-12.4945 Y22.2222
G01 X-12.4384 Y22.2578
G01 X-12.4008 Y22.2844
G01 X-12.3671 Y22.3106
G01 X-12.3168 Y22.3540
G01 X-12.2847 Y22.3847
G01 X-12.2540 Y22.4168
G01 X-12.2106 Y22.4671
G01 X-12.1844 Y22.5008
G01 X-12.1578 Y22.5384
G01 X-12.1222 Y22.5945
G01 X-12.0971 Y22.6397
G01 X-12.0801 Y22.6735
G01 X-12.0549 Y22.7300
G01 X-12.0402 Y22.7680
G01 X-12.0236 Y22.8170
G01 X-12.0095 Y22.8668
G01 X-11.9963 Y22.9241
G01 X-11.9864 Y22.9826
G01 X-11.9804 Y23.0340
G01 X-11.9770 Y23.0856
G01 X-11.9760 Y23.1300
G01 X-11.9770 Y23.1744
G01 X-11.9804 Y23.2260
G01 X-11.9864 Y23.2774
G01 X-11.9963 Y23.3359
G01 X-12.0059 Y23.3789
G01 X-12.0236 Y23.4430
G01 X-12.0402 Y23.4920
G01 X-12.0591 Y23.5401
G01 X-12.0801 Y23.5865
G01 X-12.0971 Y23.6203
G01 X-12.1222 Y23.6655
G01 X-12.1496 Y23.7094
G01 X-12.1844 Y23.7592
G01 X-12.2106 Y23.7929
G01 X-12.2442 Y23.8323
G01 X-12.2847 Y23.8753
G01 X-12.3277 Y23.9158
G01 X-12.3671 Y23.9494
G01 X-12.4008 Y23.9756
G01 X-12.4506 Y24.0104
G01 X-12.4945 Y24.0378
G01 X-12.5397 Y24.0629
G01 X-12.5735 Y24.0799
G01 X-12.6199 Y24.1009
G01 X-12.6680 Y24.1198
G01 X-12.7170 Y24.1364
G01 X-12.7811 Y24.1541
G01 X-12.8241 Y24.1637
G01 X-12.8826 Y24.1736
G01 X-12.9340 Y24.1796
G01 X-12.9856 Y24.1830
G01 X-13.0300 Y24.1840
G01 X-13.0891 Y24.1823
G01 X-13.1406 Y24.1781
G01 X-13.1919 Y24.1714
G01 X-13.2284 Y24.1651
G01 X-13.2789 Y24.1541
G01 X-13.3289 Y24.1407
G01 X-13.3781 Y24.1248
G01 X-13.4300 Y24.1051
G01 X-13.4865 Y24.0799
G01 X-13.5333 Y24.0560
G01 X-13.5781 Y24.0302
G01 X-13.6216 Y24.0022
G01 X-13.6637 Y23.9721
G01 X-13.6929 Y23.9494
G01 X-13.7156 Y23.9303
G01 X-20.1681 Y23.9303
G01 X-20.2147 Y23.9288
G01 X-20.2538 Y23.9256
G01 X-20.2928 Y23.9204
G01 X-20.3245 Y23.9148
G01 X-20.3554 Y23.9080
G01 X-20.4074 Y23.8936
G01 X-20.4446 Y23.8809
G01 X-20.4709 Y23.8707
G01 X-20.5035 Y23.8565
G01 X-20.5388 Y23.8391
G01 X-20.5858 Y23.8125
G01 X-20.6187 Y23.7912
G01 X-20.6461 Y23.7718
G01 X-20.6700 Y23.7532
G01 X-20.7000 Y23.7278
G01 X-20.7339 Y23.6959
G01 X-22.4536 Y21.9762
G01 X-23.6664 Y21.9762
G01 X-31.7098 Y30.0196
G01 X-31.7098 Y45.0440
G01 X-28.5940 Y48.1598
G01 X-28.3468 Y48.1598
G01 X-28.3075 Y48.1612
G01 X-28.2684 Y48.1644
G01 X-28.2294 Y48.1696
G01 X-28.2052 Y48.1738
G01 X-28.1668 Y48.1820
G01 X-28.1148 Y48.1964
G01 X-28.0776 Y48.2091
G01 X-28.0547 Y48.2179
G01 X-28.0061 Y48.2395
G01 X-27.9704 Y48.2578
G01 X-27.9364 Y48.2775
G01 X-27.9157 Y48.2906
G01 X-27.8716 Y48.3217
G01 X-27.8408 Y48.3461
G01 X-27.8113 Y48.3721
G01 X-27.7883 Y48.3941
G01 X-27.6591 Y48.5234
G01 X-27.4764 Y48.5234
G01 X-27.4445 Y48.5240
G01 X-27.3906 Y48.5280
G01 X-27.3517 Y48.5332
G01 X-27.3275 Y48.5374
G01 X-27.2748 Y48.5492
G01 X-27.2371 Y48.5600
G01 X-27.1999 Y48.5727
G01 X-27.1634 Y48.5872
G01 X-27.1284 Y48.6030
G01 X-27.0927 Y48.6214
G01 X-27.0635 Y48.6382
G01 X-27.0000 Y48.6364
G01 X-26.9356 Y48.6383
G01 X-26.8786 Y48.6428
G01 X-26.8220 Y48.6502
G01 X-26.7727 Y48.6588
G01 X-26.7101 Y48.6731
G01 X-26.6552 Y48.6887
G01 X-26.6011 Y48.7070
G01 X-26.5581 Y48.7236
G01 X-26.5092 Y48.7451
G01 X-26.4450 Y48.7773
G01 X-26.3955 Y48.8058
G01 X-26.3475 Y48.8367
G01 X-26.3128 Y48.8611
G01 X-26.2562 Y48.9053
G01 X-26.2132 Y48.9428
G01 X-26.1772 Y48.9772
G01 X-26.1428 Y49.0132
G01 X-26.1053 Y49.0562
G01 X-26.0664 Y49.1056
G01 X-26.0285 Y49.1597
G01 X-26.0050 Y49.1967
G01 X-25.9773 Y49.2450
G01 X-25.9510 Y49.2966
G01 X-25.9236 Y49.3581
G01 X-25.9020 Y49.4150
G01 X-25.8845 Y49.4693
G01 X-25.8731 Y49.5101
G01 X-25.8588 Y49.5727
G01 X-25.8480 Y49.6366
G01 X-25.8414 Y49.6933
G01 X-25.8375 Y49.7503
G01 X-25.8364 Y49.8000
G01 X-25.8375 Y49.8497
G01 X-25.8414 Y49.9067
G01 X-25.8502 Y49.9780
G01 X-25.8588 Y50.0273
G01 X-25.8696 Y50.0756
G01 X-25.8845 Y50.1307
G01 X-25.9070 Y50.1989
G01 X-25.9279 Y50.2521
G01 X-25.9510 Y50.3034
G01 X-25.9704 Y50.3420
G01 X-25.9982 Y50.3918
G01 X-26.0367 Y50.4525
G01 X-26.0698 Y50.4990
G01 X-26.1053 Y50.5438
G01 X-26.1330 Y50.5759
G01 X-26.1772 Y50.6228
G01 X-26.2241 Y50.6670
G01 X-26.2676 Y50.7041
G01 X-26.3056 Y50.7337
G01 X-26.3475 Y50.7633
G01 X-26.3967 Y50.7950
G01 X-26.4580 Y50.8296
G01 X-26.5092 Y50.8549
G01 X-26.5615 Y50.8778
G01 X-26.6150 Y50.8980
G01 X-26.6552 Y50.9113
G01 X-26.7101 Y50.9269
G01 X-26.7727 Y50.9412
G01 X-26.8220 Y50.9498
G01 X-26.8786 Y50.9572
G01 X-26.9503 Y50.9625
G01 X-27.0000 Y50.9636
G01 X-27.0644 Y50.9617
G01 X-27.1214 Y50.9572
G01 X-27.1780 Y50.9498
G01 X-27.2273 Y50.9412
G01 X-27.2899 Y50.9269
G01 X-27.3448 Y50.9113
G01 X-27.3989 Y50.8930
G01 X-27.4419 Y50.8764
G01 X-27.5034 Y50.8490
G01 X-27.5550 Y50.8227
G01 X-27.6045 Y50.7942
G01 X-27.6525 Y50.7633
G01 X-27.6872 Y50.7389
G01 X-27.7324 Y50.7041
G01 X-27.7759 Y50.6670
G01 X-27.8228 Y50.6228
G01 X-27.8572 Y50.5868
G01 X-27.8959 Y50.5424
G01 X-27.9336 Y50.4944
G01 X-27.9715 Y50.4403
G01 X-28.0018 Y50.3918
G01 X-28.0296 Y50.3420
G01 X-28.0549 Y50.2908
G01 X-28.0764 Y50.2419
G01 X-28.0980 Y50.1850
G01 X-28.1113 Y50.1448
G01 X-28.1204 Y50.1131
G01 X-28.1470 Y50.1084
G01 X-28.1921 Y50.0980
G01 X-28.2298 Y50.0872
G01 X-28.2670 Y50.0745
G01 X-28.3035 Y50.0600
G01 X-28.3386 Y50.0442
G01 X-28.3742 Y50.0258
G01 X-28.4082 Y50.0061
G01 X-28.4412 Y49.9848
G01 X-28.4685 Y49.9654
G01 X-28.4925 Y49.9468
G01 X-28.5224 Y49.9214
G01 X-28.5564 Y49.8895
G01 X-28.6856 Y49.7603
G01 X-28.9255 Y49.7603
G01 X-28.9646 Y49.7593
G01 X-29.0038 Y49.7564
G01 X-29.0432 Y49.7516
G01 X-29.0815 Y49.7449
G01 X-29.1201 Y49.7362
G01 X-29.1579 Y49.7258
G01 X-29.2020 Y49.7109
G01 X-29.2317 Y49.6994
G01 X-29.2609 Y49.6865
G01 X-29.2962 Y49.6692
G01 X-29.3369 Y49.6464
G01 X-29.3700 Y49.6254
G01 X-29.4019 Y49.6030
G01 X-29.4331 Y49.5787
G01 X-29.4630 Y49.5529
G01 X-29.4913 Y49.5259
G01 X-33.0810 Y45.9361
G01 X-33.1032 Y45.9127
G01 X-33.1239 Y45.8888
G01 X-33.1483 Y45.8580
G01 X-33.1758 Y45.8195
G01 X-33.1963 Y45.7870
G01 X-33.2192 Y45.7462
G01 X-33.2334 Y45.7176
G01 X-33.2464 Y45.6885
G01 X-33.2635 Y45.6450
G01 X-33.2759 Y45.6075
G01 X-33.2863 Y45.5697
G01 X-33.2934 Y45.5388
G01 X-33.3016 Y45.4928
G01 X-33.3064 Y45.4542
G01 X-33.3088 Y45.4221
G01 X-33.3103 Y45.3755
G01 X-33.3103 Y29.6881
G01 X-33.3094 Y29.6562
G00 Z1.0000
G00 X-35.0095 Y28.9520
G01 F76.20
G01 Z-0.1000
G01 F175.00
G01 X-35.0056 Y28.8982
G01 X-35.0004 Y28.8592
G01 X-34.9934 Y28.8206
G01 X-34.9844 Y28.7824
G01 X-34.9736 Y28.7446
G01 X-34.9609 Y28.7074
G01 X-34.9465 Y28.6709
G01 X-34.9306 Y28.6359
G01 X-34.9122 Y28.6002
G01 X-34.8926 Y28.5662
G01 X-34.8712 Y28.5333
G01 X-34.8518 Y28.5059
G01 X-34.8239 Y28.4706
G01 X-34.7980 Y28.4411
G01 X-34.7759 Y28.4181
G01 X-25.2680 Y18.9101
G01 X-25.2340 Y18.8782
G01 X-25.2140 Y18.8609
G01 X-25.1801 Y18.8342
G01 X-25.1528 Y18.8148
G01 X-25.1185 Y18.7927
G01 X-25.0728 Y18.7668
G01 X-25.0501 Y18.7554
G01 X-25.0151 Y18.7396
G01 X-24.9647 Y18.7201
G01 X-24.9273 Y18.7081
G01 X-24.9037 Y18.7016
G01 X-24.8510 Y18.6898
G01 X-24.8122 Y18.6834
G01 X-24.7732 Y18.6790
G01 X-24.7340 Y18.6764
G01 X-24.7021 Y18.6757
G01 X-6.3940 Y18.6757
G01 X-6.3621 Y18.6764
G01 X-6.3229 Y18.6790
G01 X-6.2839 Y18.6834
G01 X-6.2451 Y18.6898
G01 X-6.1924 Y18.7016
G01 X-6.1547 Y18.7124
G01 X-6.1314 Y18.7201
G01 X-6.0810 Y18.7396
G01 X-6.0460 Y18.7554
G01 X-6.0233 Y18.7668
G01 X-5.9763 Y18.7935
G01 X-5.9433 Y18.8148
G01 X-5.9233 Y18.8289
G01 X-5.8921 Y18.8528
G01 X-5.8512 Y18.8881
G01 X-5.8281 Y18.9101
G01 X-2.6589 Y22.0793
G01 X-2.6294 Y22.0819
G01 X-2.5781 Y22.0886
G01 X-2.5341 Y22.0963
G01 X-2.4911 Y22.1059
G01 X-2.4411 Y22.1193
G01 X-2.3919 Y22.1352
G01 X-2.3299 Y22.1591
G01 X-2.2835 Y22.1801
G01 X-2.2367 Y22.2040
G01 X-2.1919 Y22.2298
G01 X-2.1606 Y22.2496
G01 X-2.1108 Y22.2844
G01 X-2.0771 Y22.3106
G01 X-2.0268 Y22.3540
G01 X-1.9947 Y22.3847
G01 X-1.9640 Y22.4168
G01 X-1.9206 Y22.4671
G01 X-1.8944 Y22.5008
G01 X-1.8678 Y22.5384
G01 X-1.8390 Y22.5831
G01 X-1.8140 Y22.6267
G01 X-1.7841 Y22.6861
G01 X-1.7649 Y22.7300
G01 X-1.7502 Y22.7680
G01 X-1.7336 Y22.8170
G01 X-1.7195 Y22.8668
G01 X-1.7049 Y22.9316
G01 X-1.6964 Y22.9826
G01 X-1.6917 Y23.0211
G01 X-1.6877 Y23.0709
G01 X-1.6861 Y23.1374
G01 X-1.6877 Y23.1891
G01 X-1.6904 Y23.2260
G01 X-1.6986 Y23.2919
G01 X-1.7063 Y23.3359
G01 X-1.7159 Y23.3789
G01 X-1.7336 Y23.4430
G01 X-1.7502 Y23.4920
G01 X-1.7635 Y23.5265
G01 X-1.7901 Y23.5865
G01 X-1.8140 Y23.6333
G01 X-1.8398 Y23.6781
G01 X-1.8596 Y23.7094
G01 X-1.8979 Y23.7637
G01 X-1.9300 Y23.8043
G01 X-1.9542 Y23.8323
G01 X-1.9947 Y23.8753
G01 X-2.0377 Y23.9158
G01 X-2.0671 Y23.9412
G01 X-2.1108 Y23.9756
G01 X-2.1606 Y24.0104
G01 X-2.1931 Y24.0309
G01 X-2.2367 Y24.0560
G01 X-2.2961 Y24.0859
G01 X-2.3400 Y24.1051
G01 X-2.3780 Y24.1198
G01 X-2.4270 Y24.1364
G01 X-2.4911 Y24.1541
G01 X-2.5341 Y24.1637
G01 X-2.5781 Y24.1714
G01 X-2.6440 Y24.1796
G01 X-2.6956 Y24.1830
G01 X-2.7326 Y24.1839
G01 X-2.7991 Y24.1823
G01 X-2.8506 Y24.1781
G01 X-2.8874 Y24.1736
G01 X-2.9459 Y24.1637
G01 X-3.0032 Y24.1505
G01 X-3.0530 Y24.1364
G01 X-3.0881 Y24.1248
G01 X-3.1501 Y24.1009
G01 X-3.1965 Y24.0799
G01 X-3.2303 Y24.0629
G01 X-3.2755 Y24.0378
G01 X-3.3316 Y24.0022
G01 X-3.3692 Y23.9756
G01 X-3.4029 Y23.9494
G01 X-3.4423 Y23.9158
G01 X-3.4853 Y23.8753
G01 X-3.5258 Y23.8323
G01 X-3.5512 Y23.8029
G01 X-3.5821 Y23.7637
G01 X-3.6204 Y23.7094
G01 X-3.6410 Y23.6769
G01 X-3.6660 Y23.6333
G01 X-3.6899 Y23.5865
G01 X-3.7151 Y23.5300
G01 X-3.7348 Y23.4781
G01 X-3.7507 Y23.4289
G01 X-3.7605 Y23.3932
G01 X-3.7737 Y23.3359
G01 X-3.7836 Y23.2774
G01 X-3.7883 Y23.2389
G01 X-3.7907 Y23.2111
G01 X-6.7255 Y20.2762
G01 X-24.3706 Y20.2762
G01 X-33.4098 Y29.3154
G01 X-33.4098 Y46.0198
G01 X-27.8898 Y51.5397
G01 X-27.8444 Y51.5397
G01 X-27.8228 Y51.5172
G01 X-27.7868 Y51.4828
G01 X-27.7424 Y51.4441
G01 X-27.6944 Y51.4063
G01 X-27.6525 Y51.3767
G01 X-27.6033 Y51.3450
G01 X-27.5550 Y51.3173
G01 X-27.5034 Y51.2910
G01 X-27.4419 Y51.2636
G01 X-27.3850 Y51.2420
G01 X-27.3307 Y51.2245
G01 X-27.2756 Y51.2096
G01 X-27.2273 Y51.1988
G01 X-27.1634 Y51.1880
G01 X-27.1067 Y51.1814
G01 X-27.0497 Y51.1775
G01 X-26.9926 Y51.1765
G01 X-26.9356 Y51.1783
G01 X-26.8786 Y51.1828
G01 X-26.8220 Y51.1902
G01 X-26.7802 Y51.1974
G01 X-26.7244 Y51.2096
G01 X-26.6693 Y51.2245
G01 X-26.6150 Y51.2420
G01 X-26.5581 Y51.2636
G01 X-26.5092 Y51.2851
G01 X-26.4580 Y51.3104
G01 X-26.4082 Y51.3382
G01 X-26.3597 Y51.3685
G01 X-26.3056 Y51.4063
G01 X-26.2562 Y51.4453
G01 X-26.2132 Y51.4828
G01 X-26.1772 Y51.5172
G01 X-26.1330 Y51.5641
G01 X-26.1041 Y51.5976
G01 X-26.0698 Y51.6410
G01 X-26.0285 Y51.6997
G01 X-26.0050 Y51.7367
G01 X-25.9773 Y51.7850
G01 X-25.9510 Y51.8366
G01 X-25.9236 Y51.8981
G01 X-25.9020 Y51.9550
G01 X-25.8845 Y52.0093
G01 X-25.8731 Y52.0501
G01 X-25.8588 Y52.1127
G01 X-25.8480 Y52.1766
G01 X-25.8426 Y52.2204
G01 X-25.8383 Y52.2756
G01 X-25.8364 Y52.3400
G01 X-25.8383 Y52.4044
G01 X-25.8428 Y52.4614
G01 X-25.8480 Y52.5034
G01 X-25.8588 Y52.5673
G01 X-25.8731 Y52.6299
G01 X-25.8887 Y52.6848
G01 X-25.9020 Y52.7250
G01 X-25.9279 Y52.7921
G01 X-25.9510 Y52.8434
G01 X-25.9704 Y52.8820
G01 X-25.9982 Y52.9318
G01 X-26.0367 Y52.9925
G01 X-26.0698 Y53.0390
G01 X-26.1053 Y53.0838
G01 X-26.1330 Y53.1159
G01 X-26.1772 Y53.1628
G01 X-26.2241 Y53.2070
G01 X-26.2576 Y53.2359
G01 X-26.3010 Y53.2702
G01 X-26.3597 Y53.3115
G01 X-26.3967 Y53.3350
G01 X-26.4450 Y53.3627
G01 X-26.4966 Y53.3890
G01 X-26.5615 Y53.4178
G01 X-26.6150 Y53.4380
G01 X-26.6552 Y53.4513
G01 X-26.7244 Y53.4704
G01 X-26.7802 Y53.4826
G01 X-26.8366 Y53.4920
G01 X-26.8933 Y53.4986
G01 X-26.9503 Y53.5025
G01 X-27.0000 Y53.5036
G01 X-27.0497 Y53.5025
G01 X-27.1067 Y53.4986
G01 X-27.1780 Y53.4898
G01 X-27.2273 Y53.4812
G01 X-27.2899 Y53.4669
G01 X-27.3448 Y53.4513
G01 X-27.3850 Y53.4380
G01 X-27.4419 Y53.4164
G01 X-27.5034 Y53.3890
G01 X-27.5420 Y53.3696
G01 X-27.5918 Y53.3418
G01 X-27.6525 Y53.3033
G01 X-27.6944 Y53.2737
G01 X-27.7324 Y53.2441
G01 X-27.7868 Y53.1972
G01 X-27.8228 Y53.1628
G01 X-27.8444 Y53.1403
G01 X-28.2213 Y53.1403
G01 X-28.2532 Y53.1396
G01 X-28.3071 Y53.1356
G01 X-28.3460 Y53.1304
G01 X-28.3777 Y53.1248
G01 X-28.4229 Y53.1144
G01 X-28.4606 Y53.1036
G01 X-28.4839 Y53.0959
G01 X-28.5242 Y53.0807
G01 X-28.5694 Y53.0606
G01 X-28.6050 Y53.0422
G01 X-28.6390 Y53.0225
G01 X-28.6597 Y53.0094
G01 X-28.6993 Y52.9818
G01 X-28.7346 Y52.9539
G01 X-28.7641 Y52.9279
G01 X-28.7872 Y52.9059
G01 X-34.7759 Y46.9172
G01 X-34.8078 Y46.8832
G01 X-34.8332 Y46.8532
G01 X-34.8518 Y46.8293
G01 X-34.8712 Y46.8020
G01 X-34.8933 Y46.7678
G01 X-34.9122 Y46.7350
G01 X-34.9306 Y46.6993
G01 X-34.9507 Y46.6541
G01 X-34.9659 Y46.6139
G01 X-34.9779 Y46.5765
G01 X-34.9880 Y46.5386
G01 X-34.9948 Y46.5077
G01 X-35.0004 Y46.4760
G01 X-35.0070 Y46.4224
G01 X-35.0096 Y46.3832
G01 X-35.0103 Y46.3513
G01 X-35.0103 Y28.9839
G01 X-35.0095 Y28.9520
G00 Z1.0000
G00 X-43.4023 Y34.5103
G01 F76.20
G01 Z-0.1000
G01 F175.00
G01 X-43.3972 Y34.4386
G01 X-43.3898 Y34.3820
G01 X-43.3797 Y34.3258
G01 X-43.3669 Y34.2701
G01 X-43.3513 Y34.2152
G01 X-43.3330 Y34.1611
G01 X-43.3121 Y34.1079
G01 X-43.2890 Y34.0566
G01 X-43.2627 Y34.0050
G01 X-43.2342 Y33.9555
G01 X-43.2033 Y33.9075
G01 X-43.1736 Y33.8656
G01 X-43.1347 Y33.8162
G01 X-43.0972 Y33.7732
G01 X-43.0628 Y33.7372
G01 X-43.0159 Y33.6930
G01 X-42.9724 Y33.6559
G01 X-42.9344 Y33.6263
G01 X-42.8803 Y33.5885
G01 X-42.8318 Y33.5582
G01 X-42.7820 Y33.5304
G01 X-42.7308 Y33.5051
G01 X-42.6819 Y33.4836
G01 X-42.6250 Y33.4620
G01 X-42.5707 Y33.4445
G01 X-42.5156 Y33.4296
G01 X-42.4598 Y33.4174
G01 X-42.4034 Y33.4080
G01 X-42.3467 Y33.4014
G01 X-42.2897 Y33.3975
G01 X-42.2400 Y33.3964
G01 X-42.2088 Y33.3971
G01 X-39.8927 Y31.0809
G01 X-39.9011 Y31.0429
G01 X-39.9126 Y30.9774
G01 X-39.9234 Y30.8897
G01 X-39.9285 Y30.8162
G01 X-39.9299 Y30.7574
G01 X-39.9277 Y30.6690
G01 X-39.9220 Y30.5957
G01 X-39.9148 Y30.5372
G01 X-39.9011 Y30.4571
G01 X-39.8867 Y30.3927
G01 X-39.8675 Y30.3216
G01 X-39.8398 Y30.2378
G01 X-39.8172 Y30.1794
G01 X-39.7891 Y30.1154
G01 X-39.7493 Y30.0365
G01 X-39.7127 Y29.9726
G01 X-39.6812 Y29.9228
G01 X-39.6339 Y29.8552
G01 X-39.5941 Y29.8042
G01 X-39.5463 Y29.7482
G01 X-39.4907 Y29.6893
G01 X-39.4318 Y29.6337
G01 X-39.3858 Y29.5940
G01 X-39.3248 Y29.5461
G01 X-39.2694 Y29.5070
G01 X-39.2062 Y29.4665
G01 X-39.1435 Y29.4307
G01 X-39.0772 Y29.3969
G01 X-39.0006 Y29.3628
G01 X-38.9422 Y29.3402
G01 X-38.8724 Y29.3168
G01 X-38.8016 Y29.2968
G01 X-38.7229 Y29.2789
G01 X-38.6574 Y29.2674
G01 X-38.5826 Y29.2578
G01 X-38.5110 Y29.2523
G01 X-38.4300 Y29.2500
G01 X-38.3638 Y29.2515
G01 X-38.2903 Y29.2566
G01 X-38.2172 Y29.2652
G01 X-38.1371 Y29.2789
G01 X-38.0727 Y29.2933
G01 X-38.0016 Y29.3125
G01 X-37.9316 Y29.3353
G01 X-37.8594 Y29.3628
G01 X-37.7954 Y29.3909
G01 X-37.7294 Y29.4237
G01 X-37.6652 Y29.4597
G01 X-37.6028 Y29.4988
G01 X-37.5352 Y29.5461
G01 X-37.4842 Y29.5859
G01 X-37.4282 Y29.6337
G01 X-37.3693 Y29.6893
G01 X-37.3236 Y29.7373
G01 X-37.2740 Y29.7942
G01 X-37.2261 Y29.8552
G01 X-37.1870 Y29.9106
G01 X-37.1473 Y29.9726
G01 X-37.1037 Y30.0494
G01 X-37.0769 Y30.1028
G01 X-37.0471 Y30.1692
G01 X-37.0153 Y30.2516
G01 X-36.9925 Y30.3216
G01 X-36.9733 Y30.3927
G01 X-36.9589 Y30.4571
G01 X-36.9474 Y30.5226
G01 X-36.9366 Y30.6103
G01 X-36.9315 Y30.6838
G01 X-36.9300 Y30.7500
G01 X-36.9315 Y30.8162
G01 X-36.9366 Y30.8897
G01 X-36.9474 Y30.9774
G01 X-36.9589 Y31.0429
G01 X-36.9768 Y31.1216
G01 X-36.9968 Y31.1924
G01 X-37.0153 Y31.2484
G01 X-37.0471 Y31.3308
G01 X-37.0769 Y31.3972
G01 X-37.1107 Y31.4635
G01 X-37.1473 Y31.5274
G01 X-37.1788 Y31.5772
G01 X-37.2296 Y31.6494
G01 X-37.2752 Y31.7072
G01 X-37.3137 Y31.7518
G01 X-37.3693 Y31.8107
G01 X-37.4282 Y31.8663
G01 X-37.4742 Y31.9060
G01 X-37.5352 Y31.9539
G01 X-37.6028 Y32.0012
G01 X-37.6538 Y32.0335
G01 X-37.7165 Y32.0693
G01 X-37.7954 Y32.1091
G01 X-37.8594 Y32.1372
G01 X-37.9178 Y32.1598
G01 X-38.0016 Y32.1875
G01 X-38.0727 Y32.2067
G01 X-38.1371 Y32.2211
G01 X-38.2172 Y32.2348
G01 X-38.2774 Y32.2422
G01 X-38.3490 Y32.2477
G01 X-38.4374 Y32.2499
G01 X-38.5110 Y32.2477
G01 X-38.5697 Y32.2434
G01 X-38.6574 Y32.2326
G01 X-38.7229 Y32.2211
G01 X-38.7609 Y32.2127
G01 X-41.0771 Y34.5288
G01 X-41.0764 Y34.5600
G01 X-41.0775 Y34.6097
G01 X-41.0814 Y34.6667
G01 X-41.0902 Y34.7380
G01 X-41.1003 Y34.7942
G01 X-41.1131 Y34.8499
G01 X-41.1287 Y34.9048
G01 X-41.1420 Y34.9450
G01 X-41.1636 Y35.0019
G01 X-41.1910 Y35.0634
G01 X-41.2173 Y35.1150
G01 X-41.2458 Y35.1645
G01 X-41.2685 Y35.2003
G01 X-41.3063 Y35.2544
G01 X-41.3453 Y35.3038
G01 X-41.3828 Y35.3468
G01 X-41.4172 Y35.3828
G01 X-41.4532 Y35.4172
G01 X-41.4976 Y35.4559
G01 X-41.5456 Y35.4936
G01 X-41.5997 Y35.5315
G01 X-41.6367 Y35.5550
G01 X-41.6850 Y35.5827
G01 X-41.7492 Y35.6149
G01 X-41.7981 Y35.6364
G01 X-41.8411 Y35.6530
G01 X-41.9093 Y35.6755
G01 X-41.9644 Y35.6904
G01 X-42.0058 Y35.6997
G01 X-42.0766 Y35.7120
G01 X-42.1333 Y35.7186
G01 X-42.1903 Y35.7225
G01 X-42.2326 Y35.7235
G01 X-42.3044 Y35.7217
G01 X-42.3614 Y35.7172
G01 X-42.4034 Y35.7120
G01 X-42.4673 Y35.7012
G01 X-42.5299 Y35.6869
G01 X-42.5848 Y35.6713
G01 X-42.6250 Y35.6580
G01 X-42.6921 Y35.6321
G01 X-42.7434 Y35.6090
G01 X-42.7820 Y35.5896
G01 X-42.8445 Y35.5542
G01 X-42.8925 Y35.5233
G01 X-42.9272 Y35.4989
G01 X-42.9838 Y35.4547
G01 X-43.0268 Y35.4172
G01 X-43.0628 Y35.3828
G01 X-43.0972 Y35.3468
G01 X-43.1441 Y35.2924
G01 X-43.1736 Y35.2544
G01 X-43.2033 Y35.2125
G01 X-43.2418 Y35.1518
G01 X-43.2696 Y35.1020
G01 X-43.2890 Y35.0634
G01 X-43.3164 Y35.0019
G01 X-43.3330 Y34.9589
G01 X-43.3513 Y34.9048
G01 X-43.3704 Y34.8356
G01 X-43.3812 Y34.7873
G01 X-43.3898 Y34.7380
G01 X-43.3974 Y34.6796
G01 X-43.4025 Y34.6097
G01 X-43.4036 Y34.5600
G01 X-43.4023 Y34.5103
G00 Z1.0000
G00 X-43.4023 Y37.0503
G01 F76.20
G01 Z-0.1000
G01 F175.00
G01 X-43.3986 Y36.9933
G01 X-43.3920 Y36.9366
G01 X-43.3812 Y36.8727
G01 X-43.3704 Y36.8244
G01 X-43.3555 Y36.7693
G01 X-43.3380 Y36.7150
G01 X-43.3164 Y36.6581
G01 X-43.2949 Y36.6092
G01 X-43.2696 Y36.5580
G01 X-43.2418 Y36.5082
G01 X-43.2115 Y36.4597
G01 X-43.1736 Y36.4056
G01 X-43.1441 Y36.3676
G01 X-43.1070 Y36.3241
G01 X-43.0628 Y36.2772
G01 X-43.0268 Y36.2428
G01 X-42.9824 Y36.2041
G01 X-42.9344 Y36.1663
G01 X-42.8925 Y36.1367
G01 X-42.8433 Y36.1050
G01 X-42.7950 Y36.0773
G01 X-42.7434 Y36.0510
G01 X-42.6819 Y36.0236
G01 X-42.6389 Y36.0070
G01 X-42.5848 Y35.9887
G01 X-42.5299 Y35.9731
G01 X-42.4673 Y35.9588
G01 X-42.4180 Y35.9502
G01 X-42.3596 Y35.9426
G01 X-42.3044 Y35.9383
G01 X-42.2400 Y35.9364
G01 X-42.1903 Y35.9375
G01 X-42.1333 Y35.9414
G01 X-42.0766 Y35.9480
G01 X-42.0127 Y35.9588
G01 X-41.9644 Y35.9696
G01 X-41.9093 Y35.9845
G01 X-41.8550 Y36.0020
G01 X-41.7981 Y36.0236
G01 X-41.7492 Y36.0451
G01 X-41.6980 Y36.0704
G01 X-41.6482 Y36.0982
G01 X-41.5997 Y36.1285
G01 X-41.5456 Y36.1663
G01 X-41.5076 Y36.1959
G01 X-41.4641 Y36.2330
G01 X-41.4172 Y36.2772
G01 X-41.3828 Y36.3132
G01 X-41.3441 Y36.3576
G01 X-41.3063 Y36.4056
G01 X-41.2767 Y36.4475
G01 X-41.2450 Y36.4967
G01 X-41.2173 Y36.5450
G01 X-41.1910 Y36.5966
G01 X-41.1636 Y36.6581
G01 X-41.1470 Y36.7011
G01 X-41.1287 Y36.7552
G01 X-41.1131 Y36.8101
G01 X-41.0988 Y36.8727
G01 X-41.0902 Y36.9220
G01 X-41.0826 Y36.9804
G01 X-41.0783 Y37.0356
G01 X-41.0764 Y37.1000
G01 X-41.0775 Y37.1497
G01 X-41.0814 Y37.2067
G01 X-41.0880 Y37.2634
G01 X-41.0988 Y37.3273
G01 X-41.1096 Y37.3756
G01 X-41.1245 Y37.4307
G01 X-41.1420 Y37.4850
G01 X-41.1636 Y37.5419
G01 X-41.1851 Y37.5908
G01 X-41.2104 Y37.6420
G01 X-41.2382 Y37.6918
G01 X-41.2685 Y37.7403
G01 X-41.3063 Y37.7944
G01 X-41.3359 Y37.8324
G01 X-41.3730 Y37.8759
G01 X-41.4172 Y37.9228
G01 X-41.4532 Y37.9572
G01 X-41.4976 Y37.9959
G01 X-41.5456 Y38.0336
G01 X-41.5875 Y38.0633
G01 X-41.6367 Y38.0950
G01 X-41.6850 Y38.1227
G01 X-41.7366 Y38.1490
G01 X-41.7981 Y38.1764
G01 X-41.8411 Y38.1930
G01 X-41.8952 Y38.2113
G01 X-41.9501 Y38.2269
G01 X-42.0127 Y38.2412
G01 X-42.0620 Y38.2498
G01 X-42.1204 Y38.2574
G01 X-42.1756 Y38.2617
G01 X-42.2400 Y38.2636
G01 X-42.2897 Y38.2625
G01 X-42.3467 Y38.2586
G01 X-42.4034 Y38.2520
G01 X-42.4673 Y38.2412
G01 X-42.5156 Y38.2304
G01 X-42.5707 Y38.2155
G01 X-42.6250 Y38.1980
G01 X-42.6819 Y38.1764
G01 X-42.7308 Y38.1549
G01 X-42.7820 Y38.1296
G01 X-42.8318 Y38.1018
G01 X-42.8803 Y38.0715
G01 X-42.9344 Y38.0336
G01 X-42.9724 Y38.0041
G01 X-43.0159 Y37.9670
G01 X-43.0628 Y37.9228
G01 X-43.0972 Y37.8868
G01 X-43.1359 Y37.8424
G01 X-43.1736 Y37.7944
G01 X-43.2033 Y37.7525
G01 X-43.2350 Y37.7033
G01 X-43.2627 Y37.6550
G01 X-43.2890 Y37.6034
G01 X-43.3164 Y37.5419
G01 X-43.3330 Y37.4989
G01 X-43.3513 Y37.4448
G01 X-43.3669 Y37.3899
G01 X-43.3812 Y37.3273
G01 X-43.3898 Y37.2780
G01 X-43.3974 Y37.2196
G01 X-43.4017 Y37.1644
G01 X-43.4036 Y37.1000
G01 X-43.4023 Y37.0503
G00 Z1.0000
G00 X-43.4023 Y39.5903
G01 F76.20
G01 Z-0.1000
G01 F175.00
G01 X-43.3986 Y39.5333
G01 X-43.3920 Y39.4766
G01 X-43.3812 Y39.4127
G01 X-43.3704 Y39.3644
G01 X-43.3555 Y39.3093
G01 X-43.3380 Y39.2550
G01 X-43.3164 Y39.1981
G01 X-43.2949 Y39.1492
G01 X-43.2696 Y39.0980
G01 X-43.2418 Y39.0482
G01 X-43.2115 Y38.9997
G01 X-43.1736 Y38.9456
G01 X-43.1441 Y38.9076
G01 X-43.1070 Y38.8641
G01 X-43.0628 Y38.8172
G01 X-43.0268 Y38.7828
G01 X-42.9824 Y38.7441
G01 X-42.9344 Y38.7063
G01 X-42.8925 Y38.6767
G01 X-42.8433 Y38.6450
G01 X-42.7950 Y38.6173
G01 X-42.7434 Y38.5910
G01 X-42.6819 Y38.5636
G01 X-42.6389 Y38.5470
G01 X-42.5848 Y38.5287
G01 X-42.5299 Y38.5131
G01 X-42.4673 Y38.4988
G01 X-42.4180 Y38.4902
G01 X-42.3596 Y38.4826
G01 X-42.3044 Y38.4783
G01 X-42.2400 Y38.4764
G01 X-42.1903 Y38.4775
G01 X-42.1333 Y38.4814
G01 X-42.0766 Y38.4880
G01 X-42.0127 Y38.4988
G01 X-41.9644 Y38.5096
G01 X-41.9093 Y38.5245
G01 X-41.8550 Y38.5420
G01 X-41.7981 Y38.5636
G01 X-41.7492 Y38.5851
G01 X-41.6980 Y38.6104
G01 X-41.6482 Y38.6382
G01 X-41.5997 Y38.6685
G01 X-41.5456 Y38.7063
G01 X-41.5076 Y38.7359
G01 X-41.4641 Y38.7730
G01 X-41.4172 Y38.8172
G01 X-41.3828 Y38.8532
G01 X-41.3441 Y38.8976
G01 X-41.3063 Y38.9456
G01 X-41.2767 Y38.9875
G01 X-41.2450 Y39.0367
G01 X-41.2173 Y39.0850
G01 X-41.1910 Y39.1366
G01 X-41.1636 Y39.1981
G01 X-41.1470 Y39.2411
G01 X-41.1287 Y39.2952
G01 X-41.1131 Y39.3501
G01 X-41.0988 Y39.4127
G01 X-41.0902 Y39.4620
G01 X-41.0826 Y39.5204
G01 X-41.0783 Y39.5756
G01 X-41.0764 Y39.6400
G01 X-41.0775 Y39.6897
G01 X-41.0814 Y39.7467
G01 X-41.0880 Y39.8034
G01 X-41.0988 Y39.8673
G01 X-41.1096 Y39.9156
G01 X-41.1245 Y39.9707
G01 X-41.1420 Y40.0250
G01 X-41.1636 Y40.0819
G01 X-41.1851 Y40.1308
G01 X-41.2104 Y40.1820
G01 X-41.2382 Y40.2318
G01 X-41.2685 Y40.2803
G01 X-41.3063 Y40.3344
G01 X-41.3359 Y40.3724
G01 X-41.3730 Y40.4159
G01 X-41.4172 Y40.4628
G01 X-41.4532 Y40.4972
G01 X-41.4976 Y40.5359
G01 X-41.5456 Y40.5737
G01 X-41.5875 Y40.6033
G01 X-41.6367 Y40.6350
G01 X-41.6850 Y40.6627
G01 X-41.7366 Y40.6890
G01 X-41.7981 Y40.7164
G01 X-41.8411 Y40.7330
G01 X-41.8952 Y40.7513
G01 X-41.9501 Y40.7669
G01 X-42.0127 Y40.7812
G01 X-42.0620 Y40.7898
G01 X-42.1204 Y40.7974
G01 X-42.1756 Y40.8017
G01 X-42.2400 Y40.8036
G01 X-42.2897 Y40.8025
G01 X-42.3467 Y40.7986
G01 X-42.4034 Y40.7920
G01 X-42.4673 Y40.7812
G01 X-42.5156 Y40.7704
G01 X-42.5707 Y40.7555
G01 X-42.6250 Y40.7380
G01 X-42.6819 Y40.7164
G01 X-42.7308 Y40.6949
G01 X-42.7820 Y40.6696
G01 X-42.8318 Y40.6418
G01 X-42.8803 Y40.6115
G01 X-42.9344 Y40.5737
G01 X-42.9724 Y40.5441
G01 X-43.0159 Y40.5070
G01 X-43.0628 Y40.4628
G01 X-43.0972 Y40.4268
G01 X-43.1359 Y40.3824
G01 X-43.1736 Y40.3344
G01 X-43.2033 Y40.2925
G01 X-43.2350 Y40.2433
G01 X-43.2627 Y40.1950
G01 X-43.2890 Y40.1434
G01 X-43.3164 Y40.0819
G01 X-43.3330 Y40.0389
G01 X-43.3513 Y39.9848
G01 X-43.3669 Y39.9299
G01 X-43.3812 Y39.8673
G01 X-43.3898 Y39.8180
G01 X-43.3974 Y39.7596
G01 X-43.4017 Y39.7044
G01 X-43.4036 Y39.6400
G01 X-43.4023 Y39.5903
G00 Z1.0000
G00 X-43.4023 Y42.1303
G01 F76.20
G01 Z-0.1000
G01 F175.00
G01 X-43.3986 Y42.0733
G01 X-43.3920 Y42.0166
G01 X-43.3812 Y41.9527
G01 X-43.3704 Y41.9044
G01 X-43.3555 Y41.8493
G01 X-43.3380 Y41.7950
G01 X-43.3164 Y41.7381
G01 X-43.2949 Y41.6892
G01 X-43.2696 Y41.6380
G01 X-43.2418 Y41.5882
G01 X-43.2115 Y41.5397
G01 X-43.1736 Y41.4856
G01 X-43.1441 Y41.4476
G01 X-43.1070 Y41.4041
G01 X-43.0628 Y41.3572
G01 X-43.0268 Y41.3228
G01 X-42.9824 Y41.2841
G01 X-42.9344 Y41.2463
G01 X-42.8925 Y41.2167
G01 X-42.8433 Y41.1850
G01 X-42.7950 Y41.1573
G01 X-42.7434 Y41.1310
G01 X-42.6819 Y41.1036
G01 X-42.6389 Y41.0870
G01 X-42.5848 Y41.0687
G01 X-42.5299 Y41.0531
G01 X-42.4673 Y41.0388
G01 X-42.4180 Y41.0302
G01 X-42.3596 Y41.0226
G01 X-42.3044 Y41.0183
G01 X-42.2400 Y41.0164
G01 X-42.1903 Y41.0175
G01 X-42.1333 Y41.0214
G01 X-42.0766 Y41.0280
G01 X-42.0127 Y41.0388
G01 X-41.9644 Y41.0496
G01 X-41.9093 Y41.0645
G01 X-41.8550 Y41.0820
G01 X-41.7981 Y41.1036
G01 X-41.7492 Y41.1251
G01 X-41.6980 Y41.1504
G01 X-41.6482 Y41.1782
G01 X-41.5997 Y41.2085
G01 X-41.5456 Y41.2463
G01 X-41.5076 Y41.2759
G01 X-41.4641 Y41.3130
G01 X-41.4172 Y41.3572
G01 X-41.3828 Y41.3932
G01 X-41.3441 Y41.4376
G01 X-41.3063 Y41.4856
G01 X-41.2767 Y41.5275
G01 X-41.2450 Y41.5767
G01 X-41.2173 Y41.6250
G01 X-41.1910 Y41.6766
G01 X-41.1636 Y41.7381
G01 X-41.1470 Y41.7811
G01 X-41.1287 Y41.8352
G01 X-41.1131 Y41.8901
G01 X-41.0988 Y41.9527
G01 X-41.0902 Y42.0020
G01 X-41.0826 Y42.0604
G01 X-41.0783 Y42.1156
G01 X-41.0764 Y42.1800
G01 X-41.0775 Y42.2297
G01 X-41.0814 Y42.2867
G01 X-41.0880 Y42.3434
G01 X-41.0988 Y42.4073
G01 X-41.1096 Y42.4556
G01 X-41.1245 Y42.5107
G01 X-41.1420 Y42.5650
G01 X-41.1636 Y42.6219
G01 X-41.1851 Y42.6708
G01 X-41.2104 Y42.7220
G01 X-41.2382 Y42.7718
G01 X-41.2685 Y42.8203
G01 X-41.3063 Y42.8744
G01 X-41.3359 Y42.9124
G01 X-41.3730 Y42.9559
G01 X-41.4172 Y43.0028
G01 X-41.4532 Y43.0372
G01 X-41.4976 Y43.0759
G01 X-41.5456 Y43.1137
G01 X-41.5875 Y43.1433
G01 X-41.6367 Y43.1750
G01 X-41.6850 Y43.2027
G01 X-41.7366 Y43.2290
G01 X-41.7981 Y43.2564
G01 X-41.8411 Y43.2730
G01 X-41.8952 Y43.2913
G01 X-41.9501 Y43.3069
G01 X-42.0127 Y43.3212
G01 X-42.0620 Y43.3298
G01 X-42.1204 Y43.3374
G01 X-42.1756 Y43.3417
G01 X-42.2400 Y43.3436
G01 X-42.2897 Y43.3425
G01 X-42.3467 Y43.3386
G01 X-42.4034 Y43.3320
G01 X-42.4673 Y43.3212
G01 X-42.5156 Y43.3104
G01 X-42.5707 Y43.2955
G01 X-42.6250 Y43.2780
G01 X-42.6819 Y43.2564
G01 X-42.7308 Y43.2349
G01 X-42.7820 Y43.2096
G01 X-42.8318 Y43.1818
G01 X-42.8803 Y43.1515
G01 X-42.9344 Y43.1137
G01 X-42.9724 Y43.0841
G01 X-43.0159 Y43.0470
G01 X-43.0628 Y43.0028
G01 X-43.0972 Y42.9668
G01 X-43.1359 Y42.9224
G01 X-43.1736 Y42.8744
G01 X-43.2033 Y42.8325
G01 X-43.2350 Y42.7833
G01 X-43.2627 Y42.7350
G01 X-43.2890 Y42.6834
G01 X-43.3164 Y42.6219
G01 X-43.3330 Y42.5789
G01 X-43.3513 Y42.5248
G01 X-43.3669 Y42.4699
G01 X-43.3812 Y42.4073
G01 X-43.3898 Y42.3580
G01 X-43.3974 Y42.2996
G01 X-43.4017 Y42.2444
G01 X-43.4036 Y42.1800
G01 X-43.4023 Y42.1303
G00 Z1.0000
G00 X-43.4023 Y44.6703
G01 F76.20
G01 Z-0.1000
G01 F175.00
G01 X-43.3986 Y44.6133
G01 X-43.3920 Y44.5566
G01 X-43.3812 Y44.4927
G01 X-43.3704 Y44.4444
G01 X-43.3555 Y44.3893
G01 X-43.3380 Y44.3350
G01 X-43.3164 Y44.2781
G01 X-43.2949 Y44.2292
G01 X-43.2696 Y44.1780
G01 X-43.2418 Y44.1282
G01 X-43.2115 Y44.0797
G01 X-43.1736 Y44.0256
G01 X-43.1441 Y43.9876
G01 X-43.1070 Y43.9441
G01 X-43.0628 Y43.8972
G01 X-43.0268 Y43.8628
G01 X-42.9824 Y43.8241
G01 X-42.9344 Y43.7864
G01 X-42.8925 Y43.7567
G01 X-42.8433 Y43.7250
G01 X-42.7950 Y43.6973
G01 X-42.7434 Y43.6710
G01 X-42.6819 Y43.6436
G01 X-42.6389 Y43.6270
G01 X-42.5848 Y43.6087
G01 X-42.5299 Y43.5931
G01 X-42.4673 Y43.5788
G01 X-42.4180 Y43.5702
G01 X-42.3596 Y43.5626
G01 X-42.3044 Y43.5583
G01 X-42.2400 Y43.5564
G01 X-42.1903 Y43.5575
G01 X-42.1333 Y43.5614
G01 X-42.0766 Y43.5680
G01 X-42.0127 Y43.5788
G01 X-41.9644 Y43.5896
G01 X-41.9093 Y43.6045
G01 X-41.8550 Y43.6220
G01 X-41.7981 Y43.6436
G01 X-41.7492 Y43.6651
G01 X-41.6980 Y43.6904
G01 X-41.6482 Y43.7182
G01 X-41.5997 Y43.7485
G01 X-41.5456 Y43.7864
G01 X-41.5076 Y43.8159
G01 X-41.4641 Y43.8530
G01 X-41.4172 Y43.8972
G01 X-41.3828 Y43.9332
G01 X-41.3441 Y43.9776
G01 X-41.3063 Y44.0256
G01 X-41.2767 Y44.0675
G01 X-41.2450 Y44.1167
G01 X-41.2173 Y44.1650
G01 X-41.1910 Y44.2166
G01 X-41.1636 Y44.2781
G01 X-41.1470 Y44.3211
G01 X-41.1287 Y44.3752
G01 X-41.1131 Y44.4301
G01 X-41.0988 Y44.4927
G01 X-41.0902 Y44.5420
G01 X-41.0826 Y44.6004
G01 X-41.0783 Y44.6556
G01 X-41.0764 Y44.7200
G01 X-41.0775 Y44.7697
G01 X-41.0814 Y44.8267
G01 X-41.0880 Y44.8834
G01 X-41.0988 Y44.9473
G01 X-41.1096 Y44.9956
G01 X-41.1245 Y45.0507
G01 X-41.1420 Y45.1050
G01 X-41.1636 Y45.1619
G01 X-41.1851 Y45.2108
G01 X-41.2104 Y45.2620
G01 X-41.2382 Y45.3118
G01 X-41.2685 Y45.3603
G01 X-41.3063 Y45.4144
G01 X-41.3359 Y45.4524
G01 X-41.3730 Y45.4959
G01 X-41.4172 Y45.5428
G01 X-41.4532 Y45.5772
G01 X-41.4976 Y45.6159
G01 X-41.5456 Y45.6537
G01 X-41.5875 Y45.6833
G01 X-41.6367 Y45.7150
G01 X-41.6850 Y45.7427
G01 X-41.7366 Y45.7690
G01 X-41.7981 Y45.7964
G01 X-41.8411 Y45.8130
G01 X-41.8952 Y45.8313
G01 X-41.9501 Y45.8469
G01 X-42.0127 Y45.8612
G01 X-42.0620 Y45.8698
G01 X-42.1204 Y45.8774
G01 X-42.1756 Y45.8817
G01 X-42.2400 Y45.8836
G01 X-42.2897 Y45.8825
G01 X-42.3467 Y45.8786
G01 X-42.4034 Y45.8720
G01 X-42.4673 Y45.8612
G01 X-42.5156 Y45.8504
G01 X-42.5707 Y45.8355
G01 X-42.6250 Y45.8180
G01 X-42.6819 Y45.7964
G01 X-42.7308 Y45.7749
G01 X-42.7820 Y45.7496
G01 X-42.8318 Y45.7218
G01 X-42.8803 Y45.6915
G01 X-42.9344 Y45.6537
G01 X-42.9724 Y45.6241
G01 X-43.0159 Y45.5870
G01 X-43.0628 Y45.5428
G01 X-43.0972 Y45.5068
G01 X-43.1359 Y45.4624
G01 X-43.1736 Y45.4144
G01 X-43.2033 Y45.3725
G01 X-43.2350 Y45.3233
G01 X-43.2627 Y45.2750
G01 X-43.2890 Y45.2234
G01 X-43.3164 Y45.1619
G01 X-43.3330 Y45.1189
G01 X-43.3513 Y45.0648
G01 X-43.3669 Y45.0099
G01 X-43.3812 Y44.9473
G01 X-43.3898 Y44.8980
G01 X-43.3974 Y44.8396
G01 X-43.4017 Y44.7844
G01 X-43.4036 Y44.7200
G01 X-43.4023 Y44.6703
G00 Z1.0000
G00 X-43.4023 Y47.2103
G01 F76.20
G01 Z-0.1000
G01 F175.00
G01 X-43.3986 Y47.1533
G01 X-43.3920 Y47.0966
G01 X-43.3812 Y47.0327
G01 X-43.3704 Y46.9844
G01 X-43.3555 Y46.9293
G01 X-43.3380 Y46.8750
G01 X-43.3164 Y46.8181
G01 X-43.2949 Y46.7692
G01 X-43.2696 Y46.7180
G01 X-43.2418 Y46.6682
G01 X-43.2115 Y46.6197
G01 X-43.1736 Y46.5656
G01 X-43.1441 Y46.5276
G01 X-43.1070 Y46.4841
G01 X-43.0628 Y46.4372
G01 X-43.0268 Y46.4028
G01 X-42.9824 Y46.3641
G01 X-42.9344 Y46.3264
G01 X-42.8925 Y46.2967
G01 X-42.8433 Y46.2650
G01 X-42.7950 Y46.2373
G01 X-42.7434 Y46.2110
G01 X-42.6819 Y46.1836
G01 X-42.6389 Y46.1670
G01 X-42.5848 Y46.1487
G01 X-42.5299 Y46.1331
G01 X-42.4673 Y46.1188
G01 X-42.4180 Y46.1102
G01 X-42.3596 Y46.1026
G01 X-42.3044 Y46.0983
G01 X-42.2400 Y46.0964
G01 X-42.1903 Y46.0975
G01 X-42.1333 Y46.1014
G01 X-42.0766 Y46.1080
G01 X-42.0127 Y46.1188
G01 X-41.9644 Y46.1296
G01 X-41.9093 Y46.1445
G01 X-41.8550 Y46.1620
G01 X-41.7981 Y46.1836
G01 X-41.7492 Y46.2051
G01 X-41.6980 Y46.2304
G01 X-41.6482 Y46.2582
G01 X-41.5997 Y46.2885
G01 X-41.5456 Y46.3264
G01 X-41.5076 Y46.3559
G01 X-41.4641 Y46.3930
G01 X-41.4172 Y46.4372
G01 X-41.3828 Y46.4732
G01 X-41.3441 Y46.5176
G01 X-41.3063 Y46.5656
G01 X-41.2767 Y46.6075
G01 X-41.2450 Y46.6567
G01 X-41.2173 Y46.7050
G01 X-41.1910 Y46.7566
G01 X-41.1636 Y46.8181
G01 X-41.1470 Y46.8611
G01 X-41.1287 Y46.9152
G01 X-41.1131 Y46.9701
G01 X-41.0988 Y47.0327
G01 X-41.0902 Y47.0820
G01 X-41.0826 Y47.1404
G01 X-41.0783 Y47.1956
G01 X-41.0764 Y47.2600
G01 X-41.0775 Y47.3097
G01 X-41.0814 Y47.3667
G01 X-41.0880 Y47.4234
G01 X-41.0988 Y47.4873
G01 X-41.1096 Y47.5356
G01 X-41.1245 Y47.5907
G01 X-41.1420 Y47.6450
G01 X-41.1636 Y47.7019
G01 X-41.1851 Y47.7508
G01 X-41.2104 Y47.8020
G01 X-41.2382 Y47.8518
G01 X-41.2685 Y47.9003
G01 X-41.3063 Y47.9544
G01 X-41.3359 Y47.9924
G01 X-41.3730 Y48.0359
G01 X-41.4172 Y48.0828
G01 X-41.4532 Y48.1172
G01 X-41.4976 Y48.1559
G01 X-41.5456 Y48.1937
G01 X-41.5875 Y48.2233
G01 X-41.6367 Y48.2550
G01 X-41.6850 Y48.2827
G01 X-41.7366 Y48.3090
G01 X-41.7981 Y48.3364
G01 X-41.8411 Y48.3530
G01 X-41.8952 Y48.3713
G01 X-41.9501 Y48.3869
G01 X-42.0127 Y48.4012
G01 X-42.0620 Y48.4098
G01 X-42.1204 Y48.4174
G01 X-42.1756 Y48.4217
G01 X-42.2400 Y48.4236
G01 X-42.2897 Y48.4225
G01 X-42.3467 Y48.4186
G01 X-42.4034 Y48.4120
G01 X-42.4673 Y48.4012
G01 X-42.5156 Y48.3904
G01 X-42.5707 Y48.3755
G01 X-42.6250 Y48.3580
G01 X-42.6819 Y48.3364
G01 X-42.7308 Y48.3149
G01 X-42.7820 Y48.2896
G01 X-42.8318 Y48.2618
G01 X-42.8803 Y48.2315
G01 X-42.9344 Y48.1937
G01 X-42.9724 Y48.1641
G01 X-43.0159 Y48.1270
G01 X-43.0628 Y48.0828
G01 X-43.0972 Y48.0468
G01 X-43.1359 Y48.0024
G01 X-43.1736 Y47.9544
G01 X-43.2033 Y47.9125
G01 X-43.2350 Y47.8633
G01 X-43.2627 Y47.8150
G01 X-43.2890 Y47.7634
G01 X-43.3164 Y47.7019
G01 X-43.3330 Y47.6589
G01 X-43.3513 Y47.6048
G01 X-43.3669 Y47.5499
G01 X-43.3812 Y47.4873
G01 X-43.3898 Y47.4380
G01 X-43.3974 Y47.3796
G01 X-43.4017 Y47.3244
G01 X-43.4036 Y47.2600
G01 X-43.4023 Y47.2103
G00 Z1.0000
G00 X-43.4023 Y49.7503
G01 F76.20
G01 Z-0.1000
G01 F175.00
G01 X-43.3986 Y49.6933
G01 X-43.3920 Y49.6366
G01 X-43.3812 Y49.5727
G01 X-43.3704 Y49.5244
G01 X-43.3555 Y49.4693
G01 X-43.3380 Y49.4150
G01 X-43.3164 Y49.3581
G01 X-43.2949 Y49.3092
G01 X-43.2696 Y49.2580
G01 X-43.2418 Y49.2082
G01 X-43.2115 Y49.1597
G01 X-43.1736 Y49.1056
G01 X-43.1441 Y49.0676
G01 X-43.1070 Y49.0241
G01 X-43.0628 Y48.9772
G01 X-43.0268 Y48.9428
G01 X-42.9824 Y48.9041
G01 X-42.9344 Y48.8663
G01 X-42.8925 Y48.8367
G01 X-42.8433 Y48.8050
G01 X-42.7950 Y48.7773
G01 X-42.7434 Y48.7510
G01 X-42.6819 Y48.7236
G01 X-42.6389 Y48.7070
G01 X-42.5848 Y48.6887
G01 X-42.5299 Y48.6731
G01 X-42.4673 Y48.6588
G01 X-42.4180 Y48.6502
G01 X-42.3596 Y48.6426
G01 X-42.3044 Y48.6383
G01 X-42.2400 Y48.6364
G01 X-42.1903 Y48.6375
G01 X-42.1333 Y48.6414
G01 X-42.0766 Y48.6480
G01 X-42.0127 Y48.6588
G01 X-41.9644 Y48.6696
G01 X-41.9093 Y48.6845
G01 X-41.8550 Y48.7020
G01 X-41.7981 Y48.7236
G01 X-41.7492 Y48.7451
G01 X-41.6980 Y48.7704
G01 X-41.6482 Y48.7982
G01 X-41.5997 Y48.8285
G01 X-41.5456 Y48.8663
G01 X-41.5076 Y48.8959
G01 X-41.4641 Y48.9330
G01 X-41.4172 Y48.9772
G01 X-41.3828 Y49.0132
G01 X-41.3441 Y49.0576
G01 X-41.3063 Y49.1056
G01 X-41.2767 Y49.1475
G01 X-41.2450 Y49.1967
G01 X-41.2173 Y49.2450
G01 X-41.1910 Y49.2966
G01 X-41.1636 Y49.3581
G01 X-41.1470 Y49.4011
G01 X-41.1287 Y49.4552
G01 X-41.1131 Y49.5101
G01 X-41.0988 Y49.5727
G01 X-41.0902 Y49.6220
G01 X-41.0826 Y49.6804
G01 X-41.0783 Y49.7356
G01 X-41.0764 Y49.8000
G01 X-41.0775 Y49.8497
G01 X-41.0814 Y49.9067
G01 X-41.0880 Y49.9634
G01 X-41.0988 Y50.0273
G01 X-41.1096 Y50.0756
G01 X-41.1245 Y50.1307
G01 X-41.1420 Y50.1850
G01 X-41.1636 Y50.2419
G01 X-41.1851 Y50.2908
G01 X-41.2104 Y50.3420
G01 X-41.2382 Y50.3918
G01 X-41.2685 Y50.4403
G01 X-41.3063 Y50.4944
G01 X-41.3359 Y50.5324
G01 X-41.3730 Y50.5759
G01 X-41.4172 Y50.6228
G01 X-41.4532 Y50.6572
G01 X-41.4976 Y50.6959
G01 X-41.5456 Y50.7337
G01 X-41.5875 Y50.7633
G01 X-41.6367 Y50.7950
G01 X-41.6850 Y50.8227
G01 X-41.7366 Y50.8490
G01 X-41.7981 Y50.8764
G01 X-41.8411 Y50.8930
G01 X-41.8952 Y50.9113
G01 X-41.9501 Y50.9269
G01 X-42.0127 Y50.9412
G01 X-42.0620 Y50.9498
G01 X-42.1204 Y50.9574
G01 X-42.1756 Y50.9617
G01 X-42.2400 Y50.9636
G01 X-42.2897 Y50.9625
G01 X-42.3467 Y50.9586
G01 X-42.4034 Y50.9520
G01 X-42.4673 Y50.9412
G01 X-42.5156 Y50.9304
G01 X-42.5707 Y50.9155
G01 X-42.6250 Y50.8980
G01 X-42.6819 Y50.8764
G01 X-42.7308 Y50.8549
G01 X-42.7820 Y50.8296
G01 X-42.8318 Y50.8018
G01 X-42.8803 Y50.7715
G01 X-42.9344 Y50.7337
G01 X-42.9724 Y50.7041
G01 X-43.0159 Y50.6670
G01 X-43.0628 Y50.6228
G01 X-43.0972 Y50.5868
G01 X-43.1359 Y50.5424
G01 X-43.1736 Y50.4944
G01 X-43.2033 Y50.4525
G01 X-43.2350 Y50.4033
G01 X-43.2627 Y50.3550
G01 X-43.2890 Y50.3034
G01 X-43.3164 Y50.2419
G01 X-43.3330 Y50.1989
G01 X-43.3513 Y50.1448
G01 X-43.3669 Y50.0899
G01 X-43.3812 Y50.0273
G01 X-43.3898 Y49.9780
G01 X-43.3974 Y49.9196
G01 X-43.4017 Y49.8644
G01 X-43.4036 Y49.8000
G01 X-43.4023 Y49.7503
G00 Z1.0000
G00 X-43.4023 Y57.3703
G01 F76.20
G01 Z-0.1000
G01 F175.00
G01 X-43.3986 Y57.3133
G01 X-43.3920 Y57.2566
G01 X-43.3812 Y57.1927
G01 X-43.3704 Y57.1444
G01 X-43.3555 Y57.0893
G01 X-43.3380 Y57.0350
G01 X-43.3164 Y56.9781
G01 X-43.2949 Y56.9292
G01 X-43.2696 Y56.8780
G01 X-43.2418 Y56.8282
G01 X-43.2115 Y56.7797
G01 X-43.1736 Y56.7256
G01 X-43.1441 Y56.6876
G01 X-43.1070 Y56.6441
G01 X-43.0628 Y56.5972
G01 X-43.0268 Y56.5628
G01 X-42.9824 Y56.5241
G01 X-42.9344 Y56.4863
G01 X-42.8925 Y56.4567
G01 X-42.8433 Y56.4250
G01 X-42.7950 Y56.3973
G01 X-42.7434 Y56.3710
G01 X-42.6819 Y56.3436
G01 X-42.6389 Y56.3270
G01 X-42.5848 Y56.3087
G01 X-42.5299 Y56.2931
G01 X-42.4673 Y56.2788
G01 X-42.4180 Y56.2702
G01 X-42.3596 Y56.2626
G01 X-42.3044 Y56.2583
G01 X-42.2400 Y56.2564
G01 X-42.1903 Y56.2575
G01 X-42.1333 Y56.2614
G01 X-42.0766 Y56.2680
G01 X-42.0127 Y56.2788
G01 X-41.9644 Y56.2896
G01 X-41.9093 Y56.3045
G01 X-41.8550 Y56.3220
G01 X-41.7981 Y56.3436
G01 X-41.7492 Y56.3651
G01 X-41.6980 Y56.3904
G01 X-41.6482 Y56.4182
G01 X-41.5997 Y56.4485
G01 X-41.5456 Y56.4863
G01 X-41.5076 Y56.5159
G01 X-41.4641 Y56.5530
G01 X-41.4172 Y56.5972
G01 X-41.3828 Y56.6332
G01 X-41.3441 Y56.6776
G01 X-41.3063 Y56.7256
G01 X-41.2767 Y56.7675
G01 X-41.2450 Y56.8167
G01 X-41.2173 Y56.8650
G01 X-41.1910 Y56.9166
G01 X-41.1636 Y56.9781
G01 X-41.1470 Y57.0211
G01 X-41.1287 Y57.0752
G01 X-41.1131 Y57.1301
G01 X-41.0988 Y57.1927
G01 X-41.0902 Y57.2420
G01 X-41.0826 Y57.3004
G01 X-41.0783 Y57.3556
G01 X-41.0764 Y57.4200
G01 X-41.0775 Y57.4697
G01 X-41.0814 Y57.5267
G01 X-41.0880 Y57.5834
G01 X-41.0988 Y57.6473
G01 X-41.1096 Y57.6956
G01 X-41.1245 Y57.7507
G01 X-41.1420 Y57.8050
G01 X-41.1636 Y57.8619
G01 X-41.1851 Y57.9108
G01 X-41.2104 Y57.9620
G01 X-41.2382 Y58.0118
G01 X-41.2685 Y58.0603
G01 X-41.3063 Y58.1144
G01 X-41.3359 Y58.1524
G01 X-41.3730 Y58.1959
G01 X-41.4172 Y58.2428
G01 X-41.4532 Y58.2772
G01 X-41.4976 Y58.3159
G01 X-41.5456 Y58.3536
G01 X-41.5875 Y58.3833
G01 X-41.6367 Y58.4150
G01 X-41.6850 Y58.4427
G01 X-41.7366 Y58.4690
G01 X-41.7981 Y58.4964
G01 X-41.8411 Y58.5130
G01 X-41.8952 Y58.5313
G01 X-41.9501 Y58.5469
G01 X-42.0127 Y58.5612
G01 X-42.0620 Y58.5698
G01 X-42.1204 Y58.5774
G01 X-42.1756 Y58.5817
G01 X-42.2400 Y58.5836
G01 X-42.2897 Y58.5825
G01 X-42.3467 Y58.5786
G01 X-42.4034 Y58.5720
G01 X-42.4673 Y58.5612
G01 X-42.5156 Y58.5504
G01 X-42.5707 Y58.5355
G01 X-42.6250 Y58.5180
G01 X-42.6819 Y58.4964
G01 X-42.7308 Y58.4749
G01 X-42.7820 Y58.4496
G01 X-42.8318 Y58.4218
G01 X-42.8803 Y58.3915
G01 X-42.9344 Y58.3536
G01 X-42.9724 Y58.3241
G01 X-43.0159 Y58.2870
G01 X-43.0628 Y58.2428
G01 X-43.0972 Y58.2068
G01 X-43.1359 Y58.1624
G01 X-43.1736 Y58.1144
G01 X-43.2033 Y58.0725
G01 X-43.2350 Y58.0233
G01 X-43.2627 Y57.9750
G01 X-43.2890 Y57.9234
G01 X-43.3164 Y57.8619
G01 X-43.3330 Y57.8189
G01 X-43.3513 Y57.7648
G01 X-43.3669 Y57.7099
G01 X-43.3812 Y57.6473
G01 X-43.3898 Y57.5980
G01 X-43.3974 Y57.5396
G01 X-43.4017 Y57.4844
G01 X-43.4036 Y57.4200
G01 X-43.4023 Y57.3703
G00 Z1.0000
G00 X-43.4023 Y59.9103
G01 F76.20
G01 Z-0.1000
G01 F175.00
G01 X-43.3972 Y59.8386
G01 X-43.3898 Y59.7820
G01 X-43.3812 Y59.7327
G01 X-43.3704 Y59.6844
G01 X-43.3555 Y59.6293
G01 X-43.3330 Y59.5611
G01 X-43.3164 Y59.5181
G01 X-43.2890 Y59.4566
G01 X-43.2696 Y59.4180
G01 X-43.2418 Y59.3682
G01 X-43.2033 Y59.3075
G01 X-43.1736 Y59.2656
G01 X-43.1441 Y59.2276
G01 X-43.0972 Y59.1732
G01 X-43.0628 Y59.1372
G01 X-43.0159 Y59.0930
G01 X-42.9824 Y59.0641
G01 X-42.9390 Y59.0298
G01 X-42.8803 Y58.9885
G01 X-42.8433 Y58.9650
G01 X-42.7950 Y58.9373
G01 X-42.7434 Y58.9110
G01 X-42.6921 Y58.8879
G01 X-42.6250 Y58.8620
G01 X-42.5707 Y58.8445
G01 X-42.5156 Y58.8296
G01 X-42.4673 Y58.8188
G01 X-42.4180 Y58.8102
G01 X-42.3596 Y58.8026
G01 X-42.2897 Y58.7975
G01 X-42.2400 Y58.7964
G01 X-42.1903 Y58.7975
G01 X-42.1186 Y58.8028
G01 X-42.0620 Y58.8102
G01 X-42.0202 Y58.8174
G01 X-41.9644 Y58.8296
G01 X-41.8952 Y58.8487
G01 X-41.8411 Y58.8670
G01 X-41.8015 Y58.8822
G01 X-41.7492 Y58.9051
G01 X-41.6850 Y58.9373
G01 X-41.6355 Y58.9658
G01 X-41.5875 Y58.9967
G01 X-41.5528 Y59.0211
G01 X-41.5076 Y59.0559
G01 X-41.4532 Y59.1028
G01 X-41.4172 Y59.1372
G01 X-41.3948 Y59.1606
G01 X-41.3420 Y59.1644
G01 X-41.3031 Y59.1696
G01 X-41.2645 Y59.1767
G01 X-41.2262 Y59.1856
G01 X-41.1885 Y59.1964
G01 X-41.1513 Y59.2091
G01 X-41.1284 Y59.2179
G01 X-41.0797 Y59.2394
G01 X-41.0571 Y59.2509
G01 X-41.0227 Y59.2699
G01 X-40.9894 Y59.2906
G01 X-40.9570 Y59.3129
G01 X-40.9145 Y59.3461
G01 X-40.8850 Y59.3721
G01 X-40.8619 Y59.3941
G01 X-25.5663 Y74.6898
G01 X-14.9215 Y74.6898
G01 X-14.4503 Y74.2185
G01 X-14.4503 Y72.6583
G01 X-14.4894 Y72.6330
G01 X-14.5448 Y72.5938
G01 X-14.5958 Y72.5541
G01 X-14.6518 Y72.5063
G01 X-14.7158 Y72.4454
G01 X-14.7663 Y72.3918
G01 X-14.8060 Y72.3458
G01 X-14.8591 Y72.2776
G01 X-14.9012 Y72.2172
G01 X-14.9335 Y72.1662
G01 X-14.9763 Y72.0906
G01 X-15.0091 Y72.0246
G01 X-15.0372 Y71.9606
G01 X-15.0598 Y71.9022
G01 X-15.0832 Y71.8324
G01 X-15.1067 Y71.7473
G01 X-15.1211 Y71.6829
G01 X-15.1326 Y71.6174
G01 X-15.1422 Y71.5426
G01 X-15.1477 Y71.4710
G01 X-15.1499 Y71.3826
G01 X-15.1477 Y71.3090
G01 X-15.1420 Y71.2357
G01 X-15.1326 Y71.1626
G01 X-15.1225 Y71.1046
G01 X-15.1032 Y71.0184
G01 X-15.0832 Y70.9476
G01 X-15.0647 Y70.8916
G01 X-15.0372 Y70.8194
G01 X-15.0091 Y70.7554
G01 X-14.9693 Y70.6765
G01 X-14.9327 Y70.6126
G01 X-14.8930 Y70.5506
G01 X-14.8539 Y70.4952
G01 X-14.8141 Y70.4442
G01 X-14.7564 Y70.3773
G01 X-14.7107 Y70.3293
G01 X-14.6518 Y70.2737
G01 X-14.6058 Y70.2340
G01 X-14.5494 Y70.1896
G01 X-14.4772 Y70.1388
G01 X-14.4148 Y70.0997
G01 X-14.3506 Y70.0637
G01 X-14.2846 Y70.0309
G01 X-14.2206 Y70.0028
G01 X-14.1622 Y69.9802
G01 X-14.0924 Y69.9568
G01 X-14.0073 Y69.9333
G01 X-13.9429 Y69.9189
G01 X-13.8774 Y69.9074
G01 X-13.7897 Y69.8966
G01 X-13.7162 Y69.8915
G01 X-13.6426 Y69.8901
G01 X-13.5690 Y69.8923
G01 X-13.4957 Y69.8980
G01 X-13.4226 Y69.9074
G01 X-13.3646 Y69.9175
G01 X-13.2927 Y69.9333
G01 X-13.2216 Y69.9525
G01 X-13.1378 Y69.9802
G01 X-13.0794 Y70.0028
G01 X-13.0028 Y70.0369
G01 X-12.9494 Y70.0637
G01 X-12.8852 Y70.0997
G01 X-12.8228 Y70.1388
G01 X-12.7552 Y70.1862
G01 X-12.7042 Y70.2259
G01 X-12.6482 Y70.2737
G01 X-12.5842 Y70.3346
G01 X-12.5337 Y70.3882
G01 X-12.4859 Y70.4442
G01 X-12.4461 Y70.4952
G01 X-12.4070 Y70.5506
G01 X-12.3665 Y70.6138
G01 X-12.3307 Y70.6765
G01 X-12.2969 Y70.7428
G01 X-12.2628 Y70.8194
G01 X-12.2402 Y70.8778
G01 X-12.2168 Y70.9476
G01 X-12.1968 Y71.0184
G01 X-12.1803 Y71.0902
G01 X-12.1652 Y71.1772
G01 X-12.1578 Y71.2374
G01 X-12.1523 Y71.3090
G01 X-12.1500 Y71.3900
G01 X-12.1515 Y71.4562
G01 X-12.1566 Y71.5297
G01 X-12.1674 Y71.6174
G01 X-12.1789 Y71.6829
G01 X-12.1933 Y71.7473
G01 X-12.2168 Y71.8324
G01 X-12.2402 Y71.9022
G01 X-12.2614 Y71.9572
G01 X-12.2909 Y72.0246
G01 X-12.3307 Y72.1035
G01 X-12.3673 Y72.1674
G01 X-12.3988 Y72.2172
G01 X-12.4496 Y72.2894
G01 X-12.4952 Y72.3472
G01 X-12.5337 Y72.3918
G01 X-12.5946 Y72.4558
G01 X-12.6482 Y72.5063
G01 X-12.6942 Y72.5460
G01 X-12.7624 Y72.5991
G01 X-12.8106 Y72.6330
G01 X-12.8497 Y72.6583
G01 X-12.8497 Y74.5500
G01 X-12.8504 Y74.5819
G01 X-12.8530 Y74.6211
G01 X-12.8574 Y74.6601
G01 X-12.8652 Y74.7064
G01 X-12.8720 Y74.7373
G01 X-12.8822 Y74.7752
G01 X-12.8941 Y74.8126
G01 X-12.9093 Y74.8529
G01 X-12.9295 Y74.8980
G01 X-12.9409 Y74.9207
G01 X-12.9599 Y74.9550
G01 X-12.9888 Y75.0007
G01 X-13.0082 Y75.0280
G01 X-13.0268 Y75.0519
G01 X-13.0621 Y75.0928
G01 X-13.0841 Y75.1159
G01 X-14.0241 Y76.0559
G01 X-14.0581 Y76.0878
G01 X-14.0781 Y76.1051
G01 X-14.1074 Y76.1283
G01 X-14.1516 Y76.1594
G01 X-14.1735 Y76.1733
G01 X-14.2063 Y76.1922
G01 X-14.2420 Y76.2106
G01 X-14.2770 Y76.2264
G01 X-14.3274 Y76.2459
G01 X-14.3648 Y76.2579
G01 X-14.3884 Y76.2644
G01 X-14.4411 Y76.2762
G01 X-14.4799 Y76.2826
G01 X-14.5060 Y76.2858
G01 X-14.5434 Y76.2888
G01 X-14.5900 Y76.2903
G01 X-25.8978 Y76.2903
G01 X-25.9444 Y76.2888
G01 X-25.9835 Y76.2856
G01 X-26.0225 Y76.2804
G01 X-26.0466 Y76.2762
G01 X-26.0850 Y76.2680
G01 X-26.1230 Y76.2579
G01 X-26.1604 Y76.2459
G01 X-26.2006 Y76.2307
G01 X-26.2458 Y76.2106
G01 X-26.2685 Y76.1992
G01 X-26.3028 Y76.1801
G01 X-26.3362 Y76.1594
G01 X-26.3685 Y76.1371
G01 X-26.4111 Y76.1039
G01 X-26.4406 Y76.0779
G01 X-26.4636 Y76.0559
G01 X-41.5927 Y60.9268
G01 X-41.6482 Y60.9618
G01 X-41.6980 Y60.9896
G01 X-41.7366 Y61.0090
G01 X-41.8015 Y61.0378
G01 X-41.8550 Y61.0580
G01 X-41.8952 Y61.0713
G01 X-41.9644 Y61.0904
G01 X-42.0202 Y61.1026
G01 X-42.0766 Y61.1120
G01 X-42.1204 Y61.1174
G01 X-42.1903 Y61.1225
G01 X-42.2474 Y61.1235
G01 X-42.3044 Y61.1217
G01 X-42.3467 Y61.1186
G01 X-42.4180 Y61.1098
G01 X-42.4673 Y61.1012
G01 X-42.5156 Y61.0904
G01 X-42.5848 Y61.0713
G01 X-42.6389 Y61.0530
G01 X-42.6785 Y61.0378
G01 X-42.7434 Y61.0090
G01 X-42.7950 Y60.9827
G01 X-42.8445 Y60.9542
G01 X-42.8803 Y60.9315
G01 X-42.9344 Y60.8937
G01 X-42.9724 Y60.8641
G01 X-43.0159 Y60.8270
G01 X-43.0628 Y60.7828
G01 X-43.1070 Y60.7359
G01 X-43.1359 Y60.7024
G01 X-43.1736 Y60.6544
G01 X-43.2115 Y60.6003
G01 X-43.2350 Y60.5633
G01 X-43.2627 Y60.5150
G01 X-43.2890 Y60.4634
G01 X-43.3178 Y60.3985
G01 X-43.3380 Y60.3450
G01 X-43.3513 Y60.3048
G01 X-43.3704 Y60.2356
G01 X-43.3812 Y60.1873
G01 X-43.3898 Y60.1380
G01 X-43.3974 Y60.0796
G01 X-43.4025 Y60.0097
G01 X-43.4036 Y59.9600
G01 X-43.4023 Y59.9103
G00 Z1.0000
G00 X-43.4023 Y64.9903
G01 F76.20
G01 Z-0.1000
G01 F175.00
G01 X-43.3986 Y64.9333
G01 X-43.3920 Y64.8766
G01 X-43.3812 Y64.8127
G01 X-43.3704 Y64.7644
G01 X-43.3555 Y64.7093
G01 X-43.3380 Y64.6550
G01 X-43.3164 Y64.5981
G01 X-43.2949 Y64.5492
G01 X-43.2696 Y64.4980
G01 X-43.2418 Y64.4482
G01 X-43.2115 Y64.3997
G01 X-43.1736 Y64.3456
G01 X-43.1441 Y64.3076
G01 X-43.1070 Y64.2641
G01 X-43.0628 Y64.2172
G01 X-43.0268 Y64.1828
G01 X-42.9824 Y64.1441
G01 X-42.9344 Y64.1064
G01 X-42.8925 Y64.0767
G01 X-42.8433 Y64.0450
G01 X-42.7950 Y64.0173
G01 X-42.7434 Y63.9910
G01 X-42.6819 Y63.9636
G01 X-42.6389 Y63.9470
G01 X-42.5848 Y63.9287
G01 X-42.5299 Y63.9131
G01 X-42.4673 Y63.8988
G01 X-42.4180 Y63.8902
G01 X-42.3596 Y63.8826
G01 X-42.3044 Y63.8783
G01 X-42.2400 Y63.8764
G01 X-42.1903 Y63.8775
G01 X-42.1333 Y63.8814
G01 X-42.0766 Y63.8880
G01 X-42.0127 Y63.8988
G01 X-41.9644 Y63.9096
G01 X-41.9093 Y63.9245
G01 X-41.8550 Y63.9420
G01 X-41.7981 Y63.9636
G01 X-41.7492 Y63.9851
G01 X-41.6980 Y64.0104
G01 X-41.6482 Y64.0382
G01 X-41.5997 Y64.0685
G01 X-41.5456 Y64.1064
G01 X-41.5076 Y64.1359
G01 X-41.4641 Y64.1730
G01 X-41.4172 Y64.2172
G01 X-41.3828 Y64.2532
G01 X-41.3441 Y64.2976
G01 X-41.3063 Y64.3456
G01 X-41.2767 Y64.3875
G01 X-41.2450 Y64.4367
G01 X-41.2173 Y64.4850
G01 X-41.1910 Y64.5366
G01 X-41.1636 Y64.5981
G01 X-41.1470 Y64.6411
G01 X-41.1287 Y64.6952
G01 X-41.1131 Y64.7501
G01 X-41.0988 Y64.8127
G01 X-41.0902 Y64.8620
G01 X-41.0826 Y64.9204
G01 X-41.0783 Y64.9756
G01 X-41.0764 Y65.0400
G01 X-41.0775 Y65.0897
G01 X-41.0814 Y65.1467
G01 X-41.0880 Y65.2034
G01 X-41.0988 Y65.2673
G01 X-41.1096 Y65.3156
G01 X-41.1245 Y65.3707
G01 X-41.1420 Y65.4250
G01 X-41.1636 Y65.4819
G01 X-41.1851 Y65.5308
G01 X-41.2104 Y65.5820
G01 X-41.2382 Y65.6318
G01 X-41.2685 Y65.6803
G01 X-41.3063 Y65.7344
G01 X-41.3359 Y65.7724
G01 X-41.3730 Y65.8159
G01 X-41.4172 Y65.8628
G01 X-41.4532 Y65.8972
G01 X-41.4976 Y65.9359
G01 X-41.5456 Y65.9737
G01 X-41.5875 Y66.0033
G01 X-41.6367 Y66.0350
G01 X-41.6850 Y66.0627
G01 X-41.7366 Y66.0890
G01 X-41.7981 Y66.1164
G01 X-41.8411 Y66.1330
G01 X-41.8952 Y66.1513
G01 X-41.9501 Y66.1669
G01 X-42.0127 Y66.1812
G01 X-42.0620 Y66.1898
G01 X-42.1204 Y66.1974
G01 X-42.1756 Y66.2017
G01 X-42.2400 Y66.2036
G01 X-42.2897 Y66.2025
G01 X-42.3467 Y66.1986
G01 X-42.4034 Y66.1920
G01 X-42.4673 Y66.1812
G01 X-42.5156 Y66.1704
G01 X-42.5707 Y66.1555
G01 X-42.6250 Y66.1380
G01 X-42.6819 Y66.1164
G01 X-42.7308 Y66.0949
G01 X-42.7820 Y66.0696
G01 X-42.8318 Y66.0418
G01 X-42.8803 Y66.0115
G01 X-42.9344 Y65.9737
G01 X-42.9724 Y65.9441
G01 X-43.0159 Y65.9070
G01 X-43.0628 Y65.8628
G01 X-43.0972 Y65.8268
G01 X-43.1359 Y65.7824
G01 X-43.1737 Y65.7344
G01 X-43.2033 Y65.6925
G01 X-43.2350 Y65.6433
G01 X-43.2627 Y65.5950
G01 X-43.2890 Y65.5434
G01 X-43.3164 Y65.4819
G01 X-43.3330 Y65.4389
G01 X-43.3513 Y65.3848
G01 X-43.3669 Y65.3299
G01 X-43.3812 Y65.2673
G01 X-43.3898 Y65.2180
G01 X-43.3974 Y65.1596
G01 X-43.4017 Y65.1044
G01 X-43.4036 Y65.0400
G01 X-43.4023 Y64.9903
G00 Z1.0000
G00 X-43.4023 Y70.0703
G01 F76.20
G01 Z-0.1000
G01 F175.00
G01 X-43.3986 Y70.0133
G01 X-43.3920 Y69.9566
G01 X-43.3812 Y69.8927
G01 X-43.3704 Y69.8444
G01 X-43.3555 Y69.7893
G01 X-43.3380 Y69.7350
G01 X-43.3164 Y69.6781
G01 X-43.2949 Y69.6292
G01 X-43.2696 Y69.5780
G01 X-43.2418 Y69.5282
G01 X-43.2115 Y69.4797
G01 X-43.1736 Y69.4256
G01 X-43.1441 Y69.3876
G01 X-43.1070 Y69.3441
G01 X-43.0628 Y69.2972
G01 X-43.0268 Y69.2628
G01 X-42.9824 Y69.2241
G01 X-42.9344 Y69.1864
G01 X-42.8925 Y69.1567
G01 X-42.8433 Y69.1250
G01 X-42.7950 Y69.0973
G01 X-42.7434 Y69.0710
G01 X-42.6819 Y69.0436
G01 X-42.6389 Y69.0270
G01 X-42.5848 Y69.0087
G01 X-42.5299 Y68.9931
G01 X-42.4673 Y68.9788
G01 X-42.4180 Y68.9702
G01 X-42.3596 Y68.9626
G01 X-42.3044 Y68.9583
G01 X-42.2400 Y68.9564
G01 X-42.1903 Y68.9575
G01 X-42.1333 Y68.9614
G01 X-42.0766 Y68.9680
G01 X-42.0127 Y68.9788
G01 X-41.9644 Y68.9896
G01 X-41.9093 Y69.0045
G01 X-41.8550 Y69.0220
G01 X-41.7981 Y69.0436
G01 X-41.7492 Y69.0651
G01 X-41.6980 Y69.0904
G01 X-41.6482 Y69.1182
G01 X-41.5997 Y69.1485
G01 X-41.5456 Y69.1864
G01 X-41.5076 Y69.2159
G01 X-41.4641 Y69.2530
G01 X-41.4172 Y69.2972
G01 X-41.3828 Y69.3332
G01 X-41.3441 Y69.3776
G01 X-41.3063 Y69.4256
G01 X-41.2767 Y69.4675
G01 X-41.2450 Y69.5167
G01 X-41.2173 Y69.5650
G01 X-41.1910 Y69.6166
G01 X-41.1636 Y69.6781
G01 X-41.1470 Y69.7211
G01 X-41.1287 Y69.7752
G01 X-41.1131 Y69.8301
G01 X-41.0988 Y69.8927
G01 X-41.0902 Y69.9420
G01 X-41.0826 Y70.0004
G01 X-41.0783 Y70.0556
G01 X-41.0764 Y70.1200
G01 X-41.0775 Y70.1697
G01 X-41.0814 Y70.2267
G01 X-41.0880 Y70.2834
G01 X-41.0988 Y70.3473
G01 X-41.1096 Y70.3956
G01 X-41.1245 Y70.4507
G01 X-41.1420 Y70.5050
G01 X-41.1636 Y70.5619
G01 X-41.1851 Y70.6108
G01 X-41.2104 Y70.6620
G01 X-41.2382 Y70.7118
G01 X-41.2685 Y70.7603
G01 X-41.3063 Y70.8144
G01 X-41.3359 Y70.8524
G01 X-41.3730 Y70.8959
G01 X-41.4172 Y70.9428
G01 X-41.4532 Y70.9772
G01 X-41.4976 Y71.0159
G01 X-41.5456 Y71.0537
G01 X-41.5875 Y71.0833
G01 X-41.6367 Y71.1150
G01 X-41.6850 Y71.1427
G01 X-41.7366 Y71.1690
G01 X-41.7981 Y71.1964
G01 X-41.8411 Y71.2130
G01 X-41.8952 Y71.2313
G01 X-41.9501 Y71.2469
G01 X-42.0127 Y71.2612
G01 X-42.0620 Y71.2698
G01 X-42.1204 Y71.2774
G01 X-42.1756 Y71.2817
G01 X-42.2400 Y71.2836
G01 X-42.2897 Y71.2825
G01 X-42.3467 Y71.2786
G01 X-42.4034 Y71.2720
G01 X-42.4673 Y71.2612
G01 X-42.5156 Y71.2504
G01 X-42.5707 Y71.2355
G01 X-42.6250 Y71.2180
G01 X-42.6819 Y71.1964
G01 X-42.7308 Y71.1749
G01 X-42.7820 Y71.1496
G01 X-42.8318 Y71.1218
G01 X-42.8803 Y71.0915
G01 X-42.9344 Y71.0537
G01 X-42.9724 Y71.0241
G01 X-43.0159 Y70.9870
G01 X-43.0628 Y70.9428
G01 X-43.0972 Y70.9068
G01 X-43.1359 Y70.8624
G01 X-43.1737 Y70.8144
G01 X-43.2033 Y70.7725
G01 X-43.2350 Y70.7233
G01 X-43.2627 Y70.6750
G01 X-43.2890 Y70.6234
G01 X-43.3164 Y70.5619
G01 X-43.3330 Y70.5189
G01 X-43.3513 Y70.4648
G01 X-43.3669 Y70.4099
G01 X-43.3812 Y70.3473
G01 X-43.3898 Y70.2980
G01 X-43.3974 Y70.2396
G01 X-43.4017 Y70.1844
G01 X-43.4036 Y70.1200
G01 X-43.4023 Y70.0703
G00 Z1.0000
G00 X-40.9765 Y70.3713
G01 F76.20
G01 Z-0.1000
G01 F175.00
G01 X-40.9765 Y69.8687
G01 X-41.1688 Y69.4043
G01 X-41.5243 Y69.0488
G01 X-41.9887 Y68.8565
G01 X-42.4913 Y68.8565
G01 X-42.9557 Y69.0488
G01 X-43.3112 Y69.4043
G01 X-43.5035 Y69.8687
G01 X-43.5035 Y70.3713
G01 X-43.3112 Y70.8357
G01 X-42.9557 Y71.1912
G01 X-42.4913 Y71.3835
G01 X-41.9887 Y71.3835
G01 X-41.5243 Y71.1912
G01 X-41.1688 Y70.8357
G01 X-40.9765 Y70.3713
G00 Z1.0000
G00 X-28.1623 Y67.5303
G01 F76.20
G01 Z-0.1000
G01 F175.00
G01 X-28.1572 Y67.4586
G01 X-28.1498 Y67.4020
G01 X-28.1397 Y67.3458
G01 X-28.1269 Y67.2901
G01 X-28.1113 Y67.2352
G01 X-28.0930 Y67.1811
G01 X-28.0764 Y67.1381
G01 X-28.0549 Y67.0892
G01 X-28.0296 Y67.0380
G01 X-27.9942 Y66.9755
G01 X-27.9633 Y66.9275
G01 X-27.9337 Y66.8856
G01 X-27.9041 Y66.8476
G01 X-27.8670 Y66.8041
G01 X-27.8228 Y66.7572
G01 X-27.7868 Y66.7228
G01 X-27.7324 Y66.6759
G01 X-27.6944 Y66.6464
G01 X-27.6525 Y66.6167
G01 X-27.6033 Y66.5850
G01 X-27.5550 Y66.5573
G01 X-27.5034 Y66.5310
G01 X-27.4521 Y66.5079
G01 X-27.3850 Y66.4820
G01 X-27.3307 Y66.4645
G01 X-27.2756 Y66.4496
G01 X-27.2273 Y66.4388
G01 X-27.1780 Y66.4302
G01 X-27.1196 Y66.4226
G01 X-27.0497 Y66.4175
G01 X-26.9926 Y66.4165
G01 X-26.9356 Y66.4183
G01 X-26.8933 Y66.4214
G01 X-26.8220 Y66.4302
G01 X-26.7658 Y66.4403
G01 X-26.7101 Y66.4531
G01 X-26.6552 Y66.4687
G01 X-26.6150 Y66.4820
G01 X-26.5581 Y66.5036
G01 X-26.4966 Y66.5310
G01 X-26.4450 Y66.5573
G01 X-26.3955 Y66.5858
G01 X-26.3597 Y66.6085
G01 X-26.3056 Y66.6464
G01 X-26.2562 Y66.6853
G01 X-26.2132 Y66.7228
G01 X-26.1772 Y66.7572
G01 X-26.1556 Y66.7797
G01 X-24.4600 Y66.7797
G01 X-24.4134 Y66.7812
G01 X-24.3742 Y66.7844
G01 X-24.3353 Y66.7896
G01 X-24.3111 Y66.7938
G01 X-24.2727 Y66.8020
G01 X-24.2207 Y66.8164
G01 X-24.1835 Y66.8291
G01 X-24.1470 Y66.8436
G01 X-24.1120 Y66.8594
G01 X-24.0893 Y66.8709
G01 X-24.0550 Y66.8899
G01 X-24.0093 Y66.9188
G01 X-23.9774 Y66.9417
G01 X-23.9467 Y66.9661
G01 X-23.9281 Y66.9822
G01 X-23.8941 Y67.0141
G01 X-21.0183 Y69.8900
G01 X-19.4361 Y69.8903
G01 X-19.4083 Y69.8929
G01 X-19.3809 Y69.8981
G01 X-19.3674 Y69.9016
G01 X-19.3410 Y69.9105
G01 X-19.3149 Y69.9221
G01 X-19.2893 Y69.9366
G01 X-19.2654 Y69.9536
G01 X-19.2431 Y69.9727
G01 X-19.2229 Y69.9940
G01 X-19.2136 Y70.0054
G01 X-19.1966 Y70.0294
G01 X-19.1821 Y70.0549
G01 X-19.1705 Y70.0810
G01 X-19.1616 Y70.1074
G01 X-19.1552 Y70.1346
G01 X-19.1513 Y70.1622
G01 X-19.1500 Y70.1900
G01 X-19.1500 Y72.5900
G01 X-19.1503 Y72.6039
G01 X-19.1529 Y72.6317
G01 X-19.1552 Y72.6454
G01 X-19.1616 Y72.6726
G01 X-19.1657 Y72.6859
G01 X-19.1759 Y72.7118
G01 X-19.1891 Y72.7381
G01 X-19.2048 Y72.7629
G01 X-19.2136 Y72.7746
G01 X-19.2327 Y72.7969
G01 X-19.2431 Y72.8073
G01 X-19.2654 Y72.8265
G01 X-19.2894 Y72.8434
G01 X-19.3149 Y72.8579
G01 X-19.3282 Y72.8642
G01 X-19.3541 Y72.8743
G01 X-19.3809 Y72.8819
G01 X-19.3946 Y72.8848
G01 X-19.4083 Y72.8871
G01 X-19.4361 Y72.8897
G01 X-21.8500 Y72.8900
G01 X-21.8778 Y72.8887
G01 X-21.8917 Y72.8871
G01 X-21.9191 Y72.8819
G01 X-21.9326 Y72.8784
G01 X-21.9459 Y72.8743
G01 X-21.9718 Y72.8641
G01 X-21.9981 Y72.8509
G01 X-22.0107 Y72.8434
G01 X-22.0346 Y72.8264
G01 X-22.0569 Y72.8073
G01 X-22.0771 Y72.7860
G01 X-22.0864 Y72.7746
G01 X-22.1034 Y72.7506
G01 X-22.1179 Y72.7251
G01 X-22.1241 Y72.7118
G01 X-22.1343 Y72.6859
G01 X-22.1419 Y72.6591
G01 X-22.1471 Y72.6317
G01 X-22.1487 Y72.6178
G01 X-22.1500 Y72.5900
G01 X-22.1500 Y71.0217
G01 X-24.7915 Y68.3803
G01 X-26.1556 Y68.3803
G01 X-26.1772 Y68.4028
G01 X-26.2132 Y68.4372
G01 X-26.2676 Y68.4841
G01 X-26.3056 Y68.5136
G01 X-26.3475 Y68.5433
G01 X-26.3967 Y68.5750
G01 X-26.4580 Y68.6096
G01 X-26.4966 Y68.6290
G01 X-26.5479 Y68.6521
G01 X-26.6011 Y68.6730
G01 X-26.6693 Y68.6955
G01 X-26.7244 Y68.7104
G01 X-26.7727 Y68.7212
G01 X-26.8220 Y68.7298
G01 X-26.8933 Y68.7386
G01 X-26.9503 Y68.7425
G01 X-26.9926 Y68.7435
G01 X-27.0644 Y68.7417
G01 X-27.1214 Y68.7372
G01 X-27.1780 Y68.7298
G01 X-27.2198 Y68.7226
G01 X-27.2899 Y68.7069
G01 X-27.3448 Y68.6913
G01 X-27.3989 Y68.6730
G01 X-27.4419 Y68.6564
G01 X-27.4908 Y68.6349
G01 X-27.5420 Y68.6096
G01 X-27.5918 Y68.5818
G01 X-27.6525 Y68.5433
G01 X-27.6944 Y68.5136
G01 X-27.7438 Y68.4747
G01 X-27.7868 Y68.4372
G01 X-27.8175 Y68.4079
G01 X-27.8670 Y68.3559
G01 X-27.8959 Y68.3224
G01 X-27.9336 Y68.2744
G01 X-27.9633 Y68.2325
G01 X-27.9950 Y68.1833
G01 X-28.0296 Y68.1220
G01 X-28.0549 Y68.0708
G01 X-28.0764 Y68.0219
G01 X-28.0930 Y67.9789
G01 X-28.1113 Y67.9248
G01 X-28.1304 Y67.8556
G01 X-28.1412 Y67.8073
G01 X-28.1520 Y67.7434
G01 X-28.1586 Y67.6867
G01 X-28.1625 Y67.6297
G01 X-28.1636 Y67.5800
G01 X-28.1623 Y67.5303
G00 Z1.0000
G00 X-28.1623 Y64.9903
G01 F76.20
G01 Z-0.1000
G01 F175.00
G01 X-28.1586 Y64.9333
G01 X-28.1520 Y64.8766
G01 X-28.1412 Y64.8127
G01 X-28.1304 Y64.7644
G01 X-28.1155 Y64.7093
G01 X-28.0980 Y64.6550
G01 X-28.0764 Y64.5981
G01 X-28.0549 Y64.5492
G01 X-28.0296 Y64.4980
G01 X-28.0018 Y64.4482
G01 X-27.9715 Y64.3997
G01 X-27.9336 Y64.3456
G01 X-27.9041 Y64.3076
G01 X-27.8670 Y64.2641
G01 X-27.8228 Y64.2172
G01 X-27.7868 Y64.1828
G01 X-27.7424 Y64.1441
G01 X-27.6945 Y64.1064
G01 X-27.6525 Y64.0767
G01 X-27.6033 Y64.0450
G01 X-27.5550 Y64.0173
G01 X-27.5034 Y63.9910
G01 X-27.4419 Y63.9636
G01 X-27.3989 Y63.9470
G01 X-27.3448 Y63.9287
G01 X-27.2899 Y63.9131
G01 X-27.2273 Y63.8988
G01 X-27.1780 Y63.8902
G01 X-27.1196 Y63.8826
G01 X-27.0644 Y63.8783
G01 X-27.0000 Y63.8764
G01 X-26.9503 Y63.8775
G01 X-26.8933 Y63.8814
G01 X-26.8366 Y63.8880
G01 X-26.7727 Y63.8988
G01 X-26.7244 Y63.9096
G01 X-26.6693 Y63.9245
G01 X-26.6150 Y63.9420
G01 X-26.5581 Y63.9636
G01 X-26.5092 Y63.9851
G01 X-26.4580 Y64.0104
G01 X-26.4082 Y64.0382
G01 X-26.3597 Y64.0685
G01 X-26.3055 Y64.1064
G01 X-26.2676 Y64.1359
G01 X-26.2241 Y64.1730
G01 X-26.1772 Y64.2172
G01 X-26.1428 Y64.2532
G01 X-26.1041 Y64.2976
G01 X-26.0664 Y64.3456
G01 X-26.0367 Y64.3875
G01 X-26.0050 Y64.4367
G01 X-25.9773 Y64.4850
G01 X-25.9510 Y64.5366
G01 X-25.9236 Y64.5981
G01 X-25.9070 Y64.6411
G01 X-25.8887 Y64.6952
G01 X-25.8731 Y64.7501
G01 X-25.8588 Y64.8127
G01 X-25.8502 Y64.8620
G01 X-25.8426 Y64.9204
G01 X-25.8383 Y64.9756
G01 X-25.8364 Y65.0400
G01 X-25.8375 Y65.0897
G01 X-25.8414 Y65.1467
G01 X-25.8480 Y65.2034
G01 X-25.8588 Y65.2673
