(G-CODE GENERATED BY FLATCAM v8.99 - www.flatcam.org - Version Date: 2019/12/15)

(Name: copper_iso_16_cnc)
(Type: G-code from Geometry)
(Units: MM)

(Created on Monday, 13 April 2020 at 10:53)

(TOOL DIAMETER: 1.6 mm)
(Feedrate: 200.0 mm/min)
(Feedrate_Z: 76.2 mm/min)
(Feedrate rapids 76.2 mm/min)

(Z_Cut: -0.09999999999999981 mm)
(Z_Move: 1.0 mm)
(Z Toolchange: 20.0 mm)
(X,Y Toolchange: 0.0000, 0.0000 mm)
(Z Start: None mm)
(Z End: 20.0 mm)
(Steps per circle: 128)
(Preprocessor Geometry: default)

(X range:  -79.6005 ...   -0.9395  mm)
(Y range:   -0.2605 ...   41.4405  mm)

(Spindle Speed: 12000 RPM)
G21
G90
G94




G01 F200.00
G00 Z1.0000

M03 S12000
G00 X-38.1876 Y6.5268
G01 F76.20
G01 Z-0.1000
G01 F200.00
G01 X-38.1860 Y6.4875
G01 X-38.1806 Y6.4141
G01 X-38.1768 Y6.3750
G01 X-38.1677 Y6.3020
G01 X-38.1620 Y6.2631
G01 X-38.1456 Y6.1705
G01 X-38.1256 Y6.0802
G01 X-38.1161 Y6.0422
G01 X-38.0964 Y5.9712
G01 X-38.0850 Y5.9336
G01 X-38.0619 Y5.8637
G01 X-38.0487 Y5.8267
G01 X-38.0186 Y5.7489
G01 X-37.9774 Y5.6545
G01 X-37.9615 Y5.6209
G01 X-37.9275 Y5.5532
G01 X-37.9090 Y5.5186
G01 X-37.8727 Y5.4545
G01 X-37.8525 Y5.4208
G01 X-37.8131 Y5.3586
G01 X-37.7913 Y5.3260
G01 X-37.7348 Y5.2464
G01 X-37.6802 Y5.1762
G01 X-37.6553 Y5.1459
G01 X-37.6072 Y5.0901
G01 X-37.5808 Y5.0610
G01 X-37.5163 Y4.9936
G01 X-37.4490 Y4.9292
G01 X-37.4199 Y4.9028
G01 X-37.3604 Y4.8515
G01 X-37.3338 Y4.8298
G01 X-37.2757 Y4.7845
G01 X-37.2442 Y4.7611
G01 X-37.1840 Y4.7187
G01 X-37.1514 Y4.6969
G01 X-37.0859 Y4.6555
G01 X-37.0555 Y4.6373
G01 X-36.9914 Y4.6010
G01 X-36.9568 Y4.5825
G01 X-36.8910 Y4.5494
G01 X-36.8555 Y4.5326
G01 X-36.7611 Y4.4914
G01 X-36.6833 Y4.4613
G01 X-36.6463 Y4.4481
G01 X-36.5764 Y4.4250
G01 X-36.5388 Y4.4136
G01 X-36.4678 Y4.3939
G01 X-36.4298 Y4.3844
G01 X-36.3395 Y4.3644
G01 X-36.2469 Y4.3480
G01 X-36.2080 Y4.3423
G01 X-36.1516 Y4.3353
G01 X-35.8791 Y4.0631
G01 X-35.8435 Y4.0293
G01 X-35.8144 Y4.0029
G01 X-35.7735 Y3.9676
G01 X-35.7469 Y3.9459
G01 X-35.6960 Y3.9064
G01 X-35.6365 Y3.8640
G01 X-35.6038 Y3.8422
G01 X-35.5591 Y3.8139
G01 X-35.5287 Y3.7958
G01 X-35.4860 Y3.7716
G01 X-35.4513 Y3.7531
G01 X-35.4055 Y3.7300
G01 X-35.3720 Y3.7142
G01 X-35.3000 Y3.6829
G01 X-35.2450 Y3.6616
G01 X-35.2080 Y3.6484
G01 X-35.1614 Y3.6330
G01 X-35.1238 Y3.6216
G01 X-35.0765 Y3.6085
G01 X-35.0384 Y3.5989
G01 X-34.9721 Y3.5843
G01 X-34.9036 Y3.5721
G01 X-34.8647 Y3.5663
G01 X-34.8113 Y3.5598
G01 X-34.7769 Y3.5565
G01 X-34.7279 Y3.5529
G01 X-34.6887 Y3.5509
G01 X-34.6200 Y3.5495
G01 X-23.0600 Y3.5495
G01 X-22.9913 Y3.5509
G01 X-22.9521 Y3.5529
G01 X-22.9031 Y3.5565
G01 X-22.8640 Y3.5603
G01 X-22.8153 Y3.5663
G01 X-22.7764 Y3.5721
G01 X-22.7280 Y3.5805
G01 X-22.6895 Y3.5882
G01 X-22.6416 Y3.5989
G01 X-22.6035 Y3.6085
G01 X-22.5562 Y3.6216
G01 X-22.5186 Y3.6330
G01 X-22.4720 Y3.6484
G01 X-22.4350 Y3.6616
G01 X-22.3892 Y3.6793
G01 X-22.3529 Y3.6943
G01 X-22.2745 Y3.7300
G01 X-22.2287 Y3.7531
G01 X-22.1940 Y3.7716
G01 X-22.1513 Y3.7958
G01 X-22.1106 Y3.8204
G01 X-22.0858 Y3.8269
G01 X-22.0503 Y3.8380
G01 X-22.0154 Y3.8506
G01 X-21.9811 Y3.8650
G01 X-21.9457 Y3.8817
G01 X-21.9112 Y3.9002
G01 X-21.8776 Y3.9204
G01 X-21.8450 Y3.9421
G01 X-21.8136 Y3.9655
G01 X-21.7833 Y3.9903
G01 X-21.7543 Y4.0166
G01 X-21.7266 Y4.0443
G01 X-21.7003 Y4.0733
G01 X-21.6755 Y4.1036
G01 X-21.6521 Y4.1351
G01 X-21.6304 Y4.1676
G01 X-21.6102 Y4.2012
G01 X-21.5917 Y4.2357
G01 X-21.5749 Y4.2711
G01 X-21.5606 Y4.3054
G01 X-21.5479 Y4.3403
G01 X-21.5369 Y4.3758
G01 X-21.5304 Y4.4006
G01 X-21.5058 Y4.4413
G01 X-21.4816 Y4.4840
G01 X-21.4631 Y4.5187
G01 X-21.4400 Y4.5645
G01 X-21.4242 Y4.5980
G01 X-21.3929 Y4.6700
G01 X-21.3716 Y4.7250
G01 X-21.3584 Y4.7620
G01 X-21.3430 Y4.8086
G01 X-21.3316 Y4.8462
G01 X-21.3185 Y4.8935
G01 X-21.3089 Y4.9316
G01 X-21.2943 Y4.9979
G01 X-21.2821 Y5.0664
G01 X-21.2763 Y5.1053
G01 X-21.2703 Y5.1540
G01 X-21.2665 Y5.1931
G01 X-21.2629 Y5.2421
G01 X-21.2609 Y5.2813
G01 X-21.2595 Y5.3500
G01 X-21.2609 Y5.4187
G01 X-21.2629 Y5.4579
G01 X-21.2665 Y5.5069
G01 X-21.2703 Y5.5460
G01 X-21.2763 Y5.5947
G01 X-21.2821 Y5.6336
G01 X-21.2943 Y5.7021
G01 X-21.3089 Y5.7684
G01 X-21.3185 Y5.8065
G01 X-21.3316 Y5.8538
G01 X-21.3430 Y5.8914
G01 X-21.3584 Y5.9380
G01 X-21.3716 Y5.9750
G01 X-21.3929 Y6.0300
G01 X-21.4242 Y6.1020
G01 X-21.4400 Y6.1355
G01 X-21.4631 Y6.1813
G01 X-21.4816 Y6.2160
G01 X-21.5058 Y6.2587
G01 X-21.5304 Y6.2994
G01 X-21.5369 Y6.3242
G01 X-21.5480 Y6.3597
G01 X-21.5607 Y6.3946
G01 X-21.5750 Y6.4289
G01 X-21.5917 Y6.4643
G01 X-21.6102 Y6.4988
G01 X-21.6304 Y6.5324
G01 X-21.6521 Y6.5650
G01 X-21.6755 Y6.5964
G01 X-21.7003 Y6.6267
G01 X-21.7266 Y6.6557
G01 X-21.7543 Y6.6834
G01 X-21.7833 Y6.7097
G01 X-21.8136 Y6.7345
G01 X-21.8451 Y6.7579
G01 X-21.8776 Y6.7796
G01 X-21.9112 Y6.7998
G01 X-21.9457 Y6.8183
G01 X-21.9811 Y6.8350
G01 X-22.0154 Y6.8494
G01 X-22.0503 Y6.8620
G01 X-22.0858 Y6.8731
G01 X-22.1106 Y6.8796
G01 X-22.1513 Y6.9042
G01 X-22.1940 Y6.9284
G01 X-22.2287 Y6.9469
G01 X-22.2745 Y6.9700
G01 X-22.3080 Y6.9858
G01 X-22.3800 Y7.0171
G01 X-22.4350 Y7.0384
G01 X-22.4720 Y7.0516
G01 X-22.5186 Y7.0670
G01 X-22.5562 Y7.0784
G01 X-22.6035 Y7.0915
G01 X-22.6416 Y7.1011
G01 X-22.7079 Y7.1157
G01 X-22.7764 Y7.1279
G01 X-22.8153 Y7.1337
G01 X-22.8687 Y7.1402
G01 X-22.9521 Y7.1471
G01 X-22.9913 Y7.1491
G01 X-23.0600 Y7.1505
G01 X-33.6523 Y7.1505
G01 X-33.6639 Y7.1978
G01 X-33.6836 Y7.2688
G01 X-33.6950 Y7.3064
G01 X-33.7181 Y7.3763
G01 X-33.7313 Y7.4133
G01 X-33.7614 Y7.4912
G01 X-33.8026 Y7.5855
G01 X-33.8185 Y7.6191
G01 X-33.8525 Y7.6868
G01 X-33.8710 Y7.7214
G01 X-33.9073 Y7.7855
G01 X-33.9275 Y7.8192
G01 X-33.9669 Y7.8814
G01 X-33.9887 Y7.9140
G01 X-34.0452 Y7.9936
G01 X-34.0998 Y8.0638
G01 X-34.1247 Y8.0941
G01 X-34.1728 Y8.1499
G01 X-34.1992 Y8.1790
G01 X-34.2499 Y8.2323
G01 X-34.2777 Y8.2601
G01 X-34.3310 Y8.3108
G01 X-34.3601 Y8.3372
G01 X-34.4196 Y8.3885
G01 X-34.4462 Y8.4102
G01 X-34.5043 Y8.4555
G01 X-34.5358 Y8.4789
G01 X-34.5960 Y8.5213
G01 X-34.6286 Y8.5431
G01 X-34.6941 Y8.5845
G01 X-34.7245 Y8.6027
G01 X-34.7886 Y8.6390
G01 X-34.8232 Y8.6575
G01 X-34.8909 Y8.6915
G01 X-34.9245 Y8.7074
G01 X-34.9918 Y8.7372
G01 X-35.0189 Y8.7486
G01 X-35.0967 Y8.7787
G01 X-35.1337 Y8.7919
G01 X-35.2036 Y8.8150
G01 X-35.2412 Y8.8264
G01 X-35.3122 Y8.8461
G01 X-35.3502 Y8.8556
G01 X-35.4405 Y8.8756
G01 X-35.5331 Y8.8920
G01 X-35.5720 Y8.8977
G01 X-35.6497 Y8.9073
G01 X-35.6841 Y8.9106
G01 X-35.7575 Y8.9160
G01 X-35.7968 Y8.9180
G01 X-35.8704 Y8.9198
G01 X-35.9096 Y8.9198
G01 X-35.9832 Y8.9180
G01 X-36.0225 Y8.9160
G01 X-36.0959 Y8.9106
G01 X-36.1350 Y8.9068
G01 X-36.2080 Y8.8977
G01 X-36.2469 Y8.8920
G01 X-36.3395 Y8.8756
G01 X-36.4298 Y8.8556
G01 X-36.4678 Y8.8461
G01 X-36.5388 Y8.8264
G01 X-36.5764 Y8.8150
G01 X-36.6463 Y8.7919
G01 X-36.6833 Y8.7787
G01 X-36.7611 Y8.7486
G01 X-36.7882 Y8.7372
G01 X-36.8555 Y8.7074
G01 X-36.8891 Y8.6915
G01 X-36.9568 Y8.6575
G01 X-36.9914 Y8.6390
G01 X-37.0555 Y8.6027
G01 X-37.0892 Y8.5825
G01 X-37.1514 Y8.5431
G01 X-37.1840 Y8.5213
G01 X-37.2442 Y8.4789
G01 X-37.2757 Y8.4555
G01 X-37.3338 Y8.4102
G01 X-37.3641 Y8.3853
G01 X-37.4199 Y8.3372
G01 X-37.4490 Y8.3108
G01 X-37.5023 Y8.2601
G01 X-37.5301 Y8.2323
G01 X-37.5808 Y8.1790
G01 X-37.6072 Y8.1499
G01 X-37.6585 Y8.0904
G01 X-37.6802 Y8.0638
G01 X-37.7348 Y7.9936
G01 X-37.7913 Y7.9140
G01 X-37.8131 Y7.8814
G01 X-37.8545 Y7.8159
G01 X-37.8727 Y7.7855
G01 X-37.9090 Y7.7214
G01 X-37.9275 Y7.6868
G01 X-37.9615 Y7.6191
G01 X-37.9774 Y7.5855
G01 X-38.0186 Y7.4911
G01 X-38.0487 Y7.4133
G01 X-38.0619 Y7.3763
G01 X-38.0850 Y7.3064
G01 X-38.0964 Y7.2688
G01 X-38.1161 Y7.1978
G01 X-38.1256 Y7.1598
G01 X-38.1417 Y7.0879
G01 X-38.1494 Y7.0494
G01 X-38.1620 Y6.9769
G01 X-38.1677 Y6.9380
G01 X-38.1768 Y6.8650
G01 X-38.1806 Y6.8259
G01 X-38.1860 Y6.7525
G01 X-38.1880 Y6.7132
G01 X-38.1900 Y6.6200
G01 X-38.1876 Y6.5268
G00 Z1.0000
G00 X-43.2676 Y6.5268
G01 F76.20
G01 Z-0.1000
G01 F200.00
G01 X-43.2660 Y6.4875
G01 X-43.2606 Y6.4141
G01 X-43.2568 Y6.3750
G01 X-43.2477 Y6.3020
G01 X-43.2420 Y6.2631
G01 X-43.2256 Y6.1705
G01 X-43.2056 Y6.0802
G01 X-43.1961 Y6.0422
G01 X-43.1764 Y5.9712
G01 X-43.1650 Y5.9336
G01 X-43.1419 Y5.8637
G01 X-43.1287 Y5.8267
G01 X-43.0986 Y5.7488
G01 X-43.0574 Y5.6545
G01 X-43.0415 Y5.6209
G01 X-43.0075 Y5.5532
G01 X-42.9890 Y5.5186
G01 X-42.9527 Y5.4545
G01 X-42.9325 Y5.4208
G01 X-42.8931 Y5.3586
G01 X-42.8713 Y5.3260
G01 X-42.8148 Y5.2464
G01 X-42.7602 Y5.1762
G01 X-42.7353 Y5.1459
G01 X-42.6872 Y5.0901
G01 X-42.6608 Y5.0610
G01 X-42.5963 Y4.9936
G01 X-42.5290 Y4.9292
G01 X-42.4999 Y4.9028
G01 X-42.4404 Y4.8515
G01 X-42.4138 Y4.8298
G01 X-42.3557 Y4.7845
G01 X-42.3242 Y4.7611
G01 X-42.2640 Y4.7187
G01 X-42.2314 Y4.6969
G01 X-42.1659 Y4.6555
G01 X-42.1355 Y4.6373
G01 X-42.0714 Y4.6010
G01 X-42.0368 Y4.5825
G01 X-41.9691 Y4.5485
G01 X-41.9355 Y4.5326
G01 X-41.8411 Y4.4914
G01 X-41.7633 Y4.4613
G01 X-41.7263 Y4.4481
G01 X-41.6564 Y4.4250
G01 X-41.6188 Y4.4136
G01 X-41.5478 Y4.3939
G01 X-41.5098 Y4.3844
G01 X-41.4195 Y4.3644
G01 X-41.3269 Y4.3480
G01 X-41.2880 Y4.3423
G01 X-41.2103 Y4.3327
G01 X-41.1759 Y4.3294
G01 X-41.1025 Y4.3240
G01 X-41.0632 Y4.3220
G01 X-40.9700 Y4.3200
G01 X-40.8768 Y4.3220
G01 X-40.8375 Y4.3240
G01 X-40.7641 Y4.3294
G01 X-40.7250 Y4.3332
G01 X-40.6520 Y4.3423
G01 X-40.6131 Y4.3480
G01 X-40.5406 Y4.3606
G01 X-40.5021 Y4.3683
G01 X-40.4302 Y4.3844
G01 X-40.3922 Y4.3939
G01 X-40.3212 Y4.4136
G01 X-40.2836 Y4.4250
G01 X-40.2137 Y4.4481
G01 X-40.1767 Y4.4613
G01 X-40.0989 Y4.4914
G01 X-40.0718 Y4.5028
G01 X-40.0045 Y4.5326
G01 X-39.9690 Y4.5494
G01 X-39.9032 Y4.5825
G01 X-39.8686 Y4.6010
G01 X-39.8045 Y4.6373
G01 X-39.7708 Y4.6575
G01 X-39.7086 Y4.6969
G01 X-39.6760 Y4.7187
G01 X-39.5965 Y4.7752
G01 X-39.5262 Y4.8298
G01 X-39.4959 Y4.8547
G01 X-39.4401 Y4.9028
G01 X-39.4110 Y4.9292
G01 X-39.3437 Y4.9936
G01 X-39.2792 Y5.0610
G01 X-39.2528 Y5.0901
G01 X-39.2015 Y5.1496
G01 X-39.1798 Y5.1762
G01 X-39.1252 Y5.2464
G01 X-39.0687 Y5.3260
G01 X-39.0469 Y5.3586
G01 X-39.0055 Y5.4241
G01 X-38.9873 Y5.4545
G01 X-38.9510 Y5.5186
G01 X-38.9325 Y5.5532
G01 X-38.8985 Y5.6209
G01 X-38.8826 Y5.6545
G01 X-38.8414 Y5.7489
G01 X-38.8113 Y5.8267
G01 X-38.7981 Y5.8637
G01 X-38.7750 Y5.9336
G01 X-38.7636 Y5.9712
G01 X-38.7439 Y6.0422
G01 X-38.7344 Y6.0802
G01 X-38.7183 Y6.1521
G01 X-38.7106 Y6.1906
G01 X-38.6980 Y6.2631
G01 X-38.6923 Y6.3020
G01 X-38.6832 Y6.3750
G01 X-38.6794 Y6.4141
G01 X-38.6740 Y6.4875
G01 X-38.6720 Y6.5268
G01 X-38.6700 Y6.6200
G01 X-38.6720 Y6.7132
G01 X-38.6740 Y6.7525
G01 X-38.6794 Y6.8259
G01 X-38.6832 Y6.8650
G01 X-38.6923 Y6.9380
G01 X-38.6980 Y6.9769
G01 X-38.7144 Y7.0695
G01 X-38.7344 Y7.1598
G01 X-38.7439 Y7.1978
G01 X-38.7636 Y7.2688
G01 X-38.7750 Y7.3064
G01 X-38.7981 Y7.3763
G01 X-38.8113 Y7.4133
G01 X-38.8378 Y7.4819
G01 X-38.8528 Y7.5182
G01 X-38.8826 Y7.5855
G01 X-38.8985 Y7.6191
G01 X-38.9341 Y7.6896
G01 X-36.7242 Y9.8995
G01 X-32.8258 Y9.8995
G01 X-30.6231 Y7.6968
G01 X-30.5735 Y7.6493
G01 X-30.5444 Y7.6229
G01 X-30.5035 Y7.5876
G01 X-30.4769 Y7.5659
G01 X-30.4260 Y7.5264
G01 X-30.3665 Y7.4840
G01 X-30.3338 Y7.4622
G01 X-30.2891 Y7.4339
G01 X-30.2159 Y7.3916
G01 X-30.1813 Y7.3730
G01 X-30.1355 Y7.3500
G01 X-30.0571 Y7.3143
G01 X-30.0208 Y7.2993
G01 X-29.9750 Y7.2816
G01 X-29.9380 Y7.2684
G01 X-29.8914 Y7.2529
G01 X-29.8538 Y7.2416
G01 X-29.8065 Y7.2285
G01 X-29.7684 Y7.2189
G01 X-29.7205 Y7.2082
G01 X-29.6819 Y7.2005
G01 X-29.6336 Y7.1921
G01 X-29.5947 Y7.1863
G01 X-29.5413 Y7.1798
G01 X-29.4579 Y7.1729
G01 X-29.4187 Y7.1709
G01 X-29.3500 Y7.1695
G01 X-20.1498 Y7.1695
G01 X-17.0571 Y4.0769
G01 X-17.0075 Y4.0293
G01 X-16.9784 Y4.0029
G01 X-16.9375 Y3.9676
G01 X-16.9109 Y3.9459
G01 X-16.8600 Y3.9064
G01 X-16.8005 Y3.8640
G01 X-16.7678 Y3.8422
G01 X-16.7231 Y3.8139
G01 X-16.6500 Y3.7716
G01 X-16.6153 Y3.7531
G01 X-16.5695 Y3.7300
G01 X-16.4911 Y3.6943
G01 X-16.4548 Y3.6793
G01 X-16.4090 Y3.6616
G01 X-16.3720 Y3.6484
G01 X-16.3254 Y3.6330
G01 X-16.2878 Y3.6216
G01 X-16.2405 Y3.6085
G01 X-16.2024 Y3.5989
G01 X-16.1545 Y3.5882
G01 X-16.1160 Y3.5805
G01 X-16.0676 Y3.5721
G01 X-16.0287 Y3.5663
G01 X-15.9753 Y3.5598
G01 X-15.8919 Y3.5529
G01 X-15.8527 Y3.5509
G01 X-15.7840 Y3.5495
G01 X-13.0104 Y3.5497
G01 X-12.9613 Y3.5509
G01 X-12.9221 Y3.5529
G01 X-12.8731 Y3.5565
G01 X-12.8340 Y3.5603
G01 X-12.7853 Y3.5663
G01 X-12.7464 Y3.5721
G01 X-12.6980 Y3.5805
G01 X-12.6595 Y3.5882
G01 X-12.6116 Y3.5989
G01 X-12.5735 Y3.6085
G01 X-12.5262 Y3.6216
G01 X-12.4886 Y3.6330
G01 X-12.4420 Y3.6484
G01 X-12.4050 Y3.6616
G01 X-12.3500 Y3.6829
G01 X-12.2780 Y3.7142
G01 X-12.2445 Y3.7300
G01 X-12.1987 Y3.7531
G01 X-12.1640 Y3.7716
G01 X-12.1213 Y3.7958
G01 X-12.0806 Y3.8204
G01 X-12.0558 Y3.8269
G01 X-12.0203 Y3.8380
G01 X-11.9854 Y3.8506
G01 X-11.9511 Y3.8649
G01 X-11.9157 Y3.8817
G01 X-11.8812 Y3.9002
G01 X-11.8476 Y3.9204
G01 X-11.8151 Y3.9421
G01 X-11.7836 Y3.9655
G01 X-11.7533 Y3.9903
G01 X-11.7243 Y4.0166
G01 X-11.6966 Y4.0443
G01 X-11.6703 Y4.0733
G01 X-11.6455 Y4.1036
G01 X-11.6221 Y4.1351
G01 X-11.6004 Y4.1676
G01 X-11.5802 Y4.2012
G01 X-11.5617 Y4.2357
G01 X-11.5449 Y4.2711
G01 X-11.5306 Y4.3054
G01 X-11.5180 Y4.3403
G01 X-11.5069 Y4.3758
G01 X-11.5004 Y4.4006
G01 X-11.4758 Y4.4413
G01 X-11.4516 Y4.4840
G01 X-11.4331 Y4.5187
G01 X-11.4100 Y4.5645
G01 X-11.3942 Y4.5980
G01 X-11.3629 Y4.6700
G01 X-11.3416 Y4.7250
G01 X-11.3284 Y4.7620
G01 X-11.3130 Y4.8086
G01 X-11.3016 Y4.8462
G01 X-11.2885 Y4.8935
G01 X-11.2789 Y4.9316
G01 X-11.2643 Y4.9979
G01 X-11.2521 Y5.0664
G01 X-11.2463 Y5.1053
G01 X-11.2398 Y5.1587
G01 X-11.2329 Y5.2421
G01 X-11.2309 Y5.2813
G01 X-11.2295 Y5.3500
G01 X-11.2309 Y5.4187
G01 X-11.2329 Y5.4579
G01 X-11.2365 Y5.5069
G01 X-11.2403 Y5.5460
G01 X-11.2463 Y5.5947
G01 X-11.2521 Y5.6336
G01 X-11.2605 Y5.6820
G01 X-11.2682 Y5.7205
G01 X-11.2789 Y5.7684
G01 X-11.2885 Y5.8065
G01 X-11.3016 Y5.8538
G01 X-11.3130 Y5.8914
G01 X-11.3284 Y5.9380
G01 X-11.3416 Y5.9750
G01 X-11.3629 Y6.0300
G01 X-11.3942 Y6.1020
G01 X-11.4100 Y6.1355
G01 X-11.4331 Y6.1813
G01 X-11.4516 Y6.2160
G01 X-11.4758 Y6.2587
G01 X-11.5004 Y6.2994
G01 X-11.5069 Y6.3242
G01 X-11.5180 Y6.3597
G01 X-11.5306 Y6.3946
G01 X-11.5449 Y6.4289
G01 X-11.5617 Y6.4643
G01 X-11.5802 Y6.4988
G01 X-11.6004 Y6.5324
G01 X-11.6221 Y6.5649
G01 X-11.6455 Y6.5964
G01 X-11.6703 Y6.6267
G01 X-11.6966 Y6.6557
G01 X-11.7243 Y6.6834
G01 X-11.7533 Y6.7097
G01 X-11.7836 Y6.7345
G01 X-11.8151 Y6.7579
G01 X-11.8476 Y6.7796
G01 X-11.8812 Y6.7998
G01 X-11.9157 Y6.8183
G01 X-11.9511 Y6.8351
G01 X-11.9854 Y6.8494
G01 X-12.0203 Y6.8620
G01 X-12.0558 Y6.8731
G01 X-12.0806 Y6.8796
G01 X-12.1213 Y6.9042
G01 X-12.1640 Y6.9284
G01 X-12.1987 Y6.9469
G01 X-12.2445 Y6.9700
G01 X-12.3229 Y7.0057
G01 X-12.3500 Y7.0171
G01 X-12.4050 Y7.0384
G01 X-12.4420 Y7.0516
G01 X-12.4886 Y7.0670
G01 X-12.5262 Y7.0784
G01 X-12.5735 Y7.0915
G01 X-12.6116 Y7.1011
G01 X-12.6595 Y7.1118
G01 X-12.6980 Y7.1195
G01 X-12.7464 Y7.1279
G01 X-12.7853 Y7.1337
G01 X-12.8340 Y7.1397
G01 X-12.8731 Y7.1435
G01 X-12.9221 Y7.1471
G01 X-12.9613 Y7.1491
G01 X-13.0300 Y7.1505
G01 X-15.0382 Y7.1505
G01 X-18.1308 Y10.2431
G01 X-18.1805 Y10.2907
G01 X-18.2096 Y10.3171
G01 X-18.2467 Y10.3492
G01 X-18.2771 Y10.3741
G01 X-18.3280 Y10.4136
G01 X-18.3473 Y10.4277
G01 X-18.3875 Y10.4559
G01 X-18.4201 Y10.4778
G01 X-18.4649 Y10.5061
G01 X-18.4953 Y10.5242
G01 X-18.5380 Y10.5484
G01 X-18.5727 Y10.5669
G01 X-18.6185 Y10.5900
G01 X-18.6520 Y10.6058
G01 X-18.7240 Y10.6371
G01 X-18.7790 Y10.6584
G01 X-18.8160 Y10.6716
G01 X-18.8626 Y10.6870
G01 X-18.9002 Y10.6984
G01 X-18.9475 Y10.7115
G01 X-18.9856 Y10.7211
G01 X-19.0519 Y10.7357
G01 X-19.1204 Y10.7479
G01 X-19.1593 Y10.7536
G01 X-19.2127 Y10.7602
G01 X-19.2960 Y10.7671
G01 X-19.3353 Y10.7690
G01 X-19.3844 Y10.7702
G01 X-28.6042 Y10.7705
G01 X-30.8069 Y12.9731
G01 X-30.8565 Y13.0207
G01 X-30.8856 Y13.0471
G01 X-30.9265 Y13.0824
G01 X-30.9531 Y13.1041
G01 X-31.0040 Y13.1436
G01 X-31.0234 Y13.1577
G01 X-31.0635 Y13.1860
G01 X-31.0962 Y13.2078
G01 X-31.1409 Y13.2361
G01 X-31.2140 Y13.2784
G01 X-31.2487 Y13.2969
G01 X-31.2945 Y13.3200
G01 X-31.3280 Y13.3358
G01 X-31.4000 Y13.3671
G01 X-31.4550 Y13.3884
G01 X-31.4920 Y13.4016
G01 X-31.5386 Y13.4170
G01 X-31.5762 Y13.4284
G01 X-31.6235 Y13.4415
G01 X-31.6616 Y13.4511
G01 X-31.7279 Y13.4657
G01 X-31.7964 Y13.4779
G01 X-31.8353 Y13.4837
G01 X-31.8887 Y13.4902
G01 X-31.9721 Y13.4971
G01 X-32.0113 Y13.4991
G01 X-32.0800 Y13.5005
G01 X-37.4700 Y13.5005
G01 X-37.5387 Y13.4991
G01 X-37.5779 Y13.4971
G01 X-37.6269 Y13.4935
G01 X-37.6660 Y13.4897
G01 X-37.7147 Y13.4837
G01 X-37.7536 Y13.4779
G01 X-37.8221 Y13.4657
G01 X-37.8884 Y13.4511
G01 X-37.9265 Y13.4415
G01 X-37.9738 Y13.4284
G01 X-38.0114 Y13.4170
G01 X-38.0580 Y13.4016
G01 X-38.0950 Y13.3884
G01 X-38.1500 Y13.3671
G01 X-38.1771 Y13.3557
G01 X-38.2555 Y13.3200
G01 X-38.3013 Y13.2969
G01 X-38.3360 Y13.2784
G01 X-38.3787 Y13.2542
G01 X-38.4124 Y13.2340
G01 X-38.4538 Y13.2078
G01 X-38.4865 Y13.1860
G01 X-38.5460 Y13.1436
G01 X-38.5969 Y13.1041
G01 X-38.6273 Y13.0792
G01 X-38.6644 Y13.0471
G01 X-38.6935 Y13.0207
G01 X-38.7431 Y12.9731
G01 X-42.2431 Y9.4731
G01 X-42.2907 Y9.4235
G01 X-42.3171 Y9.3944
G01 X-42.3524 Y9.3535
G01 X-42.4043 Y9.2882
G01 X-42.4277 Y9.2566
G01 X-42.4560 Y9.2165
G01 X-42.4778 Y9.1838
G01 X-42.5061 Y9.1391
G01 X-42.5484 Y9.0660
G01 X-42.5669 Y9.0313
G01 X-42.5900 Y8.9855
G01 X-42.6257 Y8.9071
G01 X-42.6371 Y8.8800
G01 X-42.6584 Y8.8250
G01 X-42.6716 Y8.7880
G01 X-42.6870 Y8.7414
G01 X-42.6984 Y8.7038
G01 X-42.7115 Y8.6565
G01 X-42.7211 Y8.6184
G01 X-42.7357 Y8.5521
G01 X-42.7479 Y8.4836
G01 X-42.7537 Y8.4447
G01 X-42.7602 Y8.3913
G01 X-42.7671 Y8.3079
G01 X-42.7691 Y8.2687
G01 X-42.7705 Y8.2000
G01 X-42.7705 Y8.0506
G01 X-42.8148 Y7.9936
G01 X-42.8289 Y7.9742
G01 X-42.8713 Y7.9140
G01 X-42.8931 Y7.8814
G01 X-42.9345 Y7.8159
G01 X-42.9527 Y7.7855
G01 X-42.9890 Y7.7214
G01 X-43.0075 Y7.6868
G01 X-43.0415 Y7.6191
G01 X-43.0574 Y7.5855
G01 X-43.0986 Y7.4912
G01 X-43.1287 Y7.4133
G01 X-43.1419 Y7.3763
G01 X-43.1650 Y7.3064
G01 X-43.1764 Y7.2688
G01 X-43.1961 Y7.1978
G01 X-43.2056 Y7.1598
G01 X-43.2256 Y7.0695
G01 X-43.2420 Y6.9769
G01 X-43.2477 Y6.9380
G01 X-43.2573 Y6.8603
G01 X-43.2606 Y6.8259
G01 X-43.2660 Y6.7525
G01 X-43.2680 Y6.7132
G01 X-43.2700 Y6.6200
G01 X-43.2676 Y6.5268
G00 Z1.0000
G00 X-48.3476 Y6.5268
G01 F76.20
G01 Z-0.1000
G01 F200.00
G01 X-48.3460 Y6.4875
G01 X-48.3406 Y6.4141
G01 X-48.3368 Y6.3750
G01 X-48.3277 Y6.3020
G01 X-48.3220 Y6.2631
G01 X-48.3056 Y6.1705
G01 X-48.2856 Y6.0802
G01 X-48.2761 Y6.0422
G01 X-48.2564 Y5.9712
G01 X-48.2450 Y5.9336
G01 X-48.2219 Y5.8637
G01 X-48.2087 Y5.8267
G01 X-48.1786 Y5.7488
G01 X-48.1374 Y5.6545
G01 X-48.1206 Y5.6190
G01 X-48.0875 Y5.5532
G01 X-48.0690 Y5.5186
G01 X-48.0327 Y5.4545
G01 X-48.0125 Y5.4208
G01 X-47.9731 Y5.3586
G01 X-47.9513 Y5.3260
G01 X-47.9089 Y5.2658
G01 X-47.8948 Y5.2464
G01 X-47.8505 Y5.1894
G01 X-47.8505 Y4.4987
G01 X-47.8491 Y4.4300
G01 X-47.8471 Y4.3907
G01 X-47.8435 Y4.3418
G01 X-47.8397 Y4.3027
G01 X-47.8337 Y4.2539
G01 X-47.8279 Y4.2151
G01 X-47.8157 Y4.1466
G01 X-47.8011 Y4.0803
G01 X-47.7915 Y4.0422
G01 X-47.7784 Y3.9949
G01 X-47.7670 Y3.9573
G01 X-47.7516 Y3.9107
G01 X-47.7384 Y3.8737
G01 X-47.7207 Y3.8279
G01 X-47.7057 Y3.7916
G01 X-47.6858 Y3.7467
G01 X-47.6700 Y3.7131
G01 X-47.6469 Y3.6674
G01 X-47.6284 Y3.6327
G01 X-47.6042 Y3.5900
G01 X-47.5840 Y3.5563
G01 X-47.5578 Y3.5148
G01 X-47.5360 Y3.4822
G01 X-47.4936 Y3.4227
G01 X-47.4541 Y3.3718
G01 X-47.4292 Y3.3414
G01 X-47.3971 Y3.3042
G01 X-47.3707 Y3.2752
G01 X-47.3231 Y3.2255
G01 X-44.3645 Y0.2669
G01 X-44.3148 Y0.2193
G01 X-44.2858 Y0.1929
G01 X-44.2448 Y0.1576
G01 X-44.2182 Y0.1359
G01 X-44.1673 Y0.0964
G01 X-44.1078 Y0.0540
G01 X-44.0752 Y0.0322
G01 X-44.0304 Y0.0039
G01 X-44.0000 Y-0.0142
G01 X-43.9573 Y-0.0384
G01 X-43.9226 Y-0.0569
G01 X-43.8769 Y-0.0800
G01 X-43.7984 Y-0.1157
G01 X-43.7713 Y-0.1271
G01 X-43.7163 Y-0.1484
G01 X-43.6793 Y-0.1616
G01 X-43.6327 Y-0.1770
G01 X-43.5951 Y-0.1884
G01 X-43.5478 Y-0.2015
G01 X-43.5097 Y-0.2111
G01 X-43.4434 Y-0.2257
G01 X-43.3749 Y-0.2379
G01 X-43.3361 Y-0.2437
G01 X-43.2826 Y-0.2502
G01 X-43.1993 Y-0.2571
G01 X-43.1600 Y-0.2591
G01 X-43.0913 Y-0.2605
G01 X-9.3040 Y-0.2605
G01 X-9.2353 Y-0.2591
G01 X-9.1961 Y-0.2571
G01 X-9.1471 Y-0.2535
G01 X-9.1080 Y-0.2497
G01 X-9.0593 Y-0.2437
G01 X-9.0204 Y-0.2379
G01 X-8.9720 Y-0.2295
G01 X-8.9335 Y-0.2218
G01 X-8.8856 Y-0.2111
G01 X-8.8475 Y-0.2015
G01 X-8.8002 Y-0.1884
G01 X-8.7626 Y-0.1770
G01 X-8.7160 Y-0.1616
G01 X-8.6790 Y-0.1484
G01 X-8.6240 Y-0.1271
G01 X-8.5520 Y-0.0958
G01 X-8.5185 Y-0.0800
G01 X-8.4727 Y-0.0569
G01 X-8.4380 Y-0.0384
G01 X-8.3953 Y-0.0142
G01 X-8.3616 Y0.0060
G01 X-8.3202 Y0.0322
G01 X-8.2875 Y0.0540
G01 X-8.2280 Y0.0964
G01 X-8.1771 Y0.1359
G01 X-8.1468 Y0.1608
G01 X-8.1096 Y0.1929
G01 X-8.0805 Y0.2193
G01 X-8.0309 Y0.2669
G01 X-4.7482 Y3.5495
G01 X-2.7400 Y3.5495
G01 X-2.6713 Y3.5509
G01 X-2.6321 Y3.5529
G01 X-2.5831 Y3.5565
G01 X-2.5440 Y3.5603
G01 X-2.4953 Y3.5663
G01 X-2.4564 Y3.5721
G01 X-2.4080 Y3.5805
G01 X-2.3695 Y3.5882
G01 X-2.3216 Y3.5989
G01 X-2.2835 Y3.6085
G01 X-2.2362 Y3.6216
G01 X-2.1986 Y3.6330
G01 X-2.1520 Y3.6484
G01 X-2.1150 Y3.6616
G01 X-2.0600 Y3.6829
G01 X-2.0329 Y3.6943
G01 X-1.9545 Y3.7300
G01 X-1.9087 Y3.7531
G01 X-1.8740 Y3.7716
G01 X-1.8313 Y3.7958
G01 X-1.7906 Y3.8204
G01 X-1.7658 Y3.8269
G01 X-1.7303 Y3.8380
G01 X-1.6954 Y3.8506
G01 X-1.6611 Y3.8649
G01 X-1.6257 Y3.8817
G01 X-1.5912 Y3.9002
G01 X-1.5576 Y3.9204
G01 X-1.5251 Y3.9421
G01 X-1.4936 Y3.9655
G01 X-1.4633 Y3.9903
G01 X-1.4343 Y4.0166
G01 X-1.4066 Y4.0443
G01 X-1.3803 Y4.0733
G01 X-1.3555 Y4.1036
G01 X-1.3321 Y4.1351
G01 X-1.3104 Y4.1676
G01 X-1.2902 Y4.2012
G01 X-1.2717 Y4.2357
G01 X-1.2550 Y4.2711
G01 X-1.2406 Y4.3054
G01 X-1.2280 Y4.3403
G01 X-1.2169 Y4.3758
G01 X-1.2104 Y4.4006
G01 X-1.1858 Y4.4413
G01 X-1.1616 Y4.4840
G01 X-1.1431 Y4.5187
G01 X-1.1200 Y4.5645
G01 X-1.0843 Y4.6429
G01 X-1.0729 Y4.6700
G01 X-1.0516 Y4.7250
G01 X-1.0384 Y4.7620
G01 X-1.0230 Y4.8086
G01 X-1.0116 Y4.8462
G01 X-0.9985 Y4.8935
G01 X-0.9889 Y4.9316
G01 X-0.9743 Y4.9979
G01 X-0.9621 Y5.0664
G01 X-0.9563 Y5.1053
G01 X-0.9498 Y5.1587
G01 X-0.9465 Y5.1931
G01 X-0.9429 Y5.2421
G01 X-0.9409 Y5.2813
G01 X-0.9395 Y5.3500
G01 X-0.9409 Y5.4187
G01 X-0.9429 Y5.4579
G01 X-0.9465 Y5.5069
G01 X-0.9503 Y5.5460
G01 X-0.9563 Y5.5947
G01 X-0.9621 Y5.6336
G01 X-0.9743 Y5.7021
G01 X-0.9889 Y5.7684
G01 X-0.9985 Y5.8065
G01 X-1.0116 Y5.8538
G01 X-1.0230 Y5.8914
G01 X-1.0384 Y5.9380
G01 X-1.0516 Y5.9750
G01 X-1.0729 Y6.0300
G01 X-1.0843 Y6.0571
G01 X-1.1200 Y6.1355
G01 X-1.1431 Y6.1813
G01 X-1.1616 Y6.2160
G01 X-1.1858 Y6.2587
G01 X-1.2104 Y6.2994
G01 X-1.2169 Y6.3242
G01 X-1.2280 Y6.3597
G01 X-1.2406 Y6.3946
G01 X-1.2550 Y6.4289
G01 X-1.2717 Y6.4643
G01 X-1.2902 Y6.4988
G01 X-1.3104 Y6.5324
G01 X-1.3321 Y6.5649
G01 X-1.3555 Y6.5964
G01 X-1.3803 Y6.6267
G01 X-1.4066 Y6.6557
G01 X-1.4343 Y6.6834
G01 X-1.4633 Y6.7097
G01 X-1.4936 Y6.7345
G01 X-1.5251 Y6.7579
G01 X-1.5576 Y6.7796
G01 X-1.5912 Y6.7998
G01 X-1.6257 Y6.8183
G01 X-1.6611 Y6.8350
G01 X-1.6954 Y6.8494
G01 X-1.7303 Y6.8620
G01 X-1.7658 Y6.8731
G01 X-1.7906 Y6.8796
G01 X-1.8313 Y6.9042
G01 X-1.8740 Y6.9284
G01 X-1.9087 Y6.9469
G01 X-1.9545 Y6.9700
G01 X-1.9880 Y6.9858
G01 X-2.0600 Y7.0171
G01 X-2.1150 Y7.0384
G01 X-2.1520 Y7.0516
G01 X-2.1986 Y7.0670
G01 X-2.2362 Y7.0784
G01 X-2.2835 Y7.0915
G01 X-2.3216 Y7.1011
G01 X-2.3695 Y7.1118
G01 X-2.4080 Y7.1195
G01 X-2.4564 Y7.1279
G01 X-2.4953 Y7.1337
G01 X-2.5440 Y7.1397
G01 X-2.5831 Y7.1435
G01 X-2.6321 Y7.1471
G01 X-2.6713 Y7.1491
G01 X-2.7400 Y7.1505
G01 X-5.4940 Y7.1505
G01 X-5.5627 Y7.1491
G01 X-5.6019 Y7.1471
G01 X-5.6509 Y7.1435
G01 X-5.6900 Y7.1397
G01 X-5.7387 Y7.1337
G01 X-5.7776 Y7.1279
G01 X-5.8260 Y7.1195
G01 X-5.8645 Y7.1118
G01 X-5.9124 Y7.1011
G01 X-5.9505 Y7.0915
G01 X-5.9978 Y7.0784
G01 X-6.0354 Y7.0670
G01 X-6.0820 Y7.0516
G01 X-6.1190 Y7.0384
G01 X-6.1648 Y7.0207
G01 X-6.2011 Y7.0057
G01 X-6.2795 Y6.9700
G01 X-6.3253 Y6.9469
G01 X-6.3600 Y6.9284
G01 X-6.4027 Y6.9042
G01 X-6.4364 Y6.8840
G01 X-6.4778 Y6.8578
G01 X-6.5105 Y6.8360
G01 X-6.5700 Y6.7936
G01 X-6.6209 Y6.7541
G01 X-6.6512 Y6.7292
G01 X-6.6884 Y6.6971
G01 X-6.7175 Y6.6707
G01 X-6.7671 Y6.6231
G01 X-10.0498 Y3.3405
G01 X-42.3455 Y3.3405
G01 X-44.2254 Y5.2203
G01 X-44.1911 Y5.2658
G01 X-44.1487 Y5.3260
G01 X-44.1269 Y5.3586
G01 X-44.0855 Y5.4241
G01 X-44.0673 Y5.4545
G01 X-44.0310 Y5.5186
G01 X-44.0125 Y5.5532
G01 X-43.9785 Y5.6209
G01 X-43.9626 Y5.6545
G01 X-43.9214 Y5.7489
G01 X-43.8913 Y5.8267
G01 X-43.8781 Y5.8637
G01 X-43.8550 Y5.9336
G01 X-43.8436 Y5.9712
G01 X-43.8239 Y6.0422
G01 X-43.8144 Y6.0802
G01 X-43.7944 Y6.1705
G01 X-43.7780 Y6.2631
G01 X-43.7723 Y6.3020
G01 X-43.7632 Y6.3750
G01 X-43.7594 Y6.4141
G01 X-43.7540 Y6.4875
G01 X-43.7520 Y6.5268
G01 X-43.7502 Y6.6004
G01 X-43.7502 Y6.6396
G01 X-43.7520 Y6.7132
G01 X-43.7540 Y6.7525
G01 X-43.7594 Y6.8259
G01 X-43.7632 Y6.8650
G01 X-43.7723 Y6.9380
G01 X-43.7780 Y6.9769
G01 X-43.7906 Y7.0494
G01 X-43.7983 Y7.0879
G01 X-43.8144 Y7.1598
G01 X-43.8239 Y7.1978
G01 X-43.8436 Y7.2688
G01 X-43.8550 Y7.3064
G01 X-43.8781 Y7.3763
G01 X-43.8913 Y7.4133
G01 X-43.9214 Y7.4911
G01 X-43.9626 Y7.5855
G01 X-43.9785 Y7.6191
G01 X-44.0125 Y7.6868
G01 X-44.0310 Y7.7214
G01 X-44.0673 Y7.7855
G01 X-44.0875 Y7.8192
G01 X-44.1269 Y7.8814
G01 X-44.1487 Y7.9140
G01 X-44.2052 Y7.9935
G01 X-44.2598 Y8.0638
G01 X-44.2847 Y8.0941
G01 X-44.3328 Y8.1499
G01 X-44.3592 Y8.1790
G01 X-44.4237 Y8.2464
G01 X-44.4910 Y8.3108
G01 X-44.5201 Y8.3372
G01 X-44.5796 Y8.3885
G01 X-44.6062 Y8.4102
G01 X-44.6765 Y8.4648
G01 X-44.7560 Y8.5213
G01 X-44.7886 Y8.5431
G01 X-44.8541 Y8.5845
G01 X-44.8845 Y8.6027
G01 X-44.9486 Y8.6390
G01 X-44.9832 Y8.6575
G01 X-45.0509 Y8.6915
G01 X-45.0845 Y8.7074
G01 X-45.1518 Y8.7372
G01 X-45.1789 Y8.7486
G01 X-45.2567 Y8.7787
G01 X-45.2937 Y8.7919
G01 X-45.3636 Y8.8150
G01 X-45.4012 Y8.8264
G01 X-45.4722 Y8.8461
G01 X-45.5102 Y8.8556
G01 X-45.5821 Y8.8717
G01 X-45.6206 Y8.8794
G01 X-45.6931 Y8.8920
G01 X-45.7320 Y8.8977
G01 X-45.8097 Y8.9073
G01 X-45.8441 Y8.9106
G01 X-45.9175 Y8.9160
G01 X-45.9568 Y8.9180
G01 X-46.0500 Y8.9200
G01 X-46.1432 Y8.9180
G01 X-46.1825 Y8.9160
G01 X-46.2559 Y8.9106
G01 X-46.2950 Y8.9068
G01 X-46.3680 Y8.8977
G01 X-46.4069 Y8.8920
G01 X-46.4995 Y8.8756
G01 X-46.5898 Y8.8556
G01 X-46.6278 Y8.8461
G01 X-46.6988 Y8.8264
G01 X-46.7364 Y8.8150
G01 X-46.8063 Y8.7919
G01 X-46.8433 Y8.7787
G01 X-46.9211 Y8.7486
G01 X-47.0155 Y8.7074
G01 X-47.0491 Y8.6915
G01 X-47.1168 Y8.6575
G01 X-47.1514 Y8.6390
G01 X-47.2155 Y8.6027
G01 X-47.2492 Y8.5825
G01 X-47.3114 Y8.5431
G01 X-47.3440 Y8.5213
G01 X-47.4235 Y8.4648
G01 X-47.4938 Y8.4102
G01 X-47.5241 Y8.3853
G01 X-47.5799 Y8.3372
G01 X-47.6090 Y8.3108
G01 X-47.6623 Y8.2601
G01 X-47.6901 Y8.2323
G01 X-47.7408 Y8.1790
G01 X-47.7672 Y8.1499
G01 X-47.8185 Y8.0904
G01 X-47.8402 Y8.0638
G01 X-47.8948 Y7.9936
G01 X-47.9513 Y7.9140
G01 X-47.9731 Y7.8814
G01 X-48.0145 Y7.8159
G01 X-48.0327 Y7.7855
G01 X-48.0690 Y7.7214
G01 X-48.0875 Y7.6868
G01 X-48.1215 Y7.6191
G01 X-48.1374 Y7.5855
G01 X-48.1672 Y7.5182
G01 X-48.1786 Y7.4912
G01 X-48.2087 Y7.4133
G01 X-48.2219 Y7.3763
G01 X-48.2450 Y7.3064
G01 X-48.2564 Y7.2688
G01 X-48.2761 Y7.1978
G01 X-48.2856 Y7.1598
G01 X-48.3017 Y7.0879
G01 X-48.3094 Y7.0494
G01 X-48.3220 Y6.9769
G01 X-48.3277 Y6.9380
G01 X-48.3373 Y6.8603
G01 X-48.3406 Y6.8259
G01 X-48.3460 Y6.7525
G01 X-48.3480 Y6.7132
G01 X-48.3498 Y6.6396
G01 X-48.3498 Y6.6004
G01 X-48.3476 Y6.5268
G00 Z1.0000
G00 X-69.9376 Y6.5268
G01 F76.20
G01 Z-0.1000
G01 F200.00
G01 X-69.9360 Y6.4875
G01 X-69.9306 Y6.4141
G01 X-69.9268 Y6.3750
G01 X-69.9177 Y6.3020
G01 X-69.9120 Y6.2631
G01 X-69.8956 Y6.1705
G01 X-69.8756 Y6.0802
G01 X-69.8661 Y6.0422
G01 X-69.8464 Y5.9712
G01 X-69.8350 Y5.9336
G01 X-69.8119 Y5.8637
G01 X-69.7987 Y5.8267
G01 X-69.7686 Y5.7488
G01 X-69.7572 Y5.7218
G01 X-69.7274 Y5.6545
G01 X-69.7115 Y5.6209
G01 X-69.6775 Y5.5532
G01 X-69.6590 Y5.5186
G01 X-69.6227 Y5.4545
G01 X-69.6025 Y5.4208
G01 X-69.5631 Y5.3586
G01 X-69.5413 Y5.3260
G01 X-69.4989 Y5.2658
G01 X-69.4755 Y5.2343
G01 X-69.4302 Y5.1762
G01 X-69.4053 Y5.1459
G01 X-69.3572 Y5.0901
G01 X-69.3308 Y5.0610
G01 X-69.2801 Y5.0077
G01 X-69.2523 Y4.9799
G01 X-69.1990 Y4.9292
G01 X-69.1699 Y4.9028
G01 X-69.1104 Y4.8515
G01 X-69.0838 Y4.8298
G01 X-69.0136 Y4.7752
G01 X-68.9340 Y4.7187
G01 X-68.9014 Y4.6969
G01 X-68.8359 Y4.6555
G01 X-68.8055 Y4.6373
G01 X-68.7414 Y4.6010
G01 X-68.7068 Y4.5825
G01 X-68.6391 Y4.5485
G01 X-68.6055 Y4.5326
G01 X-68.5382 Y4.5028
G01 X-68.5111 Y4.4914
G01 X-68.4333 Y4.4613
G01 X-68.3963 Y4.4481
G01 X-68.3264 Y4.4250
G01 X-68.2888 Y4.4136
G01 X-68.2178 Y4.3939
G01 X-68.1798 Y4.3844
G01 X-68.1079 Y4.3683
G01 X-68.0694 Y4.3606
G01 X-67.9969 Y4.3480
G01 X-67.9580 Y4.3423
G01 X-67.8803 Y4.3327
G01 X-67.8459 Y4.3294
G01 X-67.7725 Y4.3240
G01 X-67.7332 Y4.3220
G01 X-67.6400 Y4.3200
G01 X-67.5468 Y4.3220
G01 X-67.5075 Y4.3240
G01 X-67.4341 Y4.3294
G01 X-67.3950 Y4.3332
G01 X-67.3220 Y4.3423
G01 X-67.2831 Y4.3480
G01 X-67.1905 Y4.3644
G01 X-67.1002 Y4.3844
G01 X-67.0622 Y4.3939
G01 X-66.9912 Y4.4136
G01 X-66.9536 Y4.4250
G01 X-66.8837 Y4.4481
G01 X-66.8467 Y4.4613
G01 X-66.7689 Y4.4914
G01 X-66.6745 Y4.5326
G01 X-66.6409 Y4.5485
G01 X-66.5732 Y4.5825
G01 X-66.5386 Y4.6010
G01 X-66.4745 Y4.6373
G01 X-66.4408 Y4.6575
G01 X-66.3786 Y4.6969
G01 X-66.3460 Y4.7187
G01 X-66.2664 Y4.7752
G01 X-66.1962 Y4.8298
G01 X-66.1659 Y4.8547
G01 X-66.1101 Y4.9028
G01 X-66.0810 Y4.9292
G01 X-66.0277 Y4.9799
G01 X-65.9999 Y5.0077
G01 X-65.9492 Y5.0610
G01 X-65.9228 Y5.0901
G01 X-65.8715 Y5.1496
G01 X-65.8498 Y5.1762
G01 X-65.8045 Y5.2343
G01 X-65.7811 Y5.2658
G01 X-65.7387 Y5.3260
G01 X-65.7169 Y5.3586
G01 X-65.6755 Y5.4241
G01 X-65.6573 Y5.4545
G01 X-65.6210 Y5.5186
G01 X-65.6025 Y5.5532
G01 X-65.5685 Y5.6209
G01 X-65.5526 Y5.6545
G01 X-65.5114 Y5.7489
G01 X-65.4813 Y5.8267
G01 X-65.4681 Y5.8637
G01 X-65.4450 Y5.9336
G01 X-65.4336 Y5.9712
G01 X-65.4139 Y6.0422
G01 X-65.4044 Y6.0802
G01 X-65.3883 Y6.1521
G01 X-65.3806 Y6.1906
G01 X-65.3680 Y6.2631
G01 X-65.3623 Y6.3020
G01 X-65.3553 Y6.3584
G01 X-55.4642 Y16.2495
G01 X-53.2705 Y16.2495
G01 X-53.2373 Y16.2338
G01 X-53.1563 Y16.1986
G01 X-53.0922 Y16.1738
G01 X-53.0552 Y16.1605
G01 X-52.9993 Y16.1420
G01 X-52.9617 Y16.1307
G01 X-52.9049 Y16.1149
G01 X-52.8669 Y16.1054
G01 X-52.8094 Y16.0925
G01 X-52.7709 Y16.0848
G01 X-52.7128 Y16.0748
G01 X-52.6740 Y16.0690
G01 X-52.6109 Y16.0612
G01 X-52.5177 Y16.0536
G01 X-52.4785 Y16.0517
G01 X-52.4196 Y16.0502
G01 X-52.3804 Y16.0502
G01 X-52.3215 Y16.0517
G01 X-52.2823 Y16.0536
G01 X-52.2235 Y16.0579
G01 X-52.1845 Y16.0618
G01 X-52.1260 Y16.0690
G01 X-52.0872 Y16.0748
G01 X-52.0090 Y16.0886
G01 X-51.9331 Y16.1054
G01 X-51.8951 Y16.1149
G01 X-51.8383 Y16.1307
G01 X-51.8007 Y16.1420
G01 X-51.7448 Y16.1605
G01 X-51.7078 Y16.1738
G01 X-51.6437 Y16.1986
G01 X-51.6166 Y16.2100
G01 X-51.5627 Y16.2338
G01 X-51.5292 Y16.2497
G01 X-51.4746 Y16.2771
G01 X-51.4400 Y16.2956
G01 X-51.3888 Y16.3247
G01 X-51.3551 Y16.3448
G01 X-51.3053 Y16.3764
G01 X-51.2727 Y16.3982
G01 X-51.2245 Y16.4321
G01 X-51.1930 Y16.4555
G01 X-51.1465 Y16.4917
G01 X-51.1162 Y16.5166
G01 X-51.0716 Y16.5551
G01 X-51.0425 Y16.5815
G01 X-50.9858 Y16.6358
G01 X-50.9315 Y16.6925
G01 X-50.9051 Y16.7216
G01 X-50.8634 Y16.7699
G01 X-50.8417 Y16.7965
G01 X-50.7961 Y16.8552
G01 X-50.7482 Y16.9227
G01 X-50.7264 Y16.9553
G01 X-50.6928 Y17.0083
G01 X-50.6456 Y17.0900
G01 X-50.6271 Y17.1246
G01 X-50.5997 Y17.1792
G01 X-50.5838 Y17.2127
G01 X-50.5486 Y17.2937
G01 X-50.5238 Y17.3578
G01 X-50.5105 Y17.3948
G01 X-50.4920 Y17.4507
G01 X-50.4807 Y17.4883
G01 X-50.4649 Y17.5451
G01 X-50.4554 Y17.5831
G01 X-50.4425 Y17.6406
G01 X-50.4348 Y17.6791
G01 X-50.4248 Y17.7372
G01 X-50.4190 Y17.7760
G01 X-50.4112 Y17.8391
G01 X-50.4079 Y17.8735
G01 X-50.4036 Y17.9323
G01 X-50.4017 Y17.9715
G01 X-50.4000 Y18.0500
G01 X-50.4017 Y18.1285
G01 X-50.4036 Y18.1677
G01 X-50.4079 Y18.2265
G01 X-50.4112 Y18.2609
G01 X-50.4190 Y18.3240
G01 X-50.4248 Y18.3628
G01 X-50.4348 Y18.4209
G01 X-50.4425 Y18.4594
G01 X-50.4554 Y18.5169
G01 X-50.4649 Y18.5549
G01 X-50.4807 Y18.6117
G01 X-50.4920 Y18.6493
G01 X-50.5105 Y18.7052
G01 X-50.5238 Y18.7422
G01 X-50.5486 Y18.8063
G01 X-50.5838 Y18.8873
G01 X-50.5997 Y18.9208
G01 X-50.6271 Y18.9754
G01 X-50.6456 Y19.0100
G01 X-50.6747 Y19.0612
G01 X-50.6948 Y19.0949
G01 X-50.7264 Y19.1447
G01 X-50.7482 Y19.1773
G01 X-50.7961 Y19.2448
G01 X-50.8417 Y19.3035
G01 X-50.8666 Y19.3338
G01 X-50.9051 Y19.3784
G01 X-50.9315 Y19.4075
G01 X-50.9858 Y19.4642
G01 X-51.0425 Y19.5185
G01 X-51.0716 Y19.5449
G01 X-51.1199 Y19.5866
G01 X-51.1465 Y19.6083
G01 X-51.2052 Y19.6538
G01 X-51.2727 Y19.7018
G01 X-51.3053 Y19.7236
G01 X-51.3583 Y19.7572
G01 X-51.3888 Y19.7753
G01 X-51.4400 Y19.8044
G01 X-51.4746 Y19.8229
G01 X-51.5292 Y19.8503
G01 X-51.5627 Y19.8662
G01 X-51.6166 Y19.8900
G01 X-51.6437 Y19.9014
G01 X-51.7078 Y19.9262
G01 X-51.7448 Y19.9395
G01 X-51.8007 Y19.9580
G01 X-51.8383 Y19.9693
G01 X-51.8951 Y19.9851
G01 X-51.9331 Y19.9946
G01 X-51.9906 Y20.0075
G01 X-52.0291 Y20.0152
G01 X-52.0872 Y20.0252
G01 X-52.1260 Y20.0310
G01 X-52.1891 Y20.0388
G01 X-52.2823 Y20.0464
G01 X-52.3215 Y20.0483
G01 X-52.4000 Y20.0500
G01 X-52.4785 Y20.0483
G01 X-52.5177 Y20.0464
G01 X-52.5765 Y20.0421
G01 X-52.6155 Y20.0382
G01 X-52.6740 Y20.0310
G01 X-52.7128 Y20.0252
G01 X-52.7910 Y20.0114
G01 X-52.8669 Y19.9946
G01 X-52.9049 Y19.9851
G01 X-52.9617 Y19.9693
G01 X-52.9993 Y19.9580
G01 X-53.0552 Y19.9395
G01 X-53.0922 Y19.9262
G01 X-53.1563 Y19.9014
G01 X-53.2373 Y19.8662
G01 X-53.2705 Y19.8505
G01 X-56.2100 Y19.8505
G01 X-56.2787 Y19.8491
G01 X-56.3179 Y19.8471
G01 X-56.3669 Y19.8435
G01 X-56.4060 Y19.8397
G01 X-56.4547 Y19.8337
G01 X-56.4936 Y19.8279
G01 X-56.5420 Y19.8195
G01 X-56.5805 Y19.8118
G01 X-56.6284 Y19.8011
G01 X-56.6665 Y19.7915
G01 X-56.7138 Y19.7784
G01 X-56.7514 Y19.7670
G01 X-56.7980 Y19.7516
G01 X-56.8350 Y19.7384
G01 X-56.8900 Y19.7171
G01 X-56.9171 Y19.7057
G01 X-56.9955 Y19.6700
G01 X-57.0413 Y19.6469
G01 X-57.0760 Y19.6284
G01 X-57.1187 Y19.6042
G01 X-57.1524 Y19.5840
G01 X-57.1938 Y19.5578
G01 X-57.2265 Y19.5360
G01 X-57.2666 Y19.5077
G01 X-57.2860 Y19.4936
G01 X-57.3369 Y19.4541
G01 X-57.3672 Y19.4292
G01 X-57.4044 Y19.3971
G01 X-57.4335 Y19.3707
G01 X-57.4831 Y19.3231
G01 X-67.9016 Y8.9047
G01 X-67.9580 Y8.8977
G01 X-67.9969 Y8.8920
G01 X-68.0895 Y8.8756
G01 X-68.1798 Y8.8556
G01 X-68.2178 Y8.8461
G01 X-68.2888 Y8.8264
G01 X-68.3264 Y8.8150
G01 X-68.3963 Y8.7919
G01 X-68.4333 Y8.7787
G01 X-68.5111 Y8.7486
G01 X-68.5382 Y8.7372
G01 X-68.6055 Y8.7074
G01 X-68.6391 Y8.6915
G01 X-68.7068 Y8.6575
G01 X-68.7414 Y8.6390
G01 X-68.8055 Y8.6027
G01 X-68.8392 Y8.5825
G01 X-68.9014 Y8.5431
G01 X-68.9340 Y8.5213
G01 X-68.9942 Y8.4789
G01 X-69.0257 Y8.4555
G01 X-69.0838 Y8.4102
G01 X-69.1141 Y8.3853
G01 X-69.1699 Y8.3372
G01 X-69.1990 Y8.3108
G01 X-69.2664 Y8.2463
G01 X-69.3308 Y8.1790
G01 X-69.3572 Y8.1499
G01 X-69.4085 Y8.0904
G01 X-69.4302 Y8.0638
G01 X-69.4848 Y7.9936
G01 X-69.5413 Y7.9140
G01 X-69.5631 Y7.8814
G01 X-69.6045 Y7.8159
G01 X-69.6227 Y7.7855
G01 X-69.6590 Y7.7214
G01 X-69.6775 Y7.6868
G01 X-69.7115 Y7.6191
G01 X-69.7274 Y7.5855
G01 X-69.7572 Y7.5182
G01 X-69.7722 Y7.4819
G01 X-69.7987 Y7.4133
G01 X-69.8119 Y7.3763
G01 X-69.8350 Y7.3064
G01 X-69.8464 Y7.2688
G01 X-69.8661 Y7.1978
G01 X-69.8756 Y7.1598
G01 X-69.8956 Y7.0695
G01 X-69.9120 Y6.9769
G01 X-69.9177 Y6.9380
G01 X-69.9273 Y6.8603
G01 X-69.9306 Y6.8259
G01 X-69.9360 Y6.7525
G01 X-69.9380 Y6.7132
G01 X-69.9400 Y6.6200
G01 X-69.9376 Y6.5268
G00 Z1.0000
G00 X-79.5987 Y8.1313
G01 F76.20
G01 Z-0.1000
G01 F200.00
G01 X-79.5971 Y8.0921
G01 X-79.5935 Y8.0431
G01 X-79.5897 Y8.0040
G01 X-79.5837 Y7.9553
G01 X-79.5779 Y7.9164
G01 X-79.5657 Y7.8479
G01 X-79.5511 Y7.7816
G01 X-79.5415 Y7.7435
G01 X-79.5284 Y7.6962
G01 X-79.5170 Y7.6586
G01 X-79.5016 Y7.6120
G01 X-79.4884 Y7.5750
G01 X-79.4707 Y7.5292
G01 X-79.4557 Y7.4929
G01 X-79.4200 Y7.4145
G01 X-79.3969 Y7.3687
G01 X-79.3784 Y7.3340
G01 X-79.3542 Y7.2913
G01 X-79.3340 Y7.2576
G01 X-79.3078 Y7.2162
G01 X-79.2860 Y7.1835
G01 X-79.2577 Y7.1434
G01 X-79.2343 Y7.1118
G01 X-79.2041 Y7.0731
G01 X-79.1792 Y7.0428
G01 X-79.1471 Y7.0056
G01 X-79.1207 Y6.9765
G01 X-79.0731 Y6.9269
G01 X-77.4931 Y5.3469
G01 X-77.4435 Y5.2993
G01 X-77.4144 Y5.2729
G01 X-77.3735 Y5.2376
G01 X-77.3469 Y5.2159
G01 X-77.2960 Y5.1764
G01 X-77.2365 Y5.1340
G01 X-77.2038 Y5.1122
G01 X-77.1591 Y5.0839
G01 X-77.1287 Y5.0658
G01 X-77.0860 Y5.0416
G01 X-77.0513 Y5.0231
G01 X-77.0055 Y5.0000
G01 X-76.9271 Y4.9643
G01 X-76.8908 Y4.9493
G01 X-76.8450 Y4.9316
G01 X-76.8080 Y4.9184
G01 X-76.7614 Y4.9030
G01 X-76.7238 Y4.8916
G01 X-76.6765 Y4.8785
G01 X-76.6384 Y4.8689
G01 X-76.5721 Y4.8543
G01 X-76.5036 Y4.8421
G01 X-76.4647 Y4.8363
G01 X-76.4160 Y4.8303
G01 X-76.3769 Y4.8265
G01 X-76.3279 Y4.8229
G01 X-76.2887 Y4.8209
G01 X-76.2396 Y4.8197
G01 X-74.9612 Y4.8195
G01 X-74.9510 Y4.7950
G01 X-74.9343 Y4.7597
G01 X-74.9158 Y4.7251
G01 X-74.8956 Y4.6916
G01 X-74.8738 Y4.6590
G01 X-74.8505 Y4.6276
G01 X-74.8257 Y4.5973
G01 X-74.7994 Y4.5683
G01 X-74.7717 Y4.5406
G01 X-74.7427 Y4.5143
G01 X-74.7124 Y4.4895
G01 X-74.6810 Y4.4661
G01 X-74.6484 Y4.4444
G01 X-74.6148 Y4.4242
G01 X-74.5803 Y4.4057
G01 X-74.5449 Y4.3890
G01 X-74.5205 Y4.3788
G01 X-74.5205 Y3.1200
G01 X-74.5191 Y3.0513
G01 X-74.5171 Y3.0121
G01 X-74.5135 Y2.9631
G01 X-74.5097 Y2.9240
G01 X-74.5037 Y2.8753
G01 X-74.4979 Y2.8364
G01 X-74.4857 Y2.7679
G01 X-74.4711 Y2.7016
G01 X-74.4615 Y2.6635
G01 X-74.4484 Y2.6162
G01 X-74.4370 Y2.5786
G01 X-74.4216 Y2.5320
G01 X-74.4084 Y2.4950
G01 X-74.3871 Y2.4400
G01 X-74.3757 Y2.4129
G01 X-74.3400 Y2.3344
G01 X-74.3169 Y2.2887
G01 X-74.2984 Y2.2540
G01 X-74.2742 Y2.2113
G01 X-74.2540 Y2.1776
G01 X-74.2278 Y2.1362
G01 X-74.2060 Y2.1035
G01 X-74.1777 Y2.0634
G01 X-74.1636 Y2.0440
G01 X-74.1241 Y1.9931
G01 X-74.0992 Y1.9628
G01 X-74.0671 Y1.9256
G01 X-74.0407 Y1.8965
G01 X-74.0069 Y1.8609
G01 X-72.4131 Y0.2669
G01 X-72.3635 Y0.2193
G01 X-72.3344 Y0.1929
G01 X-72.2935 Y0.1576
G01 X-72.2669 Y0.1359
G01 X-72.2160 Y0.0964
G01 X-72.1565 Y0.0540
G01 X-72.1238 Y0.0322
G01 X-72.0791 Y0.0039
G01 X-72.0060 Y-0.0384
G01 X-71.9713 Y-0.0569
G01 X-71.9256 Y-0.0800
G01 X-71.8920 Y-0.0958
G01 X-71.8200 Y-0.1271
G01 X-71.7650 Y-0.1484
G01 X-71.7280 Y-0.1616
G01 X-71.6814 Y-0.1770
G01 X-71.6438 Y-0.1884
G01 X-71.5965 Y-0.2015
G01 X-71.5584 Y-0.2111
G01 X-71.4921 Y-0.2257
G01 X-71.4236 Y-0.2379
G01 X-71.3847 Y-0.2437
G01 X-71.3313 Y-0.2502
G01 X-71.2479 Y-0.2571
G01 X-71.2087 Y-0.2591
G01 X-71.1400 Y-0.2605
G01 X-52.7100 Y-0.2605
G01 X-52.6413 Y-0.2591
G01 X-52.6021 Y-0.2571
G01 X-52.5531 Y-0.2535
G01 X-52.5140 Y-0.2497
G01 X-52.4653 Y-0.2437
G01 X-52.4264 Y-0.2379
G01 X-52.3780 Y-0.2295
G01 X-52.3395 Y-0.2218
G01 X-52.2916 Y-0.2111
G01 X-52.2535 Y-0.2015
G01 X-52.2062 Y-0.1884
G01 X-52.1686 Y-0.1770
G01 X-52.1220 Y-0.1616
G01 X-52.0850 Y-0.1484
G01 X-52.0392 Y-0.1307
G01 X-52.0029 Y-0.1157
G01 X-51.9245 Y-0.0800
G01 X-51.8787 Y-0.0569
G01 X-51.8440 Y-0.0384
G01 X-51.8013 Y-0.0142
G01 X-51.7676 Y0.0060
G01 X-51.7262 Y0.0322
G01 X-51.6935 Y0.0540
G01 X-51.6340 Y0.0964
G01 X-51.5831 Y0.1359
G01 X-51.5528 Y0.1608
G01 X-51.5156 Y0.1929
G01 X-51.4865 Y0.2193
G01 X-51.4369 Y0.2669
G01 X-49.8569 Y1.8469
G01 X-49.8093 Y1.8965
G01 X-49.7829 Y1.9256
G01 X-49.7508 Y1.9628
G01 X-49.7259 Y1.9931
G01 X-49.6864 Y2.0440
G01 X-49.6723 Y2.0634
G01 X-49.6440 Y2.1035
G01 X-49.6222 Y2.1362
G01 X-49.5939 Y2.1809
G01 X-49.5758 Y2.2113
G01 X-49.5516 Y2.2540
G01 X-49.5331 Y2.2887
G01 X-49.5100 Y2.3345
G01 X-49.4942 Y2.3680
G01 X-49.4629 Y2.4400
G01 X-49.4416 Y2.4950
G01 X-49.4284 Y2.5320
G01 X-49.4130 Y2.5786
G01 X-49.4016 Y2.6162
G01 X-49.3885 Y2.6635
G01 X-49.3789 Y2.7016
G01 X-49.3643 Y2.7679
G01 X-49.3521 Y2.8364
G01 X-49.3463 Y2.8753
G01 X-49.3398 Y2.9287
G01 X-49.3329 Y3.0121
G01 X-49.3309 Y3.0513
G01 X-49.3295 Y3.1200
G01 X-49.3295 Y4.3788
G01 X-49.3051 Y4.3889
G01 X-49.2697 Y4.4057
G01 X-49.2352 Y4.4242
G01 X-49.2016 Y4.4444
G01 X-49.1691 Y4.4661
G01 X-49.1376 Y4.4895
G01 X-49.1073 Y4.5143
G01 X-49.0783 Y4.5406
G01 X-49.0506 Y4.5683
G01 X-49.0243 Y4.5973
G01 X-48.9995 Y4.6276
G01 X-48.9761 Y4.6591
G01 X-48.9544 Y4.6916
G01 X-48.9342 Y4.7252
G01 X-48.9157 Y4.7597
G01 X-48.8989 Y4.7951
G01 X-48.8846 Y4.8294
G01 X-48.8719 Y4.8643
G01 X-48.8609 Y4.8998
G01 X-48.8515 Y4.9358
G01 X-48.8438 Y4.9722
G01 X-48.8378 Y5.0088
G01 X-48.8335 Y5.0458
G01 X-48.8309 Y5.0828
G01 X-48.8300 Y5.1200
G01 X-48.8300 Y8.1200
G01 X-48.8309 Y8.1572
G01 X-48.8335 Y8.1942
G01 X-48.8378 Y8.2312
G01 X-48.8438 Y8.2678
G01 X-48.8515 Y8.3042
G01 X-48.8609 Y8.3402
G01 X-48.8719 Y8.3757
G01 X-48.8846 Y8.4106
G01 X-48.8989 Y8.4449
G01 X-48.9157 Y8.4803
G01 X-48.9342 Y8.5148
G01 X-48.9544 Y8.5484
G01 X-48.9761 Y8.5809
G01 X-48.9995 Y8.6124
G01 X-49.0243 Y8.6426
G01 X-49.0506 Y8.6717
G01 X-49.0783 Y8.6994
G01 X-49.1073 Y8.7257
G01 X-49.1376 Y8.7505
G01 X-49.1690 Y8.7739
G01 X-49.2016 Y8.7956
G01 X-49.2352 Y8.8158
G01 X-49.2697 Y8.8343
G01 X-49.3051 Y8.8510
G01 X-49.3394 Y8.8654
G01 X-49.3743 Y8.8780
G01 X-49.4098 Y8.8891
G01 X-49.4458 Y8.8985
G01 X-49.4822 Y8.9062
G01 X-49.5188 Y8.9122
G01 X-49.5558 Y8.9165
G01 X-49.5928 Y8.9191
G01 X-49.6300 Y8.9200
G01 X-52.6300 Y8.9200
G01 X-52.6672 Y8.9191
G01 X-52.7042 Y8.9165
G01 X-52.7412 Y8.9122
G01 X-52.7778 Y8.9062
G01 X-52.8142 Y8.8985
G01 X-52.8502 Y8.8891
G01 X-52.8856 Y8.8781
G01 X-52.9206 Y8.8654
G01 X-52.9549 Y8.8511
G01 X-52.9903 Y8.8343
G01 X-53.0248 Y8.8158
G01 X-53.0584 Y8.7956
G01 X-53.0909 Y8.7739
G01 X-53.1224 Y8.7505
G01 X-53.1527 Y8.7257
G01 X-53.1817 Y8.6994
G01 X-53.2094 Y8.6717
G01 X-53.2357 Y8.6427
G01 X-53.2605 Y8.6124
G01 X-53.2839 Y8.5809
G01 X-53.3056 Y8.5484
G01 X-53.3258 Y8.5148
G01 X-53.3443 Y8.4803
G01 X-53.3611 Y8.4449
G01 X-53.3754 Y8.4106
G01 X-53.3881 Y8.3756
G01 X-53.3991 Y8.3402
G01 X-53.4085 Y8.3042
G01 X-53.4162 Y8.2678
G01 X-53.4222 Y8.2312
G01 X-53.4265 Y8.1942
G01 X-53.4291 Y8.1572
G01 X-53.4300 Y8.1200
G01 X-53.4300 Y5.1200
G01 X-53.4291 Y5.0828
G01 X-53.4265 Y5.0458
G01 X-53.4222 Y5.0088
G01 X-53.4162 Y4.9722
G01 X-53.4085 Y4.9358
G01 X-53.3991 Y4.8998
G01 X-53.3880 Y4.8643
G01 X-53.3754 Y4.8294
G01 X-53.3611 Y4.7951
G01 X-53.3443 Y4.7597
G01 X-53.3258 Y4.7252
G01 X-53.3056 Y4.6916
G01 X-53.2839 Y4.6591
G01 X-53.2605 Y4.6276
G01 X-53.2357 Y4.5973
G01 X-53.2094 Y4.5683
G01 X-53.1817 Y4.5406
G01 X-53.1527 Y4.5143
G01 X-53.1224 Y4.4895
G01 X-53.0909 Y4.4661
G01 X-53.0584 Y4.4444
G01 X-53.0248 Y4.4242
G01 X-52.9903 Y4.4057
G01 X-52.9549 Y4.3889
G01 X-52.9305 Y4.3788
G01 X-52.9305 Y3.8658
G01 X-53.4558 Y3.3405
G01 X-70.3942 Y3.3405
G01 X-70.9195 Y3.8658
G01 X-70.9195 Y4.3788
G01 X-70.8951 Y4.3889
G01 X-70.8597 Y4.4057
G01 X-70.8252 Y4.4242
G01 X-70.7916 Y4.4444
G01 X-70.7591 Y4.4661
G01 X-70.7276 Y4.4895
G01 X-70.6973 Y4.5143
G01 X-70.6683 Y4.5407
G01 X-70.6406 Y4.5683
G01 X-70.6143 Y4.5974
G01 X-70.5895 Y4.6276
G01 X-70.5661 Y4.6591
G01 X-70.5443 Y4.6916
G01 X-70.5242 Y4.7252
G01 X-70.5057 Y4.7598
G01 X-70.4889 Y4.7951
G01 X-70.4746 Y4.8295
G01 X-70.4619 Y4.8644
G01 X-70.4509 Y4.8999
G01 X-70.4415 Y4.9358
G01 X-70.4338 Y4.9722
G01 X-70.4278 Y5.0089
G01 X-70.4235 Y5.0458
G01 X-70.4209 Y5.0828
G01 X-70.4200 Y5.1200
G01 X-70.4200 Y8.1200
G01 X-70.4209 Y8.1572
G01 X-70.4235 Y8.1942
G01 X-70.4278 Y8.2311
G01 X-70.4338 Y8.2678
G01 X-70.4415 Y8.3042
G01 X-70.4509 Y8.3401
G01 X-70.4619 Y8.3756
G01 X-70.4746 Y8.4106
G01 X-70.4889 Y8.4449
G01 X-70.5057 Y8.4803
G01 X-70.5242 Y8.5148
G01 X-70.5444 Y8.5484
G01 X-70.5661 Y8.5809
G01 X-70.5895 Y8.6124
G01 X-70.6143 Y8.6426
G01 X-70.6406 Y8.6717
G01 X-70.6683 Y8.6994
G01 X-70.6973 Y8.7257
G01 X-70.7276 Y8.7505
G01 X-70.7591 Y8.7739
G01 X-70.7916 Y8.7956
G01 X-70.8252 Y8.8158
G01 X-70.8597 Y8.8343
G01 X-70.8951 Y8.8511
G01 X-70.9294 Y8.8654
G01 X-70.9644 Y8.8781
G01 X-70.9998 Y8.8891
G01 X-71.0358 Y8.8985
G01 X-71.0722 Y8.9062
G01 X-71.1088 Y8.9122
G01 X-71.1458 Y8.9165
G01 X-71.1828 Y8.9191
G01 X-71.2200 Y8.9200
G01 X-74.2200 Y8.9200
G01 X-74.2572 Y8.9191
G01 X-74.2942 Y8.9165
G01 X-74.3312 Y8.9122
G01 X-74.3678 Y8.9062
G01 X-74.4042 Y8.8985
G01 X-74.4401 Y8.8891
G01 X-74.4756 Y8.8781
G01 X-74.5106 Y8.8654
G01 X-74.5449 Y8.8511
G01 X-74.5803 Y8.8343
G01 X-74.6148 Y8.8158
G01 X-74.6484 Y8.7956
G01 X-74.6809 Y8.7739
G01 X-74.7124 Y8.7505
G01 X-74.7427 Y8.7257
G01 X-74.7717 Y8.6994
G01 X-74.7994 Y8.6717
G01 X-74.8257 Y8.6427
G01 X-74.8505 Y8.6124
G01 X-74.8739 Y8.5809
G01 X-74.8956 Y8.5484
G01 X-74.9158 Y8.5148
G01 X-74.9343 Y8.4803
G01 X-74.9511 Y8.4449
G01 X-74.9612 Y8.4205
G01 X-75.4742 Y8.4205
G01 X-75.9995 Y8.9458
G01 X-75.9995 Y33.2762
G01 X-71.4362 Y37.8395
G01 X-67.8658 Y37.8395
G01 X-61.7531 Y31.7269
G01 X-61.7035 Y31.6793
G01 X-61.6744 Y31.6529
G01 X-61.6335 Y31.6176
G01 X-61.6069 Y31.5959
G01 X-61.5560 Y31.5564
G01 X-61.4965 Y31.5140
G01 X-61.4638 Y31.4922
G01 X-61.4191 Y31.4639
G01 X-61.3460 Y31.4216
G01 X-61.3113 Y31.4031
G01 X-61.2655 Y31.3800
G01 X-61.2320 Y31.3642
G01 X-61.1600 Y31.3329
G01 X-61.1050 Y31.3116
G01 X-61.0680 Y31.2984
G01 X-61.0214 Y31.2830
G01 X-60.9838 Y31.2716
G01 X-60.9365 Y31.2585
G01 X-60.8984 Y31.2489
G01 X-60.8321 Y31.2343
G01 X-60.7636 Y31.2221
G01 X-60.7247 Y31.2163
G01 X-60.6713 Y31.2098
G01 X-60.5879 Y31.2029
G01 X-60.5487 Y31.2009
G01 X-60.4800 Y31.1995
G01 X-58.9455 Y31.1995
G01 X-58.9084 Y31.1744
G01 X-58.8748 Y31.1542
G01 X-58.8403 Y31.1357
G01 X-58.8049 Y31.1190
G01 X-58.7706 Y31.1046
G01 X-58.7357 Y31.0920
G01 X-58.7002 Y31.0809
G01 X-58.6642 Y31.0715
G01 X-58.6279 Y31.0638
G01 X-58.5912 Y31.0578
G01 X-58.5542 Y31.0535
G01 X-58.5172 Y31.0509
G01 X-58.4800 Y31.0500
G01 X-56.4800 Y31.0500
G01 X-56.4428 Y31.0509
G01 X-56.4058 Y31.0535
G01 X-56.3688 Y31.0578
G01 X-56.3321 Y31.0638
G01 X-56.2958 Y31.0715
G01 X-56.2598 Y31.0809
G01 X-56.2243 Y31.0920
G01 X-56.1894 Y31.1046
G01 X-56.1551 Y31.1190
G01 X-56.1197 Y31.1357
G01 X-56.0852 Y31.1542
G01 X-56.0516 Y31.1744
G01 X-56.0190 Y31.1961
G01 X-55.9876 Y31.2195
G01 X-55.9573 Y31.2443
G01 X-55.9283 Y31.2706
G01 X-55.9006 Y31.2983
G01 X-55.8743 Y31.3273
G01 X-55.8495 Y31.3576
G01 X-55.8261 Y31.3891
G01 X-55.8044 Y31.4216
G01 X-55.7842 Y31.4552
G01 X-55.7657 Y31.4897
G01 X-55.7489 Y31.5251
G01 X-55.7346 Y31.5594
G01 X-55.7220 Y31.5943
G01 X-55.7109 Y31.6298
G01 X-55.7015 Y31.6658
G01 X-55.6938 Y31.7022
G01 X-55.6878 Y31.7388
G01 X-55.6835 Y31.7758
G01 X-55.6809 Y31.8128
G01 X-55.6800 Y31.8500
G01 X-55.6795 Y33.0000
G01 X-55.6800 Y34.1500
G01 X-55.6809 Y34.1872
G01 X-55.6835 Y34.2242
G01 X-55.6878 Y34.2612
G01 X-55.6938 Y34.2978
G01 X-55.7015 Y34.3342
G01 X-55.7109 Y34.3702
G01 X-55.7219 Y34.4056
G01 X-55.7346 Y34.4406
G01 X-55.7489 Y34.4749
G01 X-55.7657 Y34.5103
G01 X-55.7842 Y34.5448
G01 X-55.8044 Y34.5784
G01 X-55.8261 Y34.6109
G01 X-55.8495 Y34.6424
G01 X-55.8743 Y34.6727
G01 X-55.9006 Y34.7017
G01 X-55.9283 Y34.7294
G01 X-55.9573 Y34.7557
G01 X-55.9876 Y34.7805
G01 X-56.0191 Y34.8039
G01 X-56.0516 Y34.8256
G01 X-56.0852 Y34.8458
G01 X-56.1197 Y34.8643
G01 X-56.1551 Y34.8811
G01 X-56.1894 Y34.8954
G01 X-56.2244 Y34.9081
G01 X-56.2598 Y34.9191
G01 X-56.2958 Y34.9285
G01 X-56.3322 Y34.9362
G01 X-56.3688 Y34.9422
G01 X-56.4058 Y34.9465
G01 X-56.4428 Y34.9491
G01 X-56.4800 Y34.9500
G01 X-58.4800 Y34.9500
G01 X-58.5172 Y34.9491
G01 X-58.5542 Y34.9465
G01 X-58.5912 Y34.9422
G01 X-58.6278 Y34.9362
G01 X-58.6642 Y34.9285
G01 X-58.7002 Y34.9191
G01 X-58.7356 Y34.9081
G01 X-58.7706 Y34.8954
G01 X-58.8049 Y34.8811
G01 X-58.8403 Y34.8643
G01 X-58.8748 Y34.8458
G01 X-58.9084 Y34.8256
G01 X-58.9455 Y34.8005
G01 X-59.7342 Y34.8005
G01 X-65.8609 Y40.9269
G01 X-65.8965 Y40.9607
G01 X-65.9256 Y40.9871
G01 X-65.9665 Y41.0224
G01 X-65.9931 Y41.0441
G01 X-66.0440 Y41.0836
G01 X-66.0634 Y41.0977
G01 X-66.1035 Y41.1260
G01 X-66.1362 Y41.1478
G01 X-66.1809 Y41.1761
G01 X-66.2113 Y41.1942
G01 X-66.2540 Y41.2184
G01 X-66.2887 Y41.2369
G01 X-66.3345 Y41.2600
G01 X-66.3680 Y41.2758
G01 X-66.4400 Y41.3071
G01 X-66.4950 Y41.3284
G01 X-66.5320 Y41.3416
G01 X-66.5786 Y41.3570
G01 X-66.6162 Y41.3684
G01 X-66.6635 Y41.3815
G01 X-66.7016 Y41.3911
G01 X-66.7679 Y41.4057
G01 X-66.8364 Y41.4179
G01 X-66.8753 Y41.4237
G01 X-66.9287 Y41.4302
G01 X-67.0121 Y41.4371
G01 X-67.0513 Y41.4391
G01 X-67.1004 Y41.4403
G01 X-72.1820 Y41.4405
G01 X-72.2507 Y41.4391
G01 X-72.2899 Y41.4371
G01 X-72.3389 Y41.4335
G01 X-72.3780 Y41.4297
G01 X-72.4267 Y41.4237
G01 X-72.4656 Y41.4179
G01 X-72.5140 Y41.4095
G01 X-72.5525 Y41.4018
G01 X-72.6004 Y41.3911
G01 X-72.6385 Y41.3815
G01 X-72.6858 Y41.3684
G01 X-72.7234 Y41.3570
G01 X-72.7700 Y41.3416
G01 X-72.8070 Y41.3284
G01 X-72.8620 Y41.3071
G01 X-72.8891 Y41.2957
G01 X-72.9675 Y41.2600
G01 X-73.0133 Y41.2369
G01 X-73.0480 Y41.2184
G01 X-73.0907 Y41.1942
G01 X-73.1244 Y41.1740
G01 X-73.1658 Y41.1478
G01 X-73.1985 Y41.1260
G01 X-73.2580 Y41.0836
G01 X-73.3089 Y41.0441
G01 X-73.3393 Y41.0192
G01 X-73.3764 Y40.9871
G01 X-73.4055 Y40.9607
G01 X-73.4551 Y40.9131
G01 X-79.0731 Y35.2951
G01 X-79.1207 Y35.2455
G01 X-79.1471 Y35.2164
G01 X-79.1824 Y35.1755
G01 X-79.2041 Y35.1489
G01 X-79.2436 Y35.0980
G01 X-79.2577 Y35.0786
G01 X-79.2860 Y35.0385
G01 X-79.3078 Y35.0058
G01 X-79.3361 Y34.9611
G01 X-79.3542 Y34.9307
G01 X-79.3784 Y34.8880
G01 X-79.3969 Y34.8533
G01 X-79.4200 Y34.8076
G01 X-79.4358 Y34.7740
G01 X-79.4671 Y34.7020
G01 X-79.4884 Y34.6470
G01 X-79.5016 Y34.6100
G01 X-79.5170 Y34.5634
G01 X-79.5284 Y34.5258
G01 X-79.5415 Y34.4785
G01 X-79.5511 Y34.4404
G01 X-79.5657 Y34.3741
G01 X-79.5779 Y34.3056
G01 X-79.5837 Y34.2667
G01 X-79.5902 Y34.2133
G01 X-79.5971 Y34.1299
G01 X-79.5991 Y34.0907
G01 X-79.6005 Y34.0220
G01 X-79.6005 Y8.2000
G01 X-79.5987 Y8.1313
G00 Z1.0000
G00 X-74.7180 Y17.9715
G01 F76.20
G01 Z-0.1000
G01 F200.00
G01 X-74.7164 Y17.9323
G01 X-74.7121 Y17.8735
G01 X-74.7082 Y17.8345
G01 X-74.7010 Y17.7760
G01 X-74.6952 Y17.7372
G01 X-74.6814 Y17.6590
G01 X-74.6646 Y17.5831
G01 X-74.6551 Y17.5451
G01 X-74.6393 Y17.4883
G01 X-74.6280 Y17.4507
G01 X-74.6095 Y17.3948
G01 X-74.5962 Y17.3578
G01 X-74.5750 Y17.3029
G01 X-74.5600 Y17.2666
G01 X-74.5362 Y17.2127
G01 X-74.5203 Y17.1792
G01 X-74.4929 Y17.1246
G01 X-74.4744 Y17.0900
G01 X-74.4453 Y17.0388
G01 X-74.4252 Y17.0051
G01 X-74.3936 Y16.9553
G01 X-74.3718 Y16.9227
G01 X-74.3379 Y16.8745
G01 X-74.3145 Y16.8430
G01 X-74.2783 Y16.7965
G01 X-74.2534 Y16.7662
G01 X-74.2149 Y16.7216
G01 X-74.1885 Y16.6925
G01 X-74.1342 Y16.6358
G01 X-74.0775 Y16.5815
G01 X-74.0484 Y16.5551
G01 X-74.0001 Y16.5134
G01 X-73.9735 Y16.4917
G01 X-73.9148 Y16.4461
G01 X-73.8473 Y16.3982
G01 X-73.8147 Y16.3764
G01 X-73.7617 Y16.3428
G01 X-73.7312 Y16.3247
G01 X-73.6800 Y16.2956
G01 X-73.6454 Y16.2771
G01 X-73.5908 Y16.2497
G01 X-73.5573 Y16.2338
G01 X-73.5034 Y16.2100
G01 X-73.4763 Y16.1986
G01 X-73.4122 Y16.1738
G01 X-73.3752 Y16.1605
G01 X-73.3193 Y16.1420
G01 X-73.2817 Y16.1307
G01 X-73.2249 Y16.1149
G01 X-73.1869 Y16.1054
G01 X-73.1294 Y16.0925
G01 X-73.0909 Y16.0848
G01 X-73.0328 Y16.0748
G01 X-72.9940 Y16.0690
G01 X-72.9309 Y16.0612
G01 X-72.8965 Y16.0579
G01 X-72.8377 Y16.0536
G01 X-72.7985 Y16.0517
G01 X-72.7200 Y16.0500
G01 X-72.6415 Y16.0517
G01 X-72.6023 Y16.0536
G01 X-72.5435 Y16.0579
G01 X-72.5045 Y16.0618
G01 X-72.4460 Y16.0690
G01 X-72.4072 Y16.0748
G01 X-72.3290 Y16.0886
G01 X-72.2531 Y16.1054
G01 X-72.2151 Y16.1149
G01 X-72.1583 Y16.1307
G01 X-72.1207 Y16.1420
G01 X-72.0648 Y16.1605
G01 X-72.0278 Y16.1738
G01 X-71.9637 Y16.1986
G01 X-71.8827 Y16.2338
G01 X-71.8492 Y16.2497
G01 X-71.7946 Y16.2771
G01 X-71.7600 Y16.2956
G01 X-71.7088 Y16.3247
G01 X-71.6751 Y16.3448
G01 X-71.6253 Y16.3764
G01 X-71.5927 Y16.3982
G01 X-71.5252 Y16.4461
G01 X-71.4665 Y16.4917
G01 X-71.4362 Y16.5166
G01 X-71.3916 Y16.5551
G01 X-71.3625 Y16.5815
G01 X-71.3198 Y16.6221
G01 X-71.2921 Y16.6498
G01 X-71.2515 Y16.6925
G01 X-71.2251 Y16.7216
G01 X-71.1834 Y16.7699
G01 X-71.1617 Y16.7965
G01 X-71.1162 Y16.8551
G01 X-71.0682 Y16.9227
G01 X-71.0464 Y16.9553
G01 X-71.0128 Y17.0083
G01 X-70.9656 Y17.0900
G01 X-70.9471 Y17.1246
G01 X-70.9197 Y17.1792
G01 X-70.9038 Y17.2127
G01 X-70.8686 Y17.2937
G01 X-70.8438 Y17.3578
G01 X-70.8305 Y17.3948
G01 X-70.8120 Y17.4507
G01 X-70.8007 Y17.4883
G01 X-70.7849 Y17.5451
G01 X-70.7754 Y17.5831
G01 X-70.7586 Y17.6590
G01 X-70.7448 Y17.7372
G01 X-70.7390 Y17.7760
G01 X-70.7312 Y17.8391
G01 X-70.7279 Y17.8735
G01 X-70.7236 Y17.9323
G01 X-70.7217 Y17.9715
G01 X-70.7202 Y18.0304
G01 X-70.7202 Y18.0696
G01 X-70.7217 Y18.1285
G01 X-70.7236 Y18.1677
G01 X-70.7279 Y18.2265
G01 X-70.7318 Y18.2655
G01 X-70.7390 Y18.3240
G01 X-70.7448 Y18.3628
G01 X-70.7548 Y18.4209
G01 X-70.7625 Y18.4594
G01 X-70.7754 Y18.5169
G01 X-70.7849 Y18.5549
G01 X-70.8007 Y18.6117
G01 X-70.8120 Y18.6493
G01 X-70.8305 Y18.7052
G01 X-70.8438 Y18.7422
G01 X-70.8686 Y18.8063
G01 X-70.9038 Y18.8873
G01 X-70.9195 Y18.9205
G01 X-70.9195 Y23.8695
G01 X-50.6058 Y23.8695
G01 X-41.1491 Y14.4132
G01 X-41.1135 Y14.3793
G01 X-41.0844 Y14.3529
G01 X-41.0435 Y14.3177
G01 X-41.0169 Y14.2959
G01 X-40.9660 Y14.2564
G01 X-40.9065 Y14.2141
G01 X-40.8739 Y14.1922
G01 X-40.8291 Y14.1639
G01 X-40.7560 Y14.1216
G01 X-40.7213 Y14.1031
G01 X-40.6755 Y14.0800
G01 X-40.6420 Y14.0642
G01 X-40.5700 Y14.0329
G01 X-40.5150 Y14.0116
G01 X-40.4780 Y13.9984
G01 X-40.4314 Y13.9830
G01 X-40.3938 Y13.9716
G01 X-40.3465 Y13.9585
G01 X-40.3084 Y13.9489
G01 X-40.2605 Y13.9382
G01 X-40.2220 Y13.9305
G01 X-40.1736 Y13.9221
G01 X-40.1347 Y13.9164
G01 X-40.0813 Y13.9098
G01 X-39.9980 Y13.9029
G01 X-39.9587 Y13.9010
G01 X-39.8900 Y13.8995
G01 X-26.5358 Y13.8995
G01 X-24.3331 Y11.6969
G01 X-24.2835 Y11.6493
G01 X-24.2544 Y11.6229
G01 X-24.2135 Y11.5876
G01 X-24.1869 Y11.5659
G01 X-24.1360 Y11.5264
G01 X-24.1166 Y11.5123
G01 X-24.0765 Y11.4840
G01 X-24.0438 Y11.4622
G01 X-23.9991 Y11.4339
G01 X-23.9260 Y11.3916
G01 X-23.8913 Y11.3731
G01 X-23.8455 Y11.3500
G01 X-23.8120 Y11.3342
G01 X-23.7400 Y11.3029
G01 X-23.6850 Y11.2816
G01 X-23.6480 Y11.2684
G01 X-23.6014 Y11.2530
G01 X-23.5638 Y11.2416
G01 X-23.5165 Y11.2285
G01 X-23.4784 Y11.2189
G01 X-23.4121 Y11.2043
G01 X-23.3436 Y11.1921
G01 X-23.3047 Y11.1863
G01 X-23.2513 Y11.1798
G01 X-23.1679 Y11.1729
G01 X-23.1287 Y11.1709
G01 X-23.0600 Y11.1695
G01 X-2.7400 Y11.1695
G01 X-2.6713 Y11.1709
G01 X-2.6321 Y11.1729
G01 X-2.5831 Y11.1765
G01 X-2.5440 Y11.1803
G01 X-2.4953 Y11.1863
G01 X-2.4564 Y11.1921
G01 X-2.4080 Y11.2005
G01 X-2.3695 Y11.2082
G01 X-2.3216 Y11.2189
G01 X-2.2835 Y11.2285
G01 X-2.2362 Y11.2416
G01 X-2.1986 Y11.2530
G01 X-2.1520 Y11.2684
G01 X-2.1150 Y11.2816
G01 X-2.0600 Y11.3029
G01 X-2.0329 Y11.3143
G01 X-1.9545 Y11.3500
G01 X-1.9087 Y11.3731
G01 X-1.8740 Y11.3916
G01 X-1.8313 Y11.4158
G01 X-1.7976 Y11.4360
G01 X-1.7562 Y11.4622
G01 X-1.7235 Y11.4840
G01 X-1.6834 Y11.5123
G01 X-1.6640 Y11.5264
G01 X-1.6131 Y11.5659
G01 X-1.5828 Y11.5908
G01 X-1.5456 Y11.6229
G01 X-1.5165 Y11.6493
G01 X-1.4809 Y11.6831
G01 X-1.4531 Y11.7109
G01 X-1.4193 Y11.7465
G01 X-1.3929 Y11.7756
G01 X-1.3576 Y11.8165
G01 X-1.3359 Y11.8431
G01 X-1.2964 Y11.8940
G01 X-1.2540 Y11.9535
G01 X-1.2322 Y11.9862
G01 X-1.2039 Y12.0309
G01 X-1.1616 Y12.1040
G01 X-1.1431 Y12.1387
G01 X-1.1200 Y12.1845
G01 X-1.0843 Y12.2629
G01 X-1.0729 Y12.2900
G01 X-1.0516 Y12.3450
G01 X-1.0384 Y12.3820
G01 X-1.0230 Y12.4286
G01 X-1.0116 Y12.4662
G01 X-0.9985 Y12.5135
G01 X-0.9889 Y12.5516
G01 X-0.9743 Y12.6179
G01 X-0.9621 Y12.6864
G01 X-0.9563 Y12.7253
G01 X-0.9498 Y12.7787
G01 X-0.9429 Y12.8621
G01 X-0.9409 Y12.9013
G01 X-0.9395 Y12.9700
G01 X-0.9409 Y13.0387
G01 X-0.9429 Y13.0779
G01 X-0.9465 Y13.1269
G01 X-0.9503 Y13.1660
G01 X-0.9563 Y13.2147
G01 X-0.9621 Y13.2536
G01 X-0.9743 Y13.3221
G01 X-0.9889 Y13.3884
G01 X-0.9985 Y13.4265
G01 X-1.0116 Y13.4738
G01 X-1.0230 Y13.5114
G01 X-1.0384 Y13.5580
G01 X-1.0516 Y13.5950
G01 X-1.0729 Y13.6500
G01 X-1.0843 Y13.6771
G01 X-1.1200 Y13.7555
G01 X-1.1431 Y13.8013
G01 X-1.1616 Y13.8360
G01 X-1.1858 Y13.8787
G01 X-1.2060 Y13.9124
G01 X-1.2322 Y13.9538
G01 X-1.2540 Y13.9865
G01 X-1.2964 Y14.0460
G01 X-1.3359 Y14.0969
G01 X-1.3608 Y14.1272
G01 X-1.3929 Y14.1644
G01 X-1.4193 Y14.1935
G01 X-1.4669 Y14.2431
G01 X-1.5165 Y14.2907
G01 X-1.5456 Y14.3171
G01 X-1.5865 Y14.3524
G01 X-1.6131 Y14.3741
G01 X-1.6640 Y14.4136
G01 X-1.6834 Y14.4277
G01 X-1.7235 Y14.4560
G01 X-1.7562 Y14.4778
G01 X-1.8009 Y14.5061
G01 X-1.8313 Y14.5242
G01 X-1.8740 Y14.5484
G01 X-1.9087 Y14.5669
G01 X-1.9545 Y14.5900
G01 X-1.9880 Y14.6058
G01 X-2.0600 Y14.6371
G01 X-2.1150 Y14.6584
G01 X-2.1520 Y14.6716
G01 X-2.1986 Y14.6870
G01 X-2.2362 Y14.6984
G01 X-2.2835 Y14.7115
G01 X-2.3216 Y14.7211
G01 X-2.3879 Y14.7357
G01 X-2.4564 Y14.7479
G01 X-2.4953 Y14.7537
G01 X-2.5440 Y14.7597
G01 X-2.5831 Y14.7635
G01 X-2.6321 Y14.7671
G01 X-2.6713 Y14.7691
G01 X-2.7400 Y14.7705
G01 X-22.3142 Y14.7705
G01 X-24.5169 Y16.9732
G01 X-24.5665 Y17.0207
G01 X-24.5956 Y17.0471
G01 X-24.6365 Y17.0824
G01 X-24.7018 Y17.1343
G01 X-24.7334 Y17.1577
G01 X-24.7735 Y17.1860
G01 X-24.8062 Y17.2078
G01 X-24.8477 Y17.2340
G01 X-24.8813 Y17.2542
G01 X-24.9241 Y17.2784
G01 X-24.9587 Y17.2970
G01 X-25.0045 Y17.3200
G01 X-25.0380 Y17.3358
G01 X-25.1100 Y17.3671
G01 X-25.1650 Y17.3884
G01 X-25.2020 Y17.4016
G01 X-25.2486 Y17.4171
G01 X-25.2862 Y17.4284
G01 X-25.3335 Y17.4415
G01 X-25.3716 Y17.4511
G01 X-25.4379 Y17.4657
G01 X-25.5064 Y17.4779
G01 X-25.5453 Y17.4837
G01 X-25.5940 Y17.4897
G01 X-25.6331 Y17.4935
G01 X-25.6821 Y17.4971
G01 X-25.7213 Y17.4991
G01 X-25.7900 Y17.5005
G01 X-39.1442 Y17.5005
G01 X-48.6009 Y26.9569
G01 X-48.6365 Y26.9907
G01 X-48.6656 Y27.0171
G01 X-48.7028 Y27.0492
G01 X-48.7331 Y27.0741
G01 X-48.7718 Y27.1043
G01 X-48.8034 Y27.1277
G01 X-48.8435 Y27.1560
G01 X-48.8762 Y27.1778
G01 X-48.9209 Y27.2061
G01 X-48.9940 Y27.2484
G01 X-49.0287 Y27.2669
G01 X-49.0745 Y27.2900
G01 X-49.1080 Y27.3058
G01 X-49.1529 Y27.3257
G01 X-49.1892 Y27.3407
G01 X-49.2350 Y27.3584
G01 X-49.2720 Y27.3716
G01 X-49.3186 Y27.3870
G01 X-49.3562 Y27.3984
G01 X-49.4035 Y27.4115
G01 X-49.4416 Y27.4211
G01 X-49.5079 Y27.4357
G01 X-49.5764 Y27.4479
G01 X-49.6153 Y27.4537
G01 X-49.6640 Y27.4597
G01 X-49.7031 Y27.4635
G01 X-49.7521 Y27.4671
G01 X-49.7913 Y27.4691
G01 X-49.8600 Y27.4705
G01 X-70.9195 Y27.4705
G01 X-70.9195 Y27.8336
G01 X-70.9143 Y27.8579
G01 X-70.9021 Y27.9264
G01 X-70.8963 Y27.9653
G01 X-70.8898 Y28.0187
G01 X-70.8829 Y28.1021
G01 X-70.8809 Y28.1413
G01 X-70.8795 Y28.2100
G01 X-70.8795 Y32.2515
G01 X-70.8508 Y32.3247
G01 X-70.8376 Y32.3616
G01 X-70.8199 Y32.4152
G01 X-70.8085 Y32.4528
G01 X-70.7934 Y32.5072
G01 X-70.7839 Y32.5453
G01 X-70.7676 Y32.6188
G01 X-70.7542 Y32.6945
G01 X-70.7485 Y32.7333
G01 X-70.7410 Y32.7940
G01 X-70.7377 Y32.8284
G01 X-70.7336 Y32.8847
G01 X-70.7316 Y32.9239
G01 X-70.7302 Y32.9804
G01 X-70.7302 Y33.0196
G01 X-70.7316 Y33.0761
G01 X-70.7336 Y33.1153
G01 X-70.7377 Y33.1716
G01 X-70.7416 Y33.2106
G01 X-70.7485 Y33.2667
G01 X-70.7542 Y33.3055
G01 X-70.7639 Y33.3611
G01 X-70.7715 Y33.3996
G01 X-70.7839 Y33.4547
G01 X-70.7934 Y33.4928
G01 X-70.8085 Y33.5472
G01 X-70.8199 Y33.5848
G01 X-70.8376 Y33.6384
G01 X-70.8508 Y33.6753
G01 X-70.8748 Y33.7372
G01 X-70.8862 Y33.7643
G01 X-70.9090 Y33.8159
G01 X-70.9249 Y33.8495
G01 X-70.9512 Y33.9018
G01 X-70.9697 Y33.9364
G01 X-70.9975 Y33.9855
G01 X-71.0177 Y34.0192
G01 X-71.0479 Y34.0669
G01 X-71.0697 Y34.0996
G01 X-71.1163 Y34.1650
G01 X-71.1604 Y34.2217
G01 X-71.1853 Y34.2521
G01 X-71.2221 Y34.2948
G01 X-71.2485 Y34.3239
G01 X-71.3011 Y34.3789
G01 X-71.3561 Y34.4315
G01 X-71.3852 Y34.4579
G01 X-71.4316 Y34.4979
G01 X-71.4583 Y34.5196
G01 X-71.5150 Y34.5637
G01 X-71.5804 Y34.6103
G01 X-71.6131 Y34.6321
G01 X-71.6640 Y34.6643
G01 X-71.7436 Y34.7103
G01 X-71.7782 Y34.7288
G01 X-71.8305 Y34.7551
G01 X-71.8641 Y34.7710
G01 X-71.9428 Y34.8052
G01 X-72.0047 Y34.8292
G01 X-72.0416 Y34.8424
G01 X-72.0952 Y34.8601
G01 X-72.1328 Y34.8715
G01 X-72.1872 Y34.8866
G01 X-72.2253 Y34.8961
G01 X-72.2988 Y34.9124
G01 X-72.3745 Y34.9258
G01 X-72.4133 Y34.9315
G01 X-72.4740 Y34.9390
G01 X-72.5647 Y34.9464
G01 X-72.6039 Y34.9484
G01 X-72.6800 Y34.9500
G01 X-72.7561 Y34.9484
G01 X-72.7953 Y34.9464
G01 X-72.8516 Y34.9423
G01 X-72.8906 Y34.9384
G01 X-72.9467 Y34.9315
G01 X-72.9855 Y34.9258
G01 X-73.0612 Y34.9124
G01 X-73.1347 Y34.8961
G01 X-73.1728 Y34.8866
G01 X-73.2272 Y34.8715
G01 X-73.2648 Y34.8601
G01 X-73.3184 Y34.8424
G01 X-73.3553 Y34.8292
G01 X-73.4172 Y34.8052
G01 X-73.4443 Y34.7938
G01 X-73.4959 Y34.7710
G01 X-73.5295 Y34.7551
G01 X-73.5818 Y34.7288
G01 X-73.6164 Y34.7103
G01 X-73.6655 Y34.6825
G01 X-73.6992 Y34.6623
G01 X-73.7469 Y34.6321
G01 X-73.7796 Y34.6103
G01 X-73.8450 Y34.5637
G01 X-73.9017 Y34.5196
G01 X-73.9321 Y34.4947
G01 X-73.9748 Y34.4579
G01 X-74.0039 Y34.4315
G01 X-74.0589 Y34.3789
G01 X-74.1115 Y34.3239
G01 X-74.1379 Y34.2948
G01 X-74.1779 Y34.2484
G01 X-74.1996 Y34.2217
G01 X-74.2437 Y34.1650
G01 X-74.2903 Y34.0996
G01 X-74.3121 Y34.0669
G01 X-74.3443 Y34.0160
G01 X-74.3903 Y33.9364
G01 X-74.4088 Y33.9018
G01 X-74.4351 Y33.8495
G01 X-74.4510 Y33.8159
G01 X-74.4738 Y33.7643
G01 X-74.4852 Y33.7372
G01 X-74.5092 Y33.6753
G01 X-74.5224 Y33.6384
G01 X-74.5401 Y33.5848
G01 X-74.5515 Y33.5472
G01 X-74.5666 Y33.4928
G01 X-74.5761 Y33.4547
G01 X-74.5924 Y33.3812
G01 X-74.6058 Y33.3055
G01 X-74.6115 Y33.2667
G01 X-74.6190 Y33.2060
G01 X-74.6264 Y33.1153
G01 X-74.6284 Y33.0761
G01 X-74.6300 Y33.0000
G01 X-74.6284 Y32.9239
G01 X-74.6264 Y32.8847
G01 X-74.6223 Y32.8284
G01 X-74.6184 Y32.7894
G01 X-74.6115 Y32.7333
G01 X-74.6058 Y32.6945
G01 X-74.5924 Y32.6188
G01 X-74.5761 Y32.5453
G01 X-74.5666 Y32.5072
G01 X-74.5515 Y32.4528
G01 X-74.5401 Y32.4152
G01 X-74.5224 Y32.3616
G01 X-74.5092 Y32.3247
G01 X-74.4805 Y32.2515
G01 X-74.4805 Y28.5464
G01 X-74.4857 Y28.5221
G01 X-74.4979 Y28.4536
G01 X-74.5037 Y28.4147
G01 X-74.5102 Y28.3613
G01 X-74.5171 Y28.2779
G01 X-74.5191 Y28.2387
G01 X-74.5205 Y28.1700
G01 X-74.5205 Y18.9205
G01 X-74.5362 Y18.8873
G01 X-74.5714 Y18.8063
G01 X-74.5962 Y18.7422
G01 X-74.6095 Y18.7052
G01 X-74.6280 Y18.6493
G01 X-74.6393 Y18.6117
G01 X-74.6551 Y18.5549
G01 X-74.6646 Y18.5169
G01 X-74.6814 Y18.4410
G01 X-74.6952 Y18.3628
G01 X-74.7010 Y18.3240
G01 X-74.7088 Y18.2609
G01 X-74.7121 Y18.2265
G01 X-74.7164 Y18.1677
G01 X-74.7183 Y18.1285
G01 X-74.7198 Y18.0696
G01 X-74.7198 Y18.0304
G01 X-74.7180 Y17.9715
G00 Z1.0000
M05
G00 Z1.0000
G00 Z20.00
G00 X0.0 Y0.0

