(G-CODE GENERATED BY FLATCAM v8.99 - www.flatcam.org - Version Date: 2019/12/15)

(Name: cut_cutout_cnc)
(Type: G-code from Geometry)
(Units: MM)

(Created on Monday, 13 April 2020 at 10:36)

(TOOL DIAMETER: 1.0 mm)
(Feedrate: 200.0 mm/min)
(Feedrate_Z: 76.2 mm/min)
(Feedrate rapids 76.2 mm/min)

(Z_Cut: -1.8 mm)
(DepthPerCut: 0.6 mm <=>3 passes)
(Z_Move: 1.0 mm)
(Z Toolchange: 20.0 mm)
(X,Y Toolchange: 0.0000, 0.0000 mm)
(Z Start: None mm)
(Z End: 20.0 mm)
(Steps per circle: 128)
(Preprocessor Geometry: default)

(X range:  -80.5750 ...    0.5750  mm)
(Y range:   -0.5750 ...   80.5750  mm)

(Spindle Speed: 12000 RPM)
G21
G90
G94




G01 F200.00
G00 Z1.0000

M03 S12000
G00 X0.5749 Y-0.0123
G01 F76.20
G01 Z-0.6000
G01 F200.00
G01 X0.5736 Y-0.0405
G01 X0.5709 Y-0.0686
G01 X0.5669 Y-0.0965
G01 X0.5614 Y-0.1242
G01 X0.5547 Y-0.1516
G01 X0.5466 Y-0.1786
G01 X0.5371 Y-0.2052
G01 X0.5264 Y-0.2313
G01 X0.5150 Y-0.2557
G01 X0.5012 Y-0.2818
G01 X0.4868 Y-0.3061
G01 X0.4712 Y-0.3296
G01 X0.4544 Y-0.3523
G01 X0.4366 Y-0.3742
G01 X0.4066 Y-0.4066
G01 X0.3742 Y-0.4366
G01 X0.3523 Y-0.4544
G01 X0.3296 Y-0.4712
G01 X0.3061 Y-0.4868
G01 X0.2818 Y-0.5012
G01 X0.2557 Y-0.5150
G01 X0.2313 Y-0.5264
G01 X0.2052 Y-0.5371
G01 X0.1786 Y-0.5466
G01 X0.1516 Y-0.5547
G01 X0.1242 Y-0.5614
G01 X0.0965 Y-0.5669
G01 X0.0686 Y-0.5709
G01 X0.0405 Y-0.5736
G01 X0.0123 Y-0.5749
G01 X-39.0000 Y-0.5750
G00 X-39.0000 Y-0.5750
G01 F76.20
G01 Z-1.2000
G01 F200.00
G01 X0.0123 Y-0.5749
G01 X0.0405 Y-0.5736
G01 X0.0686 Y-0.5709
G01 X0.0965 Y-0.5669
G01 X0.1242 Y-0.5614
G01 X0.1516 Y-0.5547
G01 X0.1786 Y-0.5466
G01 X0.2052 Y-0.5371
G01 X0.2313 Y-0.5264
G01 X0.2557 Y-0.5150
G01 X0.2818 Y-0.5012
G01 X0.3061 Y-0.4868
G01 X0.3296 Y-0.4712
G01 X0.3523 Y-0.4544
G01 X0.3742 Y-0.4366
G01 X0.4066 Y-0.4066
G01 X0.4366 Y-0.3742
G01 X0.4544 Y-0.3523
G01 X0.4712 Y-0.3296
G01 X0.4868 Y-0.3061
G01 X0.5012 Y-0.2818
G01 X0.5150 Y-0.2557
G01 X0.5264 Y-0.2313
G01 X0.5371 Y-0.2052
G01 X0.5466 Y-0.1786
G01 X0.5547 Y-0.1516
G01 X0.5614 Y-0.1242
G01 X0.5669 Y-0.0965
G01 X0.5709 Y-0.0686
G01 X0.5736 Y-0.0405
G01 X0.5749 Y-0.0123
G00 X0.5749 Y-0.0123
G01 F76.20
G01 Z-1.8000
G01 F200.00
G01 X0.5736 Y-0.0405
G01 X0.5709 Y-0.0686
G01 X0.5669 Y-0.0965
G01 X0.5614 Y-0.1242
G01 X0.5547 Y-0.1516
G01 X0.5466 Y-0.1786
G01 X0.5371 Y-0.2052
G01 X0.5264 Y-0.2313
G01 X0.5150 Y-0.2557
G01 X0.5012 Y-0.2818
G01 X0.4868 Y-0.3061
G01 X0.4712 Y-0.3296
G01 X0.4544 Y-0.3523
G01 X0.4366 Y-0.3742
G01 X0.4066 Y-0.4066
G01 X0.3742 Y-0.4366
G01 X0.3523 Y-0.4544
G01 X0.3296 Y-0.4712
G01 X0.3061 Y-0.4868
G01 X0.2818 Y-0.5012
G01 X0.2557 Y-0.5150
G01 X0.2313 Y-0.5264
G01 X0.2052 Y-0.5371
G01 X0.1786 Y-0.5466
G01 X0.1516 Y-0.5547
G01 X0.1242 Y-0.5614
G01 X0.0965 Y-0.5669
G01 X0.0686 Y-0.5709
G01 X0.0405 Y-0.5736
G01 X0.0123 Y-0.5749
G01 X-39.0000 Y-0.5750
G00 Z1.0000
G00 X-41.0000 Y-0.5750
G01 F76.20
G01 Z-0.6000
G01 F200.00
G01 X-80.0000 Y-0.5750
G01 X-80.0405 Y-0.5736
G01 X-80.0686 Y-0.5709
G01 X-80.1127 Y-0.5639
G01 X-80.1551 Y-0.5537
G01 X-80.1821 Y-0.5454
G01 X-80.2144 Y-0.5336
G01 X-80.2347 Y-0.5249
G01 X-80.2602 Y-0.5128
G01 X-80.2850 Y-0.4994
G01 X-80.3092 Y-0.4848
G01 X-80.3326 Y-0.4691
G01 X-80.3552 Y-0.4522
G01 X-80.3770 Y-0.4342
G01 X-80.4066 Y-0.4066
G01 X-80.4342 Y-0.3770
G01 X-80.4522 Y-0.3552
G01 X-80.4691 Y-0.3326
G01 X-80.4848 Y-0.3092
G01 X-80.4994 Y-0.2850
G01 X-80.5128 Y-0.2602
G01 X-80.5249 Y-0.2347
G01 X-80.5336 Y-0.2144
G01 X-80.5454 Y-0.1821
G01 X-80.5537 Y-0.1551
G01 X-80.5639 Y-0.1127
G01 X-80.5709 Y-0.0686
G01 X-80.5736 Y-0.0405
G01 X-80.5750 Y-0.0000
G01 X-80.5750 Y39.0000
G00 X-80.5750 Y39.0000
G01 F76.20
G01 Z-1.2000
G01 F200.00
G01 X-80.5750 Y-0.0000
G01 X-80.5736 Y-0.0405
G01 X-80.5709 Y-0.0686
G01 X-80.5639 Y-0.1127
G01 X-80.5537 Y-0.1551
G01 X-80.5454 Y-0.1821
G01 X-80.5336 Y-0.2144
G01 X-80.5249 Y-0.2347
G01 X-80.5128 Y-0.2602
G01 X-80.4994 Y-0.2850
G01 X-80.4848 Y-0.3092
G01 X-80.4691 Y-0.3326
G01 X-80.4522 Y-0.3552
G01 X-80.4342 Y-0.3770
G01 X-80.4066 Y-0.4066
G01 X-80.3770 Y-0.4342
G01 X-80.3552 Y-0.4522
G01 X-80.3326 Y-0.4691
G01 X-80.3092 Y-0.4848
G01 X-80.2850 Y-0.4994
G01 X-80.2602 Y-0.5128
G01 X-80.2347 Y-0.5249
G01 X-80.2144 Y-0.5336
G01 X-80.1821 Y-0.5454
G01 X-80.1551 Y-0.5537
G01 X-80.1127 Y-0.5639
G01 X-80.0686 Y-0.5709
G01 X-80.0405 Y-0.5736
G01 X-80.0000 Y-0.5750
G01 X-41.0000 Y-0.5750
G00 X-41.0000 Y-0.5750
G01 F76.20
G01 Z-1.8000
G01 F200.00
G01 X-80.0000 Y-0.5750
G01 X-80.0405 Y-0.5736
G01 X-80.0686 Y-0.5709
G01 X-80.1127 Y-0.5639
G01 X-80.1551 Y-0.5537
G01 X-80.1821 Y-0.5454
G01 X-80.2144 Y-0.5336
G01 X-80.2347 Y-0.5249
G01 X-80.2602 Y-0.5128
G01 X-80.2850 Y-0.4994
G01 X-80.3092 Y-0.4848
G01 X-80.3326 Y-0.4691
G01 X-80.3552 Y-0.4522
G01 X-80.3770 Y-0.4342
G01 X-80.4066 Y-0.4066
G01 X-80.4342 Y-0.3770
G01 X-80.4522 Y-0.3552
G01 X-80.4691 Y-0.3326
G01 X-80.4848 Y-0.3092
G01 X-80.4994 Y-0.2850
G01 X-80.5128 Y-0.2602
G01 X-80.5249 Y-0.2347
G01 X-80.5336 Y-0.2144
G01 X-80.5454 Y-0.1821
G01 X-80.5537 Y-0.1551
G01 X-80.5639 Y-0.1127
G01 X-80.5709 Y-0.0686
G01 X-80.5736 Y-0.0405
G01 X-80.5750 Y-0.0000
G01 X-80.5750 Y39.0000
G00 Z1.0000
G00 X-80.5750 Y41.0000
G01 F76.20
G01 Z-0.6000
G01 F200.00
G01 X-80.5750 Y80.0000
G01 X-80.5736 Y80.0405
G01 X-80.5709 Y80.0686
G01 X-80.5639 Y80.1127
G01 X-80.5537 Y80.1551
G01 X-80.5454 Y80.1821
G01 X-80.5336 Y80.2144
G01 X-80.5249 Y80.2347
G01 X-80.5128 Y80.2602
G01 X-80.4994 Y80.2850
G01 X-80.4848 Y80.3092
G01 X-80.4691 Y80.3326
G01 X-80.4522 Y80.3552
G01 X-80.4342 Y80.3770
G01 X-80.4066 Y80.4066
G01 X-80.3770 Y80.4342
G01 X-80.3552 Y80.4522
G01 X-80.3326 Y80.4691
G01 X-80.3092 Y80.4848
G01 X-80.2850 Y80.4994
G01 X-80.2602 Y80.5128
G01 X-80.2347 Y80.5249
G01 X-80.2144 Y80.5336
G01 X-80.1821 Y80.5454
G01 X-80.1551 Y80.5537
G01 X-80.1127 Y80.5639
G01 X-80.0686 Y80.5709
G01 X-80.0405 Y80.5736
G01 X-80.0000 Y80.5750
G01 X-41.0000 Y80.5750
G00 X-41.0000 Y80.5750
G01 F76.20
G01 Z-1.2000
G01 F200.00
G01 X-80.0000 Y80.5750
G01 X-80.0405 Y80.5736
G01 X-80.0686 Y80.5709
G01 X-80.1127 Y80.5639
G01 X-80.1551 Y80.5537
G01 X-80.1821 Y80.5454
G01 X-80.2144 Y80.5336
G01 X-80.2347 Y80.5249
G01 X-80.2602 Y80.5128
G01 X-80.2850 Y80.4994
G01 X-80.3092 Y80.4848
G01 X-80.3326 Y80.4691
G01 X-80.3552 Y80.4522
G01 X-80.3770 Y80.4342
G01 X-80.4066 Y80.4066
G01 X-80.4342 Y80.3770
G01 X-80.4522 Y80.3552
G01 X-80.4691 Y80.3326
G01 X-80.4848 Y80.3092
G01 X-80.4994 Y80.2850
G01 X-80.5128 Y80.2602
G01 X-80.5249 Y80.2347
G01 X-80.5336 Y80.2144
G01 X-80.5454 Y80.1821
G01 X-80.5537 Y80.1551
G01 X-80.5639 Y80.1127
G01 X-80.5709 Y80.0686
G01 X-80.5736 Y80.0405
G01 X-80.5750 Y80.0000
G01 X-80.5750 Y41.0000
G00 X-80.5750 Y41.0000
G01 F76.20
G01 Z-1.8000
G01 F200.00
G01 X-80.5750 Y80.0000
G01 X-80.5736 Y80.0405
G01 X-80.5709 Y80.0686
G01 X-80.5639 Y80.1127
G01 X-80.5537 Y80.1551
G01 X-80.5454 Y80.1821
G01 X-80.5336 Y80.2144
G01 X-80.5249 Y80.2347
G01 X-80.5128 Y80.2602
G01 X-80.4994 Y80.2850
G01 X-80.4848 Y80.3092
G01 X-80.4691 Y80.3326
G01 X-80.4522 Y80.3552
G01 X-80.4342 Y80.3770
G01 X-80.4066 Y80.4066
G01 X-80.3770 Y80.4342
G01 X-80.3552 Y80.4522
G01 X-80.3326 Y80.4691
G01 X-80.3092 Y80.4848
G01 X-80.2850 Y80.4994
G01 X-80.2602 Y80.5128
G01 X-80.2347 Y80.5249
G01 X-80.2144 Y80.5336
G01 X-80.1821 Y80.5454
G01 X-80.1551 Y80.5537
G01 X-80.1127 Y80.5639
G01 X-80.0686 Y80.5709
G01 X-80.0405 Y80.5736
G01 X-80.0000 Y80.5750
G01 X-41.0000 Y80.5750
G00 Z1.0000
G00 X-39.0000 Y80.5750
G01 F76.20
G01 Z-0.6000
G01 F200.00
G01 X0.0000 Y80.5750
G01 X0.0405 Y80.5736
G01 X0.0686 Y80.5709
G01 X0.1127 Y80.5639
G01 X0.1551 Y80.5537
G01 X0.1821 Y80.5454
G01 X0.2144 Y80.5336
G01 X0.2347 Y80.5249
G01 X0.2602 Y80.5128
G01 X0.2850 Y80.4994
G01 X0.3092 Y80.4848
G01 X0.3326 Y80.4691
G01 X0.3552 Y80.4522
G01 X0.3770 Y80.4342
G01 X0.4066 Y80.4066
G01 X0.4342 Y80.3770
G01 X0.4522 Y80.3552
G01 X0.4691 Y80.3326
G01 X0.4848 Y80.3092
G01 X0.4994 Y80.2850
G01 X0.5128 Y80.2602
G01 X0.5249 Y80.2347
G01 X0.5336 Y80.2144
G01 X0.5454 Y80.1821
G01 X0.5537 Y80.1551
G01 X0.5639 Y80.1127
G01 X0.5709 Y80.0686
G01 X0.5736 Y80.0405
G01 X0.5750 Y80.0000
G01 X0.5750 Y41.0000
G00 X0.5750 Y41.0000
G01 F76.20
G01 Z-1.2000
G01 F200.00
G01 X0.5750 Y80.0000
G01 X0.5736 Y80.0405
G01 X0.5709 Y80.0686
G01 X0.5639 Y80.1127
G01 X0.5537 Y80.1551
G01 X0.5454 Y80.1821
G01 X0.5336 Y80.2144
G01 X0.5249 Y80.2347
G01 X0.5128 Y80.2602
G01 X0.4994 Y80.2850
G01 X0.4848 Y80.3092
G01 X0.4691 Y80.3326
G01 X0.4522 Y80.3552
G01 X0.4342 Y80.3770
G01 X0.4066 Y80.4066
G01 X0.3770 Y80.4342
G01 X0.3552 Y80.4522
G01 X0.3326 Y80.4691
G01 X0.3092 Y80.4848
G01 X0.2850 Y80.4994
G01 X0.2602 Y80.5128
G01 X0.2347 Y80.5249
G01 X0.2144 Y80.5336
G01 X0.1821 Y80.5454
G01 X0.1551 Y80.5537
G01 X0.1127 Y80.5639
G01 X0.0686 Y80.5709
G01 X0.0405 Y80.5736
G01 X0.0000 Y80.5750
G01 X-39.0000 Y80.5750
G00 X-39.0000 Y80.5750
G01 F76.20
G01 Z-1.8000
G01 F200.00
G01 X0.0000 Y80.5750
G01 X0.0405 Y80.5736
G01 X0.0686 Y80.5709
G01 X0.1127 Y80.5639
G01 X0.1551 Y80.5537
G01 X0.1821 Y80.5454
G01 X0.2144 Y80.5336
G01 X0.2347 Y80.5249
G01 X0.2602 Y80.5128
G01 X0.2850 Y80.4994
G01 X0.3092 Y80.4848
G01 X0.3326 Y80.4691
G01 X0.3552 Y80.4522
G01 X0.3770 Y80.4342
G01 X0.4066 Y80.4066
G01 X0.4342 Y80.3770
G01 X0.4522 Y80.3552
G01 X0.4691 Y80.3326
G01 X0.4848 Y80.3092
G01 X0.4994 Y80.2850
G01 X0.5128 Y80.2602
G01 X0.5249 Y80.2347
G01 X0.5336 Y80.2144
G01 X0.5454 Y80.1821
G01 X0.5537 Y80.1551
G01 X0.5639 Y80.1127
G01 X0.5709 Y80.0686
G01 X0.5736 Y80.0405
G01 X0.5750 Y80.0000
G01 X0.5750 Y41.0000
G00 Z1.0000
G00 X0.5750 Y39.0000
G01 F76.20
G01 Z-0.6000
G01 F200.00
G01 X0.5749 Y-0.0123
G00 X0.5749 Y-0.0123
G01 F76.20
G01 Z-1.2000
G01 F200.00
G01 X0.5750 Y39.0000
G00 X0.5750 Y39.0000
G01 F76.20
G01 Z-1.8000
G01 F200.00
G01 X0.5749 Y-0.0123
G00 Z1.0000
M05
G00 Z1.0000
G00 Z20.00
G00 X0.0 Y0.0

