(G-CODE GENERATED BY FLATCAM v8.99 - www.flatcam.org - Version Date: 2019/12/15)

(Name: drill_10_cnc)
(Type: G-code from Excellon)
(Units: MM)

(Created on Monday, 13 April 2020 at 10:37)

(Feedrate: 50.0 mm/min)
(Feedrate rapids 76.2 mm/min)

(Z_Cut: -2.0 mm)
(Z_Move: 1.0 mm)
(Z Toolchange: 20.0 mm)
(X,Y Toolchange: 0.0000, 0.0000 mm)
(Z Start: None mm)
(Z End: 20.0 mm)
(Steps per circle: 128)
(Preprocessor Excellon: default)

(X range:    2.2400 ...   77.0100  mm)
(Y range:    4.8500 ...   73.2600  mm)

(Spindle Speed: 12000.0 RPM)
G21
G90
G94




G01 F50.00
G00 Z1.0000

M03 S12000.0
G00 X-47.3200 Y72.6600
G01 Z-2.0000
G01 Z0
G00 Z1.0000
G00 X-47.3200 Y67.5800
G01 Z-2.0000
G01 Z0
G00 Z1.0000
G00 X-49.4000 Y61.0500
G01 Z-2.0000
G01 Z0
G00 Z1.0000
G00 X-60.0200 Y67.5800
G01 Z-2.0000
G01 Z0
G00 Z1.0000
G00 X-60.0200 Y72.6600
G01 Z-2.0000
G01 Z0
G00 Z1.0000
G00 X-65.9100 Y71.2100
G01 Z-2.0000
G01 Z0
G00 Z1.0000
G00 X-69.4100 Y71.2100
G01 Z-2.0000
G01 Z0
G00 Z1.0000
G00 X-72.9100 Y71.2100
G01 Z-2.0000
G01 Z0
G00 Z1.0000
G00 X-76.4100 Y71.2100
G01 Z-2.0000
G01 Z0
G00 Z1.0000
G00 X-72.7200 Y18.0500
G01 Z-2.0000
G01 Z0
G00 Z1.0000
G00 X-52.4000 Y18.0500
G01 Z-2.0000
G01 Z0
G00 Z1.0000
G00 X-49.4000 Y40.7300
G01 Z-2.0000
G01 Z0
G00 Z1.0000
G00 X-3.1500 Y71.3900
G01 Z-2.0000
G01 Z0
G00 Z1.0000
G00 X-6.6500 Y71.3900
G01 Z-2.0000
G01 Z0
G00 Z1.0000
G00 X-10.1500 Y71.3900
G01 Z-2.0000
G01 Z0
G00 Z1.0000
G00 X-13.6500 Y71.3900
G01 Z-2.0000
G01 Z0
G00 Z1.0000
G00 X-17.1500 Y71.3900
G01 Z-2.0000
G01 Z0
G00 Z1.0000
G00 X-20.6500 Y71.3900
G01 Z-2.0000
G01 Z0
G00 Z1.0000
M03 S12000.0
G00 X-35.8900 Y6.6200
G01 Z-2.0000
G01 Z0
G00 Z1.0000
G00 X-40.9700 Y6.6200
G01 Z-2.0000
G01 Z0
G00 Z1.0000
G00 X-46.0500 Y6.6200
G01 Z-2.0000
G01 Z0
G00 Z1.0000
G00 X-51.1300 Y6.6200
G01 Z-2.0000
G01 Z0
G00 Z1.0000
G00 X-67.6400 Y6.6200
G01 Z-2.0000
G01 Z0
G00 Z1.0000
G00 X-72.7200 Y6.6200
G01 Z-2.0000
G01 Z0
G00 Z1.0000
M05
G00 Z20.00
G00 X0.0 Y0.0

