(G-CODE GENERATED BY FLATCAM v8.99 - www.flatcam.org - Version Date: 2019/12/15)

(Name: drill_08__cnc)
(Type: G-code from Excellon)
(Units: MM)

(Created on Monday, 13 April 2020 at 10:37)

(Feedrate: 50.0 mm/min)
(Feedrate rapids 76.2 mm/min)

(Z_Cut: -2.0 mm)
(Z_Move: 1.0 mm)
(Z Toolchange: 20.0 mm)
(X,Y Toolchange: 0.0000, 0.0000 mm)
(Z Start: None mm)
(Z End: 20.0 mm)
(Steps per circle: 128)
(Preprocessor Excellon: default)

(X range:    2.2400 ...   77.0100  mm)
(Y range:    4.8500 ...   73.2600  mm)

(Spindle Speed: 12000.0 RPM)
G21
G90
G94




G01 F50.00
G00 Z1.0000

M03 S12000.0
G00 X-57.4800 Y61.0000
G01 Z-2.0000
G01 Z0
G00 Z1.0000
G00 X-65.0800 Y61.0000
G01 Z-2.0000
G01 Z0
G00 Z1.0000
M03 S12000.0
G00 X-7.9500 Y40.9100
G01 Z-2.0000
G01 Z0
G00 Z1.0000
G00 X-10.4900 Y40.9100
G01 Z-2.0000
G01 Z0
G00 Z1.0000
G00 X-13.0300 Y40.9100
G01 Z-2.0000
G01 Z0
G00 Z1.0000
G00 X-15.5700 Y40.9100
G01 Z-2.0000
G01 Z0
G00 Z1.0000
G00 X-15.5700 Y38.3700
G01 Z-2.0000
G01 Z0
G00 Z1.0000
G00 X-13.0300 Y38.3700
G01 Z-2.0000
G01 Z0
G00 Z1.0000
G00 X-10.4900 Y38.3700
G01 Z-2.0000
G01 Z0
G00 Z1.0000
G00 X-7.9500 Y38.3700
G01 Z-2.0000
G01 Z0
G00 Z1.0000
M03 S12000.0
G00 X-21.9200 Y30.7500
G01 Z-2.0000
G01 Z0
G00 Z1.0000
G00 X-38.4300 Y30.7500
G01 Z-2.0000
G01 Z0
G00 Z1.0000
G00 X-57.4800 Y33.0000
G01 Z-2.0000
G01 Z0
G00 Z1.0000
G00 X-72.6800 Y33.0000
G01 Z-2.0000
G01 Z0
G00 Z1.0000
M03 S12000.0
G00 X-23.0600 Y25.6700
G01 Z-2.0000
G01 Z0
G00 Z1.0000
G00 X-23.0600 Y23.1300
G01 Z-2.0000
G01 Z0
G00 Z1.0000
G00 X-23.0600 Y12.9700
G01 Z-2.0000
G01 Z0
G00 Z1.0000
G00 X-23.0600 Y5.3500
G01 Z-2.0000
G01 Z0
G00 Z1.0000
G00 X-13.0300 Y12.9700
G01 Z-2.0000
G01 Z0
G00 Z1.0000
G00 X-13.0300 Y5.3500
G01 Z-2.0000
G01 Z0
G00 Z1.0000
G00 X-2.7400 Y5.3500
G01 Z-2.0000
G01 Z0
G00 Z1.0000
G00 X-2.7400 Y12.9700
G01 Z-2.0000
G01 Z0
G00 Z1.0000
G00 X-2.7400 Y23.1300
G01 Z-2.0000
G01 Z0
G00 Z1.0000
G00 X-2.7400 Y25.6700
G01 Z-2.0000
G01 Z0
G00 Z1.0000
G00 X-13.0300 Y25.6700
G01 Z-2.0000
G01 Z0
G00 Z1.0000
G00 X-13.0300 Y23.1300
G01 Z-2.0000
G01 Z0
G00 Z1.0000
M03 S12000.0
G00 X-27.0000 Y70.1200
G01 Z-2.0000
G01 Z0
G00 Z1.0000
G00 X-27.0000 Y67.5800
G01 Z-2.0000
G01 Z0
G00 Z1.0000
G00 X-27.0000 Y65.0400
G01 Z-2.0000
G01 Z0
G00 Z1.0000
G00 X-27.0000 Y62.5000
G01 Z-2.0000
G01 Z0
G00 Z1.0000
G00 X-27.0000 Y59.9600
G01 Z-2.0000
G01 Z0
G00 Z1.0000
G00 X-27.0000 Y57.4200
G01 Z-2.0000
G01 Z0
G00 Z1.0000
G00 X-27.0000 Y54.8800
G01 Z-2.0000
G01 Z0
G00 Z1.0000
G00 X-27.0000 Y52.3400
G01 Z-2.0000
G01 Z0
G00 Z1.0000
G00 X-27.0000 Y49.8000
G01 Z-2.0000
G01 Z0
G00 Z1.0000
G00 X-27.0000 Y47.2600
G01 Z-2.0000
G01 Z0
G00 Z1.0000
G00 X-27.0000 Y44.7200
G01 Z-2.0000
G01 Z0
G00 Z1.0000
G00 X-27.0000 Y42.1800
G01 Z-2.0000
G01 Z0
G00 Z1.0000
G00 X-27.0000 Y39.6400
G01 Z-2.0000
G01 Z0
G00 Z1.0000
G00 X-27.0000 Y37.1000
G01 Z-2.0000
G01 Z0
G00 Z1.0000
G00 X-27.0000 Y34.5600
G01 Z-2.0000
G01 Z0
G00 Z1.0000
G00 X-42.2400 Y34.5600
G01 Z-2.0000
G01 Z0
G00 Z1.0000
G00 X-42.2400 Y37.1000
G01 Z-2.0000
G01 Z0
G00 Z1.0000
G00 X-42.2400 Y39.6400
G01 Z-2.0000
G01 Z0
G00 Z1.0000
G00 X-42.2400 Y42.1800
G01 Z-2.0000
G01 Z0
G00 Z1.0000
G00 X-42.2400 Y44.7200
G01 Z-2.0000
G01 Z0
G00 Z1.0000
G00 X-42.2400 Y47.2600
G01 Z-2.0000
G01 Z0
G00 Z1.0000
G00 X-42.2400 Y49.8000
G01 Z-2.0000
G01 Z0
G00 Z1.0000
G00 X-42.2400 Y52.3400
G01 Z-2.0000
G01 Z0
G00 Z1.0000
G00 X-42.2400 Y54.8800
G01 Z-2.0000
G01 Z0
G00 Z1.0000
G00 X-42.2400 Y57.4200
G01 Z-2.0000
G01 Z0
G00 Z1.0000
G00 X-42.2400 Y59.9600
G01 Z-2.0000
G01 Z0
G00 Z1.0000
G00 X-42.2400 Y62.5000
G01 Z-2.0000
G01 Z0
G00 Z1.0000
G00 X-42.2400 Y65.0400
G01 Z-2.0000
G01 Z0
G00 Z1.0000
G00 X-42.2400 Y67.5800
G01 Z-2.0000
G01 Z0
G00 Z1.0000
G00 X-42.2400 Y70.1200
G01 Z-2.0000
G01 Z0
G00 Z1.0000
M05
G00 Z20.00
G00 X0.0 Y0.0

