(G-CODE GENERATED BY FLATCAM v8.99 - www.flatcam.org - Version Date: 2019/12/15)

(Name: copper_iso_cnc)
(Type: G-code from Geometry)
(Units: MM)

(Created on Monday, 13 April 2020 at 17:35)

(TOOL DIAMETER: 0.6 mm)
(Feedrate: 200.0 mm/min)
(Feedrate_Z: 76.2 mm/min)
(Feedrate rapids 76.2 mm/min)

(Z_Cut: -0.09999999999999981 mm)
(Z_Move: 1.0 mm)
(Z Toolchange: 20.0 mm)
(X,Y Toolchange: 0.0000, 0.0000 mm)
(Z Start: None mm)
(Z End: 20.0 mm)
(Steps per circle: 128)
(Preprocessor Geometry: default)

(X range:  -42.6701 ...   -0.1599  mm)
(Y range:    0.2899 ...   23.7501  mm)

(Spindle Speed: 12000 RPM)
G21
G90
G94




G01 F200.00
G00 Z1.0000

M03 S12000
G00 X-5.7184 Y10.3462
G01 F76.20
G01 Z-0.1000
G01 F200.00
G01 X-5.7136 Y10.2752
G01 X-5.7053 Y10.2045
G01 X-5.6921 Y10.1268
G01 X-5.6782 Y10.0648
G01 X-5.6596 Y9.9962
G01 X-5.6376 Y9.9285
G01 X-5.6110 Y9.8585
G01 X-5.5839 Y9.7967
G01 X-5.5522 Y9.7330
G01 X-5.5174 Y9.6709
G01 X-5.4796 Y9.6106
G01 X-5.4337 Y9.5449
G01 X-5.3955 Y9.4959
G01 X-5.3493 Y9.4418
G01 X-5.2953 Y9.3847
G01 X-5.2492 Y9.3406
G01 X-5.1941 Y9.2927
G01 X-5.1351 Y9.2463
G01 X-5.0816 Y9.2085
G01 X-5.0205 Y9.1694
G01 X-4.9600 Y9.1348
G01 X-4.8959 Y9.1021
G01 X-4.8215 Y9.0690
G01 X-4.7654 Y9.0473
G01 X-4.6979 Y9.0247
G01 X-4.6294 Y9.0053
G01 X-4.5532 Y8.9879
G01 X-4.4900 Y8.9769
G01 X-4.4177 Y8.9676
G01 X-4.3485 Y8.9622
G01 X-4.2700 Y8.9600
G01 X-4.2062 Y8.9615
G01 X-4.1352 Y8.9664
G01 X-4.0645 Y8.9747
G01 X-3.9868 Y8.9879
G01 X-3.9248 Y9.0018
G01 X-3.8562 Y9.0204
G01 X-3.7885 Y9.0424
G01 X-3.7185 Y9.0690
G01 X-3.6567 Y9.0961
G01 X-3.5930 Y9.1278
G01 X-3.5309 Y9.1626
G01 X-3.4706 Y9.2004
G01 X-3.4049 Y9.2463
G01 X-3.3559 Y9.2845
G01 X-3.3018 Y9.3307
G01 X-3.2447 Y9.3847
G01 X-3.2006 Y9.4308
G01 X-3.1527 Y9.4859
G01 X-3.1063 Y9.5449
G01 X-3.0685 Y9.5984
G01 X-3.0294 Y9.6595
G01 X-2.9948 Y9.7200
G01 X-2.9621 Y9.7841
G01 X-2.9290 Y9.8585
G01 X-2.9073 Y9.9146
G01 X-2.8847 Y9.9821
G01 X-2.8653 Y10.0506
G01 X-2.8479 Y10.1268
G01 X-2.8369 Y10.1900
G01 X-2.8276 Y10.2623
G01 X-2.8222 Y10.3315
G01 X-2.8200 Y10.4100
G01 X-2.8215 Y10.4738
G01 X-2.8264 Y10.5448
G01 X-2.8347 Y10.6155
G01 X-2.8479 Y10.6932
G01 X-2.8618 Y10.7552
G01 X-2.8804 Y10.8238
G01 X-2.9024 Y10.8915
G01 X-2.9290 Y10.9615
G01 X-2.9561 Y11.0233
G01 X-2.9878 Y11.0870
G01 X-3.0226 Y11.1491
G01 X-3.0604 Y11.2094
G01 X-3.1063 Y11.2751
G01 X-3.1445 Y11.3241
G01 X-3.1907 Y11.3782
G01 X-3.2447 Y11.4353
G01 X-3.2908 Y11.4794
G01 X-3.3459 Y11.5273
G01 X-3.4049 Y11.5737
G01 X-3.4584 Y11.6115
G01 X-3.5195 Y11.6506
G01 X-3.5800 Y11.6852
G01 X-3.6441 Y11.7179
G01 X-3.7185 Y11.7510
G01 X-3.7746 Y11.7727
G01 X-3.8421 Y11.7953
G01 X-3.9106 Y11.8147
G01 X-3.9868 Y11.8321
G01 X-4.0500 Y11.8431
G01 X-4.1223 Y11.8524
G01 X-4.1915 Y11.8578
G01 X-4.2700 Y11.8600
G01 X-4.3338 Y11.8585
G01 X-4.4048 Y11.8536
G01 X-4.4755 Y11.8453
G01 X-4.5532 Y11.8321
G01 X-4.6152 Y11.8182
G01 X-4.6838 Y11.7996
G01 X-4.7515 Y11.7776
G01 X-4.8215 Y11.7510
G01 X-4.8833 Y11.7239
G01 X-4.9470 Y11.6922
G01 X-5.0091 Y11.6574
G01 X-5.0694 Y11.6196
G01 X-5.1351 Y11.5737
G01 X-5.1841 Y11.5355
G01 X-5.2382 Y11.4893
G01 X-5.2953 Y11.4353
G01 X-5.3394 Y11.3892
G01 X-5.3873 Y11.3341
G01 X-5.4337 Y11.2751
G01 X-5.4715 Y11.2216
G01 X-5.5106 Y11.1605
G01 X-5.5452 Y11.1000
G01 X-5.5779 Y11.0359
G01 X-5.6110 Y10.9615
G01 X-5.6327 Y10.9054
G01 X-5.6553 Y10.8379
G01 X-5.6747 Y10.7694
G01 X-5.6921 Y10.6932
G01 X-5.7031 Y10.6300
G01 X-5.7124 Y10.5577
G01 X-5.7178 Y10.4885
G01 X-5.7200 Y10.4100
G01 X-5.7184 Y10.3462
G00 Z1.0000
G00 X-11.6809 Y10.7053
G01 F76.20
G01 Z-0.1000
G01 F200.00
G01 X-11.6775 Y10.6532
G01 X-11.6715 Y10.6015
G01 X-11.6615 Y10.5425
G01 X-11.6519 Y10.4991
G01 X-11.6383 Y10.4488
G01 X-11.6223 Y10.3992
G01 X-11.6025 Y10.3470
G01 X-11.5831 Y10.3026
G01 X-11.5600 Y10.2559
G01 X-11.5346 Y10.2104
G01 X-11.5070 Y10.1662
G01 X-11.4720 Y10.1161
G01 X-11.4455 Y10.0820
G01 X-11.4118 Y10.0423
G01 X-11.3709 Y9.9991
G01 X-11.3386 Y9.9681
G01 X-11.2980 Y9.9326
G01 X-11.2539 Y9.8980
G01 X-11.2161 Y9.8711
G01 X-11.1710 Y9.8422
G01 X-11.1271 Y9.8169
G01 X-11.0800 Y9.7928
G01 X-11.0332 Y9.7717
G01 X-10.9847 Y9.7526
G01 X-10.9353 Y9.7360
G01 X-10.8852 Y9.7217
G01 X-10.8275 Y9.7085
G01 X-10.7831 Y9.7007
G01 X-10.7297 Y9.6937
G01 X-10.6795 Y9.6897
G01 X-10.6200 Y9.6880
G01 X-10.5752 Y9.6890
G01 X-10.5232 Y9.6925
G01 X-10.4715 Y9.6985
G01 X-10.4125 Y9.7085
G01 X-10.3691 Y9.7181
G01 X-10.3188 Y9.7317
G01 X-10.2692 Y9.7477
G01 X-10.2170 Y9.7675
G01 X-10.1726 Y9.7869
G01 X-10.1259 Y9.8100
G01 X-10.0804 Y9.8354
G01 X-10.0362 Y9.8630
G01 X-9.9861 Y9.8980
G01 X-9.9520 Y9.9245
G01 X-9.9123 Y9.9582
G01 X-9.8691 Y9.9991
G01 X-9.8381 Y10.0314
G01 X-9.8026 Y10.0720
G01 X-9.7680 Y10.1161
G01 X-9.7411 Y10.1539
G01 X-9.7122 Y10.1990
G01 X-9.6869 Y10.2429
G01 X-9.6628 Y10.2900
G01 X-9.6417 Y10.3368
G01 X-9.6226 Y10.3853
G01 X-9.6060 Y10.4347
G01 X-9.5917 Y10.4848
G01 X-9.5785 Y10.5425
G01 X-9.5707 Y10.5869
G01 X-9.5637 Y10.6403
G01 X-9.5597 Y10.6905
G01 X-9.5580 Y10.7500
G01 X-9.5590 Y10.7948
G01 X-9.5625 Y10.8468
G01 X-9.5685 Y10.8985
G01 X-9.5785 Y10.9575
G01 X-9.5881 Y11.0009
G01 X-9.6017 Y11.0512
G01 X-9.6177 Y11.1008
G01 X-9.6375 Y11.1530
G01 X-9.6569 Y11.1974
G01 X-9.6800 Y11.2441
G01 X-9.7054 Y11.2896
G01 X-9.7330 Y11.3338
G01 X-9.7680 Y11.3839
G01 X-9.7945 Y11.4180
G01 X-9.8282 Y11.4577
G01 X-9.8691 Y11.5009
G01 X-9.9014 Y11.5319
G01 X-9.9420 Y11.5674
G01 X-9.9861 Y11.6020
G01 X-10.0239 Y11.6289
G01 X-10.0690 Y11.6578
G01 X-10.1129 Y11.6831
G01 X-10.1600 Y11.7072
G01 X-10.2068 Y11.7283
G01 X-10.2553 Y11.7474
G01 X-10.3047 Y11.7640
G01 X-10.3548 Y11.7783
G01 X-10.4125 Y11.7915
G01 X-10.4569 Y11.7993
G01 X-10.5103 Y11.8063
G01 X-10.5605 Y11.8103
G01 X-10.6200 Y11.8120
G01 X-10.6648 Y11.8110
G01 X-10.7168 Y11.8075
G01 X-10.7685 Y11.8015
G01 X-10.8275 Y11.7915
G01 X-10.8709 Y11.7819
G01 X-10.9212 Y11.7683
G01 X-10.9708 Y11.7523
G01 X-11.0230 Y11.7325
G01 X-11.0674 Y11.7131
G01 X-11.1141 Y11.6900
G01 X-11.1596 Y11.6646
G01 X-11.2038 Y11.6370
G01 X-11.2539 Y11.6020
G01 X-11.2880 Y11.5755
G01 X-11.3277 Y11.5418
G01 X-11.3709 Y11.5009
G01 X-11.4019 Y11.4686
G01 X-11.4374 Y11.4280
G01 X-11.4720 Y11.3839
G01 X-11.4989 Y11.3461
G01 X-11.5278 Y11.3010
G01 X-11.5531 Y11.2571
G01 X-11.5772 Y11.2100
G01 X-11.5983 Y11.1632
G01 X-11.6174 Y11.1147
G01 X-11.6340 Y11.0653
G01 X-11.6483 Y11.0152
G01 X-11.6615 Y10.9575
G01 X-11.6693 Y10.9131
G01 X-11.6763 Y10.8597
G01 X-11.6803 Y10.8095
G01 X-11.6820 Y10.7500
G01 X-11.6809 Y10.7053
G00 Z1.0000
G00 X-11.6809 Y13.2453
G01 F76.20
G01 Z-0.1000
G01 F200.00
G01 X-11.6775 Y13.1932
G01 X-11.6715 Y13.1415
G01 X-11.6615 Y13.0825
G01 X-11.6519 Y13.0391
G01 X-11.6383 Y12.9888
G01 X-11.6223 Y12.9392
G01 X-11.6025 Y12.8870
G01 X-11.5831 Y12.8426
G01 X-11.5600 Y12.7959
G01 X-11.5346 Y12.7504
G01 X-11.5070 Y12.7062
G01 X-11.4720 Y12.6561
G01 X-11.4455 Y12.6220
G01 X-11.4118 Y12.5823
G01 X-11.3709 Y12.5391
G01 X-11.3386 Y12.5081
G01 X-11.2980 Y12.4726
G01 X-11.2539 Y12.4380
G01 X-11.2161 Y12.4111
G01 X-11.1710 Y12.3822
G01 X-11.1271 Y12.3569
G01 X-11.0800 Y12.3328
G01 X-11.0332 Y12.3117
G01 X-10.9847 Y12.2926
G01 X-10.9353 Y12.2760
G01 X-10.8852 Y12.2617
G01 X-10.8275 Y12.2485
G01 X-10.7831 Y12.2407
G01 X-10.7297 Y12.2337
G01 X-10.6795 Y12.2297
G01 X-10.6200 Y12.2280
G01 X-10.5752 Y12.2290
G01 X-10.5232 Y12.2325
G01 X-10.4715 Y12.2385
G01 X-10.4125 Y12.2485
G01 X-10.3691 Y12.2581
G01 X-10.3188 Y12.2717
G01 X-10.2692 Y12.2877
G01 X-10.2170 Y12.3075
G01 X-10.1726 Y12.3269
G01 X-10.1259 Y12.3500
G01 X-10.0804 Y12.3754
G01 X-10.0362 Y12.4030
G01 X-9.9861 Y12.4380
G01 X-9.9520 Y12.4645
G01 X-9.9123 Y12.4982
G01 X-9.8691 Y12.5391
G01 X-9.8381 Y12.5714
G01 X-9.8026 Y12.6120
G01 X-9.7680 Y12.6561
G01 X-9.7411 Y12.6939
G01 X-9.7122 Y12.7390
G01 X-9.6869 Y12.7829
G01 X-9.6628 Y12.8300
G01 X-9.6417 Y12.8768
G01 X-9.6226 Y12.9253
G01 X-9.6060 Y12.9747
G01 X-9.5917 Y13.0248
G01 X-9.5785 Y13.0825
G01 X-9.5707 Y13.1269
G01 X-9.5637 Y13.1803
G01 X-9.5597 Y13.2305
G01 X-9.5580 Y13.2900
G01 X-9.5590 Y13.3348
G01 X-9.5625 Y13.3868
G01 X-9.5685 Y13.4385
G01 X-9.5785 Y13.4975
G01 X-9.5881 Y13.5409
G01 X-9.6017 Y13.5912
G01 X-9.6177 Y13.6408
G01 X-9.6375 Y13.6930
G01 X-9.6569 Y13.7374
G01 X-9.6800 Y13.7841
G01 X-9.7054 Y13.8296
G01 X-9.7330 Y13.8738
G01 X-9.7680 Y13.9239
G01 X-9.7945 Y13.9580
G01 X-9.8282 Y13.9977
G01 X-9.8691 Y14.0409
G01 X-9.9014 Y14.0719
G01 X-9.9420 Y14.1074
G01 X-9.9861 Y14.1420
G01 X-10.0239 Y14.1689
G01 X-10.0690 Y14.1978
G01 X-10.1129 Y14.2231
G01 X-10.1600 Y14.2472
G01 X-10.2068 Y14.2683
G01 X-10.2553 Y14.2874
G01 X-10.3047 Y14.3040
G01 X-10.3548 Y14.3183
G01 X-10.4125 Y14.3315
G01 X-10.4569 Y14.3393
G01 X-10.5103 Y14.3463
G01 X-10.5605 Y14.3503
G01 X-10.6200 Y14.3520
G01 X-10.6648 Y14.3510
G01 X-10.7168 Y14.3475
G01 X-10.7685 Y14.3415
G01 X-10.8275 Y14.3315
G01 X-10.8709 Y14.3219
G01 X-10.9212 Y14.3083
G01 X-10.9708 Y14.2923
G01 X-11.0230 Y14.2725
G01 X-11.0674 Y14.2531
G01 X-11.1141 Y14.2300
G01 X-11.1596 Y14.2046
G01 X-11.2038 Y14.1770
G01 X-11.2539 Y14.1420
G01 X-11.2880 Y14.1155
G01 X-11.3277 Y14.0818
G01 X-11.3709 Y14.0409
G01 X-11.4019 Y14.0086
G01 X-11.4374 Y13.9680
G01 X-11.4720 Y13.9239
G01 X-11.4989 Y13.8861
G01 X-11.5278 Y13.8410
G01 X-11.5531 Y13.7971
G01 X-11.5772 Y13.7500
G01 X-11.5983 Y13.7032
G01 X-11.6174 Y13.6547
G01 X-11.6340 Y13.6053
G01 X-11.6483 Y13.5552
G01 X-11.6615 Y13.4975
G01 X-11.6693 Y13.4531
G01 X-11.6763 Y13.3997
G01 X-11.6803 Y13.3495
G01 X-11.6820 Y13.2900
G01 X-11.6809 Y13.2453
G00 Z1.0000
G00 X-11.6809 Y15.7853
G01 F76.20
G01 Z-0.1000
G01 F200.00
G01 X-11.6775 Y15.7332
G01 X-11.6715 Y15.6815
G01 X-11.6615 Y15.6225
G01 X-11.6519 Y15.5791
G01 X-11.6383 Y15.5288
G01 X-11.6223 Y15.4792
G01 X-11.6025 Y15.4270
G01 X-11.5831 Y15.3826
G01 X-11.5600 Y15.3359
G01 X-11.5346 Y15.2904
G01 X-11.5070 Y15.2462
G01 X-11.4720 Y15.1961
G01 X-11.4455 Y15.1620
G01 X-11.4118 Y15.1223
G01 X-11.3709 Y15.0791
G01 X-11.3386 Y15.0481
G01 X-11.2980 Y15.0126
G01 X-11.2539 Y14.9780
G01 X-11.2161 Y14.9511
G01 X-11.1710 Y14.9222
G01 X-11.1271 Y14.8969
G01 X-11.0800 Y14.8728
G01 X-11.0332 Y14.8517
G01 X-10.9847 Y14.8326
G01 X-10.9353 Y14.8160
G01 X-10.8852 Y14.8017
G01 X-10.8275 Y14.7885
G01 X-10.7831 Y14.7807
G01 X-10.7297 Y14.7737
G01 X-10.6795 Y14.7697
G01 X-10.6200 Y14.7680
G01 X-10.5752 Y14.7690
G01 X-10.5232 Y14.7725
G01 X-10.4715 Y14.7785
G01 X-10.4125 Y14.7885
G01 X-10.3691 Y14.7981
G01 X-10.3188 Y14.8117
G01 X-10.2692 Y14.8277
G01 X-10.2170 Y14.8475
G01 X-10.1600 Y14.8728
G01 X-10.1129 Y14.8969
G01 X-10.0678 Y14.9230
G01 X-10.0239 Y14.9511
G01 X-9.9861 Y14.9780
G01 X-9.9406 Y15.0138
G01 X-9.9014 Y15.0481
G01 X-9.8691 Y15.0791
G01 X-9.8282 Y15.1223
G01 X-9.7945 Y15.1620
G01 X-9.7680 Y15.1961
G01 X-9.7411 Y15.2339
G01 X-9.7122 Y15.2790
G01 X-9.6869 Y15.3229
G01 X-9.6628 Y15.3700
G01 X-9.6375 Y15.4270
G01 X-9.6177 Y15.4792
G01 X-9.6017 Y15.5288
G01 X-9.5881 Y15.5791
G01 X-9.5771 Y15.6301
G01 X-9.5685 Y15.6815
G01 X-9.5637 Y15.7203
G01 X-9.5597 Y15.7705
G01 X-9.5580 Y15.8300
G01 X-9.5597 Y15.8895
G01 X-9.5639 Y15.9414
G01 X-9.5685 Y15.9785
G01 X-9.5762 Y16.0251
G01 X-8.7914 Y16.8098
G01 X-5.5897 Y16.8098
G01 X-5.5779 Y16.7841
G01 X-5.5452 Y16.7200
G01 X-5.5098 Y16.6583
G01 X-5.4796 Y16.6106
G01 X-5.4302 Y16.5404
G01 X-5.3861 Y16.4845
G01 X-5.3394 Y16.4308
G01 X-5.2953 Y16.3847
G01 X-5.2382 Y16.3307
G01 X-5.1941 Y16.2927
G01 X-5.1396 Y16.2498
G01 X-5.0694 Y16.2004
G01 X-5.0091 Y16.1626
G01 X-4.9470 Y16.1278
G01 X-4.8833 Y16.0961
G01 X-4.8215 Y16.0690
G01 X-4.7654 Y16.0473
G01 X-4.6979 Y16.0247
G01 X-4.6152 Y16.0018
G01 X-4.5532 Y15.9879
G01 X-4.4755 Y15.9747
G01 X-4.4177 Y15.9676
G01 X-4.3485 Y15.9622
G01 X-4.2700 Y15.9600
G01 X-4.2062 Y15.9615
G01 X-4.1206 Y15.9678
G01 X-4.0500 Y15.9769
G01 X-3.9799 Y15.9894
G01 X-3.9106 Y16.0053
G01 X-3.8421 Y16.0247
G01 X-3.7746 Y16.0473
G01 X-3.7185 Y16.0690
G01 X-3.6441 Y16.1021
G01 X-3.5800 Y16.1348
G01 X-3.5183 Y16.1702
G01 X-3.4584 Y16.2085
G01 X-3.4049 Y16.2463
G01 X-3.3445 Y16.2939
G01 X-3.2908 Y16.3406
G01 X-3.2447 Y16.3847
G01 X-3.2006 Y16.4308
G01 X-3.1527 Y16.4859
G01 X-3.1063 Y16.5449
G01 X-3.0604 Y16.6106
G01 X-3.0226 Y16.6709
G01 X-2.9878 Y16.7330
G01 X-2.9561 Y16.7967
G01 X-2.9290 Y16.8585
G01 X-2.9024 Y16.9285
G01 X-2.8804 Y16.9962
G01 X-2.8618 Y17.0648
G01 X-2.8479 Y17.1268
G01 X-2.8369 Y17.1900
G01 X-2.8276 Y17.2623
G01 X-2.8222 Y17.3315
G01 X-2.8200 Y17.4100
G01 X-2.8222 Y17.4885
G01 X-2.8278 Y17.5594
G01 X-2.8369 Y17.6300
G01 X-2.8494 Y17.7001
G01 X-2.8653 Y17.7694
G01 X-2.8847 Y17.8379
G01 X-2.9073 Y17.9054
G01 X-2.9276 Y17.9581
G01 X-2.9624 Y18.0366
G01 X-2.9948 Y18.1000
G01 X-3.0302 Y18.1617
G01 X-3.0685 Y18.2216
G01 X-3.1063 Y18.2751
G01 X-3.1445 Y18.3241
G01 X-3.1907 Y18.3782
G01 X-3.2500 Y18.4404
G01 X-3.3018 Y18.4893
G01 X-3.3459 Y18.5273
G01 X-3.4049 Y18.5737
G01 X-3.4584 Y18.6115
G01 X-3.5309 Y18.6574
G01 X-3.5930 Y18.6922
G01 X-3.6441 Y18.7179
G01 X-3.7185 Y18.7510
G01 X-3.7746 Y18.7727
G01 X-3.8562 Y18.7996
G01 X-3.9248 Y18.8182
G01 X-3.9868 Y18.8321
G01 X-4.0500 Y18.8431
G01 X-4.1206 Y18.8522
G01 X-4.2062 Y18.8585
G01 X-4.2700 Y18.8600
G01 X-4.3338 Y18.8585
G01 X-4.4194 Y18.8522
G01 X-4.4900 Y18.8431
G01 X-4.5456 Y18.8335
G01 X-4.6294 Y18.8147
G01 X-4.6979 Y18.7953
G01 X-4.7515 Y18.7776
G01 X-4.8215 Y18.7510
G01 X-4.8833 Y18.7239
G01 X-4.9470 Y18.6922
G01 X-5.0217 Y18.6498
G01 X-5.0816 Y18.6115
G01 X-5.1278 Y18.5790
G01 X-5.1955 Y18.5261
G01 X-5.2492 Y18.4794
G01 X-5.2900 Y18.4404
G01 X-5.3493 Y18.3782
G01 X-5.3873 Y18.3341
G01 X-5.4302 Y18.2796
G01 X-5.4796 Y18.2094
G01 X-5.5106 Y18.1605
G01 X-5.5452 Y18.1000
G01 X-5.5779 Y18.0359
G01 X-5.5897 Y18.0102
G01 X-9.0400 Y18.0102
G01 X-9.0768 Y18.0090
G01 X-9.1061 Y18.0064
G01 X-9.1353 Y18.0025
G01 X-9.1643 Y17.9971
G01 X-9.2071 Y17.9864
G01 X-9.2352 Y17.9775
G01 X-9.2663 Y17.9658
G01 X-9.3032 Y17.9493
G01 X-9.3422 Y17.9285
G01 X-9.3795 Y17.9048
G01 X-9.4150 Y17.8785
G01 X-9.4375 Y17.8596
G01 X-9.4644 Y17.8344
G01 X-10.4249 Y16.8738
G01 X-10.4715 Y16.8815
G01 X-10.5086 Y16.8861
G01 X-10.5605 Y16.8903
G01 X-10.6200 Y16.8920
G01 X-10.6795 Y16.8903
G01 X-10.7314 Y16.8861
G01 X-10.7831 Y16.8793
G01 X-10.8199 Y16.8729
G01 X-10.8709 Y16.8619
G01 X-10.9212 Y16.8483
G01 X-10.9708 Y16.8323
G01 X-11.0230 Y16.8125
G01 X-11.0800 Y16.7872
G01 X-11.1271 Y16.7631
G01 X-11.1722 Y16.7370
G01 X-11.2161 Y16.7089
G01 X-11.2539 Y16.6820
G01 X-11.2880 Y16.6555
G01 X-11.3277 Y16.6218
G01 X-11.3709 Y16.5809
G01 X-11.4118 Y16.5377
G01 X-11.4455 Y16.4980
G01 X-11.4773 Y16.4567
G01 X-11.5070 Y16.4138
G01 X-11.5346 Y16.3696
G01 X-11.5600 Y16.3241
G01 X-11.5768 Y16.2907
G01 X-11.5983 Y16.2432
G01 X-11.6174 Y16.1947
G01 X-11.6340 Y16.1453
G01 X-11.6519 Y16.0809
G01 X-11.6629 Y16.0299
G01 X-11.6715 Y15.9785
G01 X-11.6763 Y15.9397
G01 X-11.6803 Y15.8895
G01 X-11.6820 Y15.8300
G01 X-11.6809 Y15.7853
G00 Z1.0000
G00 X-11.6809 Y18.3253
G01 F76.20
G01 Z-0.1000
G01 F200.00
G01 X-11.6775 Y18.2732
G01 X-11.6693 Y18.2069
G01 X-11.6601 Y18.1556
G01 X-11.6483 Y18.1048
G01 X-11.6383 Y18.0688
G01 X-11.6174 Y18.0053
G01 X-11.5983 Y17.9568
G01 X-11.5768 Y17.9093
G01 X-11.5531 Y17.8629
G01 X-11.5346 Y17.8304
G01 X-11.4989 Y17.7739
G01 X-11.4685 Y17.7315
G01 X-11.4362 Y17.6906
G01 X-11.4118 Y17.6623
G01 X-11.3709 Y17.6191
G01 X-11.3277 Y17.5782
G01 X-11.2980 Y17.5526
G01 X-11.2585 Y17.5215
G01 X-11.2038 Y17.4830
G01 X-11.1596 Y17.4554
G01 X-11.1141 Y17.4300
G01 X-11.0807 Y17.4132
G01 X-11.0332 Y17.3917
G01 X-10.9708 Y17.3677
G01 X-10.9212 Y17.3517
G01 X-10.8709 Y17.3381
G01 X-10.8344 Y17.3299
G01 X-10.7831 Y17.3207
G01 X-10.7168 Y17.3125
G01 X-10.6648 Y17.3090
G01 X-10.6274 Y17.3081
G01 X-10.5605 Y17.3097
G01 X-10.5086 Y17.3139
G01 X-10.4569 Y17.3207
G01 X-10.4201 Y17.3271
G01 X-10.3691 Y17.3381
G01 X-10.3047 Y17.3560
G01 X-10.2553 Y17.3726
G01 X-10.2170 Y17.3875
G01 X-10.1726 Y17.4069
G01 X-10.1259 Y17.4300
G01 X-10.0678 Y17.4630
G01 X-10.0239 Y17.4911
G01 X-9.9861 Y17.5180
G01 X-9.9520 Y17.5445
G01 X-9.9123 Y17.5782
G01 X-9.8639 Y17.6243
G01 X-9.8282 Y17.6623
G01 X-9.8026 Y17.6920
G01 X-9.7680 Y17.7361
G01 X-9.7411 Y17.7739
G01 X-9.7054 Y17.8304
G01 X-9.6800 Y17.8759
G01 X-9.6628 Y17.9100
G01 X-9.6417 Y17.9568
G01 X-9.6226 Y18.0053
G01 X-9.6017 Y18.0688
G01 X-9.5881 Y18.1191
G01 X-9.5799 Y18.1556
G01 X-9.5685 Y18.2215
G01 X-9.5637 Y18.2603
G01 X-9.5597 Y18.3105
G01 X-9.5581 Y18.3774
G01 X-9.5597 Y18.4295
G01 X-9.5625 Y18.4668
G01 X-9.5685 Y18.5185
G01 X-9.5762 Y18.5651
G01 X-7.8314 Y20.3098
G01 X-5.7200 Y20.3098
G01 X-5.7200 Y19.7600
G01 X-5.7187 Y19.7322
G01 X-5.7171 Y19.7183
G01 X-5.7119 Y19.6909
G01 X-5.7084 Y19.6774
G01 X-5.7043 Y19.6641
G01 X-5.6941 Y19.6382
G01 X-5.6879 Y19.6249
G01 X-5.6734 Y19.5994
G01 X-5.6652 Y19.5871
G01 X-5.6471 Y19.5640
G01 X-5.6269 Y19.5427
G01 X-5.6160 Y19.5329
G01 X-5.5929 Y19.5148
G01 X-5.5806 Y19.5066
G01 X-5.5551 Y19.4921
G01 X-5.5418 Y19.4859
G01 X-5.5159 Y19.4757
G01 X-5.5026 Y19.4716
G01 X-5.4754 Y19.4652
G01 X-5.4478 Y19.4613
G01 X-5.4200 Y19.4600
G01 X-3.1200 Y19.4600
G01 X-3.1061 Y19.4603
G01 X-3.0783 Y19.4629
G01 X-3.0509 Y19.4681
G01 X-3.0241 Y19.4757
G01 X-2.9982 Y19.4859
G01 X-2.9719 Y19.4991
G01 X-2.9471 Y19.5148
G01 X-2.9354 Y19.5236
G01 X-2.9131 Y19.5427
G01 X-2.9027 Y19.5531
G01 X-2.8836 Y19.5754
G01 X-2.8748 Y19.5871
G01 X-2.8666 Y19.5994
G01 X-2.8521 Y19.6249
G01 X-2.8459 Y19.6382
G01 X-2.8357 Y19.6641
G01 X-2.8281 Y19.6909
G01 X-2.8252 Y19.7046
G01 X-2.8229 Y19.7183
G01 X-2.8203 Y19.7461
G01 X-2.8200 Y22.0600
G01 X-2.8213 Y22.0878
G01 X-2.8252 Y22.1154
G01 X-2.8316 Y22.1426
G01 X-2.8405 Y22.1690
G01 X-2.8459 Y22.1818
G01 X-2.8591 Y22.2081
G01 X-2.8748 Y22.2329
G01 X-2.8836 Y22.2446
G01 X-2.9027 Y22.2669
G01 X-2.9131 Y22.2773
G01 X-2.9354 Y22.2964
G01 X-2.9471 Y22.3052
G01 X-2.9719 Y22.3209
G01 X-2.9849 Y22.3279
G01 X-2.9982 Y22.3341
G01 X-3.0241 Y22.3443
G01 X-3.0374 Y22.3484
G01 X-3.0646 Y22.3548
G01 X-3.0922 Y22.3587
G01 X-3.1061 Y22.3597
G01 X-5.4200 Y22.3600
G01 X-5.4478 Y22.3587
G01 X-5.4617 Y22.3571
G01 X-5.4754 Y22.3548
G01 X-5.5026 Y22.3484
G01 X-5.5290 Y22.3395
G01 X-5.5418 Y22.3341
G01 X-5.5551 Y22.3279
G01 X-5.5806 Y22.3134
G01 X-5.5929 Y22.3052
G01 X-5.6160 Y22.2871
G01 X-5.6373 Y22.2669
G01 X-5.6471 Y22.2560
G01 X-5.6652 Y22.2329
G01 X-5.6734 Y22.2206
G01 X-5.6809 Y22.2081
G01 X-5.6941 Y22.1818
G01 X-5.6995 Y22.1690
G01 X-5.7084 Y22.1426
G01 X-5.7119 Y22.1291
G01 X-5.7171 Y22.1017
G01 X-5.7187 Y22.0878
G01 X-5.7200 Y22.0600
G01 X-5.7200 Y21.5102
G01 X-8.0874 Y21.5101
G01 X-8.1168 Y21.5090
G01 X-8.1461 Y21.5064
G01 X-8.1753 Y21.5025
G01 X-8.1974 Y21.4986
G01 X-8.2329 Y21.4903
G01 X-8.2612 Y21.4821
G01 X-8.2891 Y21.4725
G01 X-8.3164 Y21.4616
G01 X-8.3425 Y21.4497
G01 X-8.3694 Y21.4357
G01 X-8.3948 Y21.4209
G01 X-8.4195 Y21.4048
G01 X-8.4388 Y21.3911
G01 X-8.4664 Y21.3692
G01 X-8.4991 Y21.3395
G01 X-10.4249 Y19.4138
G01 X-10.4715 Y19.4215
G01 X-10.5086 Y19.4261
G01 X-10.5605 Y19.4303
G01 X-10.6200 Y19.4320
G01 X-10.6795 Y19.4303
G01 X-10.7314 Y19.4261
G01 X-10.7831 Y19.4193
G01 X-10.8199 Y19.4129
G01 X-10.8709 Y19.4019
G01 X-10.9212 Y19.3883
G01 X-10.9708 Y19.3723
G01 X-11.0230 Y19.3525
G01 X-11.0800 Y19.3272
G01 X-11.1271 Y19.3031
G01 X-11.1722 Y19.2770
G01 X-11.2038 Y19.2570
G01 X-11.2467 Y19.2273
G01 X-11.2880 Y19.1955
G01 X-11.3386 Y19.1519
G01 X-11.3709 Y19.1209
G01 X-11.4118 Y19.0777
G01 X-11.4455 Y19.0380
G01 X-11.4720 Y19.0039
G01 X-11.4989 Y18.9661
G01 X-11.5278 Y18.9210
G01 X-11.5531 Y18.8771
G01 X-11.5772 Y18.8300
G01 X-11.6025 Y18.7730
G01 X-11.6223 Y18.7208
G01 X-11.6383 Y18.6712
G01 X-11.6519 Y18.6209
G01 X-11.6629 Y18.5699
G01 X-11.6715 Y18.5185
G01 X-11.6763 Y18.4797
G01 X-11.6803 Y18.4295
G01 X-11.6820 Y18.3700
G01 X-11.6809 Y18.3253
G00 Z1.0000
G00 X-11.6809 Y20.8653
G01 F76.20
G01 Z-0.1000
G01 F200.00
G01 X-11.6775 Y20.8132
G01 X-11.6715 Y20.7615
G01 X-11.6615 Y20.7025
G01 X-11.6519 Y20.6591
G01 X-11.6383 Y20.6088
G01 X-11.6223 Y20.5592
G01 X-11.6025 Y20.5070
G01 X-11.5831 Y20.4626
G01 X-11.5600 Y20.4159
G01 X-11.5346 Y20.3704
G01 X-11.5070 Y20.3262
G01 X-11.4720 Y20.2761
G01 X-11.4455 Y20.2420
G01 X-11.4118 Y20.2023
G01 X-11.3709 Y20.1591
G01 X-11.3386 Y20.1281
G01 X-11.2980 Y20.0926
G01 X-11.2539 Y20.0580
G01 X-11.2161 Y20.0311
G01 X-11.1710 Y20.0022
G01 X-11.1271 Y19.9769
G01 X-11.0800 Y19.9528
G01 X-11.0332 Y19.9317
G01 X-10.9847 Y19.9126
G01 X-10.9353 Y19.8960
G01 X-10.8852 Y19.8817
G01 X-10.8275 Y19.8685
G01 X-10.7831 Y19.8607
G01 X-10.7297 Y19.8537
G01 X-10.6795 Y19.8497
G01 X-10.6200 Y19.8480
G01 X-10.5752 Y19.8490
G01 X-10.5232 Y19.8525
G01 X-10.4715 Y19.8585
G01 X-10.4125 Y19.8685
G01 X-10.3691 Y19.8781
G01 X-10.3188 Y19.8917
G01 X-10.2692 Y19.9077
G01 X-10.2170 Y19.9275
G01 X-10.1726 Y19.9469
G01 X-10.1259 Y19.9700
G01 X-10.0804 Y19.9954
G01 X-10.0362 Y20.0230
G01 X-9.9861 Y20.0580
G01 X-9.9520 Y20.0845
G01 X-9.9123 Y20.1182
G01 X-9.8691 Y20.1591
G01 X-9.8381 Y20.1914
G01 X-9.8026 Y20.2320
G01 X-9.7680 Y20.2761
G01 X-9.7411 Y20.3139
G01 X-9.7122 Y20.3590
G01 X-9.6869 Y20.4029
G01 X-9.6628 Y20.4500
G01 X-9.6417 Y20.4968
G01 X-9.6226 Y20.5453
G01 X-9.6060 Y20.5947
G01 X-9.5917 Y20.6448
G01 X-9.5785 Y20.7025
G01 X-9.5707 Y20.7469
G01 X-9.5637 Y20.8003
G01 X-9.5597 Y20.8505
G01 X-9.5580 Y20.9100
G01 X-9.5590 Y20.9548
G01 X-9.5625 Y21.0068
G01 X-9.5685 Y21.0585
G01 X-9.5785 Y21.1175
G01 X-9.5881 Y21.1609
G01 X-9.6017 Y21.2112
G01 X-9.6177 Y21.2608
G01 X-9.6375 Y21.3130
G01 X-9.6569 Y21.3574
G01 X-9.6800 Y21.4041
G01 X-9.7054 Y21.4496
G01 X-9.7330 Y21.4938
G01 X-9.7680 Y21.5439
G01 X-9.7945 Y21.5780
G01 X-9.8282 Y21.6177
G01 X-9.8691 Y21.6609
G01 X-9.9014 Y21.6919
G01 X-9.9420 Y21.7274
G01 X-9.9861 Y21.7620
G01 X-10.0239 Y21.7889
G01 X-10.0690 Y21.8178
G01 X-10.1129 Y21.8431
G01 X-10.1600 Y21.8672
G01 X-10.2068 Y21.8883
G01 X-10.2553 Y21.9074
G01 X-10.3047 Y21.9240
G01 X-10.3548 Y21.9383
G01 X-10.4125 Y21.9515
G01 X-10.4569 Y21.9593
G01 X-10.5103 Y21.9663
G01 X-10.5605 Y21.9703
G01 X-10.6200 Y21.9720
G01 X-10.6648 Y21.9710
G01 X-10.7168 Y21.9675
G01 X-10.7685 Y21.9615
G01 X-10.8275 Y21.9515
G01 X-10.8709 Y21.9419
G01 X-10.9212 Y21.9283
G01 X-10.9708 Y21.9123
G01 X-11.0230 Y21.8925
G01 X-11.0674 Y21.8731
G01 X-11.1141 Y21.8500
G01 X-11.1596 Y21.8246
G01 X-11.2038 Y21.7970
G01 X-11.2539 Y21.7620
G01 X-11.2880 Y21.7355
G01 X-11.3277 Y21.7018
G01 X-11.3709 Y21.6609
G01 X-11.4019 Y21.6286
G01 X-11.4374 Y21.5880
G01 X-11.4720 Y21.5439
G01 X-11.4989 Y21.5061
G01 X-11.5278 Y21.4610
G01 X-11.5531 Y21.4171
G01 X-11.5772 Y21.3700
G01 X-11.5983 Y21.3232
G01 X-11.6174 Y21.2747
G01 X-11.6340 Y21.2253
G01 X-11.6483 Y21.1752
G01 X-11.6615 Y21.1175
G01 X-11.6693 Y21.0731
G01 X-11.6763 Y21.0197
G01 X-11.6803 Y20.9695
G01 X-11.6820 Y20.9100
G01 X-11.6809 Y20.8653
G00 Z1.0000
G00 X-25.7523 Y4.1979
G01 F76.20
G01 Z-0.1000
G01 F200.00
G01 X-25.7486 Y4.1409
G01 X-25.7398 Y4.0696
G01 X-25.7312 Y4.0203
G01 X-25.7204 Y3.9720
G01 X-25.7055 Y3.9169
G01 X-25.6830 Y3.8487
G01 X-25.6621 Y3.7955
G01 X-25.6390 Y3.7442
G01 X-25.6196 Y3.7056
G01 X-25.5918 Y3.6558
G01 X-25.5533 Y3.5951
G01 X-25.5202 Y3.5486
G01 X-25.4847 Y3.5038
G01 X-25.4570 Y3.4717
G01 X-25.4128 Y3.4248
G01 X-25.3659 Y3.3806
G01 X-25.3224 Y3.3435
G01 X-25.2844 Y3.3139
G01 X-25.2425 Y3.2843
G01 X-25.1902 Y3.2508
G01 X-25.1902 Y2.7840
G01 X-25.1897 Y2.7619
G01 X-25.1879 Y2.7325
G01 X-25.1846 Y2.7032
G01 X-25.1800 Y2.6742
G01 X-25.1739 Y2.6453
G01 X-25.1664 Y2.6169
G01 X-25.1575 Y2.5888
G01 X-25.1458 Y2.5577
G01 X-25.1297 Y2.5215
G01 X-25.1157 Y2.4946
G01 X-25.1009 Y2.4692
G01 X-25.0764 Y2.4325
G01 X-25.0492 Y2.3976
G01 X-25.0297 Y2.3756
G01 X-24.6144 Y1.9596
G01 X-24.5875 Y1.9344
G01 X-24.5488 Y1.9029
G01 X-24.5295 Y1.8891
G01 X-24.5036 Y1.8723
G01 X-24.4664 Y1.8513
G01 X-24.4399 Y1.8384
G01 X-24.3991 Y1.8215
G01 X-24.3712 Y1.8119
G01 X-24.3287 Y1.8001
G01 X-24.2998 Y1.7940
G01 X-24.2708 Y1.7893
G01 X-24.2415 Y1.7861
G01 X-24.1974 Y1.7839
G01 X-21.2781 Y1.7838
G01 X-21.2413 Y1.7850
G01 X-21.1973 Y1.7893
G01 X-21.1607 Y1.7954
G01 X-21.1394 Y1.8001
G01 X-21.1109 Y1.8076
G01 X-21.0690 Y1.8215
G01 X-21.0416 Y1.8324
G01 X-21.0156 Y1.8443
G01 X-20.9759 Y1.8655
G01 X-20.9386 Y1.8891
G01 X-20.9193 Y1.9029
G01 X-20.8917 Y1.9248
G01 X-20.8590 Y1.9545
G01 X-16.5035 Y6.3098
G01 X-5.5897 Y6.3098
G01 X-5.5779 Y6.2841
G01 X-5.5452 Y6.2200
G01 X-5.5098 Y6.1583
G01 X-5.4796 Y6.1106
G01 X-5.4302 Y6.0404
G01 X-5.3861 Y5.9845
G01 X-5.3493 Y5.9418
G01 X-5.2900 Y5.8796
G01 X-5.2382 Y5.8307
G01 X-5.1941 Y5.7927
G01 X-5.1278 Y5.7410
G01 X-5.0694 Y5.7004
G01 X-5.0205 Y5.6694
G01 X-4.9470 Y5.6278
G01 X-4.8833 Y5.5961
G01 X-4.8215 Y5.5690
G01 X-4.7654 Y5.5473
G01 X-4.6979 Y5.5247
G01 X-4.6152 Y5.5018
G01 X-4.5532 Y5.4879
G01 X-4.4900 Y5.4769
G01 X-4.4048 Y5.4664
G01 X-4.3338 Y5.4615
G01 X-4.2774 Y5.4601
G01 X-4.1915 Y5.4622
G01 X-4.1206 Y5.4678
G01 X-4.0500 Y5.4769
G01 X-3.9868 Y5.4879
G01 X-3.9106 Y5.5053
G01 X-3.8421 Y5.5247
G01 X-3.7746 Y5.5473
G01 X-3.7185 Y5.5690
G01 X-3.6567 Y5.5961
G01 X-3.5930 Y5.6278
G01 X-3.5309 Y5.6626
G01 X-3.4706 Y5.7004
G01 X-3.4049 Y5.7463
G01 X-3.3559 Y5.7845
G01 X-3.3018 Y5.8307
G01 X-3.2447 Y5.8847
G01 X-3.2006 Y5.9308
G01 X-3.1527 Y5.9859
G01 X-3.1063 Y6.0449
G01 X-3.0604 Y6.1106
G01 X-3.0226 Y6.1709
G01 X-2.9878 Y6.2330
G01 X-2.9561 Y6.2967
G01 X-2.9290 Y6.3585
G01 X-2.9024 Y6.4285
G01 X-2.8804 Y6.4962
G01 X-2.8618 Y6.5648
G01 X-2.8479 Y6.6268
G01 X-2.8347 Y6.7045
G01 X-2.8264 Y6.7752
G01 X-2.8215 Y6.8462
G01 X-2.8201 Y6.9174
G01 X-2.8222 Y6.9885
G01 X-2.8264 Y7.0448
G01 X-2.8347 Y7.1155
G01 X-2.8479 Y7.1932
G01 X-2.8618 Y7.2552
G01 X-2.8804 Y7.3238
G01 X-2.9024 Y7.3915
G01 X-2.9333 Y7.4717
G01 X-2.9621 Y7.5359
G01 X-2.9948 Y7.6000
G01 X-3.0302 Y7.6617
G01 X-3.0685 Y7.7216
G01 X-3.1063 Y7.7751
G01 X-3.1445 Y7.8241
G01 X-3.2006 Y7.8892
G01 X-3.2447 Y7.9353
G01 X-3.3018 Y7.9893
G01 X-3.3459 Y8.0273
G01 X-3.4049 Y8.0737
G01 X-3.4584 Y8.1115
G01 X-3.5195 Y8.1506
G01 X-3.5930 Y8.1922
G01 X-3.6567 Y8.2239
G01 X-3.7185 Y8.2510
G01 X-3.7746 Y8.2727
G01 X-3.8421 Y8.2953
G01 X-3.9106 Y8.3147
G01 X-3.9799 Y8.3306
G01 X-4.0645 Y8.3453
G01 X-4.1352 Y8.3536
G01 X-4.2062 Y8.3585
G01 X-4.2700 Y8.3600
G01 X-4.3338 Y8.3585
G01 X-4.4194 Y8.3522
G01 X-4.4900 Y8.3431
G01 X-4.5456 Y8.3335
G01 X-4.6294 Y8.3147
G01 X-4.6979 Y8.2953
G01 X-4.7515 Y8.2776
G01 X-4.8215 Y8.2510
G01 X-4.8833 Y8.2239
G01 X-4.9470 Y8.1922
G01 X-5.0217 Y8.1498
G01 X-5.0816 Y8.1115
G01 X-5.1278 Y8.0790
G01 X-5.1955 Y8.0261
G01 X-5.2492 Y7.9794
G01 X-5.2900 Y7.9404
G01 X-5.3493 Y7.8782
G01 X-5.3873 Y7.8341
G01 X-5.4302 Y7.7796
G01 X-5.4796 Y7.7094
G01 X-5.5106 Y7.6605
G01 X-5.5452 Y7.6000
G01 X-5.5779 Y7.5359
G01 X-5.5897 Y7.5102
G01 X-16.7521 Y7.5102
G01 X-16.7889 Y7.5090
G01 X-16.8328 Y7.5046
G01 X-16.8694 Y7.4986
G01 X-16.8907 Y7.4939
G01 X-16.9192 Y7.4864
G01 X-16.9611 Y7.4725
G01 X-16.9885 Y7.4616
G01 X-17.0146 Y7.4497
G01 X-17.0542 Y7.4285
G01 X-17.0916 Y7.4048
G01 X-17.1109 Y7.3911
G01 X-17.1384 Y7.3692
G01 X-17.1712 Y7.3395
G01 X-21.5267 Y2.9841
G01 X-23.9414 Y2.9841
G01 X-23.9898 Y3.0326
G01 X-23.9898 Y3.2508
G01 X-23.9375 Y3.2843
G01 X-23.8956 Y3.3139
G01 X-23.8576 Y3.3435
G01 X-23.8141 Y3.3806
G01 X-23.7672 Y3.4248
G01 X-23.7328 Y3.4608
G01 X-23.6941 Y3.5052
G01 X-23.6598 Y3.5486
G01 X-23.6185 Y3.6073
G01 X-23.5882 Y3.6558
G01 X-23.5604 Y3.7056
G01 X-23.5351 Y3.7568
G01 X-23.5136 Y3.8057
G01 X-23.4920 Y3.8626
G01 X-23.4745 Y3.9169
G01 X-23.4596 Y3.9720
G01 X-23.4474 Y4.0278
G01 X-23.4380 Y4.0842
G01 X-23.4328 Y4.1262
G01 X-23.4283 Y4.1832
G01 X-23.4264 Y4.2476
G01 X-23.4264 Y4.5524
G01 X-23.4283 Y4.6168
G01 X-23.4328 Y4.6738
G01 X-23.4402 Y4.7304
G01 X-23.4474 Y4.7722
G01 X-23.4631 Y4.8423
G01 X-23.4787 Y4.8972
G01 X-23.4920 Y4.9374
G01 X-23.5179 Y5.0045
G01 X-23.5410 Y5.0558
G01 X-23.5604 Y5.0944
G01 X-23.5958 Y5.1569
G01 X-23.6267 Y5.2049
G01 X-23.6511 Y5.2396
G01 X-23.6953 Y5.2962
G01 X-23.7328 Y5.3392
G01 X-23.7621 Y5.3699
G01 X-23.8141 Y5.4194
G01 X-23.8476 Y5.4483
G01 X-23.8910 Y5.4826
G01 X-23.9497 Y5.5239
G01 X-23.9867 Y5.5474
G01 X-24.0350 Y5.5751
G01 X-24.0992 Y5.6073
G01 X-24.1481 Y5.6288
G01 X-24.1911 Y5.6454
G01 X-24.2593 Y5.6679
G01 X-24.3144 Y5.6828
G01 X-24.3627 Y5.6936
G01 X-24.4120 Y5.7022
G01 X-24.4833 Y5.7110
G01 X-24.5403 Y5.7149
G01 X-24.5826 Y5.7159
G01 X-24.6544 Y5.7141
G01 X-24.7114 Y5.7096
G01 X-24.7680 Y5.7022
G01 X-24.8098 Y5.6950
G01 X-24.8799 Y5.6793
G01 X-24.9348 Y5.6637
G01 X-24.9750 Y5.6504
G01 X-25.0319 Y5.6288
G01 X-25.0934 Y5.6014
G01 X-25.1320 Y5.5820
G01 X-25.1818 Y5.5542
G01 X-25.2425 Y5.5157
G01 X-25.2890 Y5.4826
G01 X-25.3338 Y5.4471
G01 X-25.3659 Y5.4194
G01 X-25.4128 Y5.3752
G01 X-25.4570 Y5.3283
G01 X-25.4859 Y5.2948
G01 X-25.5202 Y5.2514
G01 X-25.5533 Y5.2049
G01 X-25.5918 Y5.1442
G01 X-25.6196 Y5.0944
G01 X-25.6390 Y5.0558
G01 X-25.6621 Y5.0045
G01 X-25.6830 Y4.9513
G01 X-25.7055 Y4.8831
G01 X-25.7204 Y4.8280
G01 X-25.7326 Y4.7722
G01 X-25.7420 Y4.7158
G01 X-25.7472 Y4.6738
G01 X-25.7517 Y4.6168
G01 X-25.7536 Y4.5524
G01 X-25.7536 Y4.2476
G01 X-25.7523 Y4.1979
G00 Z1.0000
G00 X-42.6697 Y0.7034
G01 F76.20
G01 Z-0.1000
G01 F200.00
G01 X-42.6672 Y0.6678
G01 X-42.6643 Y0.6471
G01 X-42.6603 Y0.6265
G01 X-42.6554 Y0.6061
G01 X-42.6495 Y0.5860
G01 X-42.6425 Y0.5662
G01 X-42.6347 Y0.5468
G01 X-42.6262 Y0.5285
G01 X-42.6161 Y0.5092
G01 X-42.6054 Y0.4912
G01 X-42.5939 Y0.4737
G01 X-42.5816 Y0.4567
G01 X-42.5684 Y0.4404
G01 X-42.5544 Y0.4248
G01 X-42.5397 Y0.4099
G01 X-42.5243 Y0.3957
G01 X-42.5082 Y0.3823
G01 X-42.4914 Y0.3697
G01 X-42.4741 Y0.3579
G01 X-42.4562 Y0.3470
G01 X-42.4378 Y0.3370
G01 X-42.4030 Y0.3211
G01 X-42.3799 Y0.3125
G01 X-42.3599 Y0.3063
G01 X-42.3266 Y0.2982
G01 X-42.2904 Y0.2926
G01 X-42.2713 Y0.2909
G01 X-42.2430 Y0.2899
G01 X-0.5870 Y0.2899
G01 X-0.5587 Y0.2909
G01 X-0.5316 Y0.2936
G01 X-0.5034 Y0.2982
G01 X-0.4761 Y0.3046
G01 X-0.4501 Y0.3125
G01 X-0.4270 Y0.3211
G01 X-0.3985 Y0.3338
G01 X-0.3792 Y0.3439
G01 X-0.3559 Y0.3579
G01 X-0.3313 Y0.3749
G01 X-0.3057 Y0.3957
G01 X-0.2850 Y0.4150
G01 X-0.2657 Y0.4357
G01 X-0.2484 Y0.4567
G01 X-0.2279 Y0.4859
G01 X-0.2170 Y0.5038
G01 X-0.2038 Y0.5285
G01 X-0.1911 Y0.5570
G01 X-0.1825 Y0.5801
G01 X-0.1746 Y0.6061
G01 X-0.1682 Y0.6334
G01 X-0.1636 Y0.6616
G01 X-0.1609 Y0.6887
G01 X-0.1599 Y0.7170
G01 X-0.1599 Y23.3230
G01 X-0.1609 Y23.3513
G01 X-0.1636 Y23.3784
G01 X-0.1682 Y23.4066
G01 X-0.1746 Y23.4339
G01 X-0.1825 Y23.4599
G01 X-0.1911 Y23.4830
G01 X-0.2038 Y23.5115
G01 X-0.2139 Y23.5308
G01 X-0.2279 Y23.5541
G01 X-0.2449 Y23.5787
G01 X-0.2657 Y23.6043
G01 X-0.2850 Y23.6250
G01 X-0.3057 Y23.6443
G01 X-0.3267 Y23.6616
G01 X-0.3559 Y23.6821
G01 X-0.3738 Y23.6930
G01 X-0.3985 Y23.7062
G01 X-0.4270 Y23.7189
G01 X-0.4501 Y23.7275
G01 X-0.4761 Y23.7354
G01 X-0.5034 Y23.7418
G01 X-0.5316 Y23.7464
G01 X-0.5587 Y23.7491
G01 X-0.5870 Y23.7501
G01 X-42.2430 Y23.7501
G01 X-42.2713 Y23.7491
G01 X-42.2984 Y23.7464
G01 X-42.3266 Y23.7418
G01 X-42.3539 Y23.7354
G01 X-42.3799 Y23.7275
G01 X-42.4030 Y23.7189
G01 X-42.4315 Y23.7062
G01 X-42.4508 Y23.6961
G01 X-42.4741 Y23.6821
G01 X-42.4987 Y23.6651
G01 X-42.5243 Y23.6443
G01 X-42.5450 Y23.6250
G01 X-42.5643 Y23.6043
G01 X-42.5816 Y23.5833
G01 X-42.6021 Y23.5541
G01 X-42.6130 Y23.5362
G01 X-42.6262 Y23.5115
G01 X-42.6389 Y23.4830
G01 X-42.6475 Y23.4599
G01 X-42.6554 Y23.4339
G01 X-42.6618 Y23.4066
G01 X-42.6664 Y23.3784
G01 X-42.6691 Y23.3513
G01 X-42.6701 Y23.3230
G01 X-42.6697 Y0.7034
G00 Z1.0000
G00 X-40.8909 Y13.2453
G01 F76.20
G01 Z-0.1000
G01 F200.00
G01 X-40.8875 Y13.1932
G01 X-40.8815 Y13.1415
G01 X-40.8715 Y13.0825
G01 X-40.8619 Y13.0391
G01 X-40.8483 Y12.9888
G01 X-40.8323 Y12.9392
G01 X-40.8125 Y12.8870
G01 X-40.7931 Y12.8426
G01 X-40.7700 Y12.7959
G01 X-40.7446 Y12.7504
G01 X-40.7170 Y12.7062
G01 X-40.6820 Y12.6561
G01 X-40.6555 Y12.6220
G01 X-40.6218 Y12.5823
G01 X-40.5809 Y12.5391
G01 X-40.5486 Y12.5081
G01 X-40.5080 Y12.4726
G01 X-40.4639 Y12.4380
G01 X-40.4261 Y12.4111
G01 X-40.3810 Y12.3822
G01 X-40.3371 Y12.3569
G01 X-40.2900 Y12.3328
G01 X-40.2432 Y12.3117
G01 X-40.1947 Y12.2926
G01 X-40.1453 Y12.2760
G01 X-40.0952 Y12.2617
G01 X-40.0375 Y12.2485
G01 X-39.9931 Y12.2407
G01 X-39.9397 Y12.2337
G01 X-39.8895 Y12.2297
G01 X-39.8300 Y12.2280
G01 X-39.7852 Y12.2290
G01 X-39.7332 Y12.2325
G01 X-39.6815 Y12.2385
G01 X-39.6225 Y12.2485
G01 X-39.5791 Y12.2581
G01 X-39.5288 Y12.2717
G01 X-39.4792 Y12.2877
G01 X-39.4270 Y12.3075
G01 X-39.3826 Y12.3269
G01 X-39.3359 Y12.3500
G01 X-39.2904 Y12.3754
G01 X-39.2462 Y12.4030
G01 X-39.1961 Y12.4380
G01 X-39.1620 Y12.4645
G01 X-39.1223 Y12.4982
G01 X-39.0791 Y12.5391
G01 X-39.0481 Y12.5714
G01 X-39.0126 Y12.6120
G01 X-38.9780 Y12.6561
G01 X-38.9511 Y12.6939
G01 X-38.9222 Y12.7390
G01 X-38.8969 Y12.7829
G01 X-38.8728 Y12.8300
G01 X-38.8517 Y12.8768
G01 X-38.8326 Y12.9253
G01 X-38.8160 Y12.9747
G01 X-38.8017 Y13.0248
G01 X-38.7885 Y13.0825
G01 X-38.7807 Y13.1269
G01 X-38.7737 Y13.1803
G01 X-38.7697 Y13.2305
G01 X-38.7680 Y13.2900
G01 X-38.7690 Y13.3348
G01 X-38.7725 Y13.3868
G01 X-38.7785 Y13.4385
G01 X-38.7885 Y13.4975
G01 X-38.7981 Y13.5409
G01 X-38.8117 Y13.5912
G01 X-38.8277 Y13.6408
G01 X-38.8475 Y13.6930
G01 X-38.8669 Y13.7374
G01 X-38.8900 Y13.7841
G01 X-38.9154 Y13.8296
G01 X-38.9430 Y13.8738
G01 X-38.9780 Y13.9239
G01 X-39.0045 Y13.9580
G01 X-39.0382 Y13.9977
G01 X-39.0791 Y14.0409
G01 X-39.1114 Y14.0719
G01 X-39.1520 Y14.1074
G01 X-39.1961 Y14.1420
G01 X-39.2339 Y14.1689
G01 X-39.2790 Y14.1978
G01 X-39.3229 Y14.2231
G01 X-39.3700 Y14.2472
G01 X-39.4168 Y14.2683
G01 X-39.4653 Y14.2874
G01 X-39.5147 Y14.3040
G01 X-39.5648 Y14.3183
G01 X-39.6225 Y14.3315
G01 X-39.6669 Y14.3393
G01 X-39.7203 Y14.3463
G01 X-39.7705 Y14.3503
G01 X-39.8300 Y14.3520
G01 X-39.8748 Y14.3510
G01 X-39.9268 Y14.3475
G01 X-39.9785 Y14.3415
G01 X-40.0375 Y14.3315
G01 X-40.0809 Y14.3219
G01 X-40.1312 Y14.3083
G01 X-40.1808 Y14.2923
G01 X-40.2330 Y14.2725
G01 X-40.2774 Y14.2531
G01 X-40.3241 Y14.2300
G01 X-40.3696 Y14.2046
G01 X-40.4138 Y14.1770
G01 X-40.4639 Y14.1420
G01 X-40.4980 Y14.1155
G01 X-40.5377 Y14.0818
G01 X-40.5809 Y14.0409
G01 X-40.6119 Y14.0086
G01 X-40.6474 Y13.9680
G01 X-40.6820 Y13.9239
G01 X-40.7089 Y13.8861
G01 X-40.7378 Y13.8410
G01 X-40.7631 Y13.7971
G01 X-40.7872 Y13.7500
G01 X-40.8083 Y13.7032
G01 X-40.8274 Y13.6547
G01 X-40.8440 Y13.6053
G01 X-40.8583 Y13.5552
G01 X-40.8715 Y13.4975
G01 X-40.8793 Y13.4531
G01 X-40.8863 Y13.3997
G01 X-40.8903 Y13.3495
G01 X-40.8920 Y13.2900
G01 X-40.8909 Y13.2453
G00 Z1.0000
G00 X-40.5001 Y14.8567
G01 F76.20
G01 Z-0.1000
G01 F200.00
G01 X-40.4818 Y14.8366
G01 X-40.4599 Y14.8084
G01 X-40.4447 Y14.7858
G01 X-40.4272 Y14.7548
G01 X-40.4155 Y14.7302
G01 X-40.4027 Y14.6969
G01 X-40.3948 Y14.6709
G01 X-40.3884 Y14.6436
G01 X-40.3838 Y14.6154
G01 X-40.3811 Y14.5883
G01 X-40.3801 Y14.5600
G01 X-40.3815 Y14.5255
G01 X-40.3859 Y14.4901
G01 X-40.3912 Y14.4634
G01 X-40.3965 Y14.4431
G01 X-40.4077 Y14.4092
G01 X-40.4240 Y14.3715
G01 X-40.4440 Y14.3354
G01 X-40.4651 Y14.3043
G01 X-40.4859 Y14.2787
G01 X-40.5052 Y14.2580
G01 X-40.8150 Y13.9482
G01 X-40.9919 Y13.5211
G01 X-40.9919 Y13.0589
G01 X-40.8150 Y12.6318
G01 X-40.4882 Y12.3050
G01 X-40.0611 Y12.1281
G01 X-39.5989 Y12.1281
G01 X-39.1718 Y12.3050
G01 X-38.8450 Y12.6318
G01 X-38.6681 Y13.0589
G01 X-38.6681 Y13.5211
G01 X-38.8450 Y13.9482
G01 X-39.1642 Y14.2678
G01 X-39.1782 Y14.2834
G01 X-39.1949 Y14.3043
G01 X-39.2119 Y14.3289
G01 X-39.2259 Y14.3522
G01 X-39.2419 Y14.3841
G01 X-39.2487 Y14.4000
G01 X-39.2573 Y14.4231
G01 X-39.2635 Y14.4431
G01 X-39.2688 Y14.4634
G01 X-39.2741 Y14.4901
G01 X-39.2785 Y14.5255
G01 X-39.2799 Y14.5600
G01 X-39.2785 Y14.5945
G01 X-39.2741 Y14.6299
G01 X-39.2688 Y14.6566
G01 X-39.2635 Y14.6769
G01 X-39.2523 Y14.7108
G01 X-39.2419 Y14.7359
G01 X-39.2328 Y14.7548
G01 X-39.2160 Y14.7846
G01 X-39.2037 Y14.8033
G01 X-39.1875 Y14.8252
G01 X-39.1741 Y14.8413
G01 X-39.1548 Y14.8620
G01 X-38.8450 Y15.1718
G01 X-38.6681 Y15.5989
G01 X-38.6681 Y16.0611
G01 X-38.8450 Y16.4882
G01 X-39.1718 Y16.8150
G01 X-39.5989 Y16.9919
G01 X-40.0611 Y16.9919
G01 X-40.4882 Y16.8150
G01 X-40.8150 Y16.4882
G01 X-40.9919 Y16.0611
G01 X-40.9919 Y15.5989
G01 X-40.8150 Y15.1718
G01 X-40.5001 Y14.8567
G00 Z1.0000
G00 X-40.8909 Y15.7853
G01 F76.20
G01 Z-0.1000
G01 F200.00
G01 X-40.8875 Y15.7332
G01 X-40.8815 Y15.6815
G01 X-40.8715 Y15.6225
G01 X-40.8619 Y15.5791
G01 X-40.8483 Y15.5288
G01 X-40.8323 Y15.4792
G01 X-40.8125 Y15.4270
G01 X-40.7931 Y15.3826
G01 X-40.7700 Y15.3359
G01 X-40.7446 Y15.2904
G01 X-40.7170 Y15.2462
G01 X-40.6820 Y15.1961
G01 X-40.6555 Y15.1620
G01 X-40.6218 Y15.1223
G01 X-40.5809 Y15.0791
G01 X-40.5486 Y15.0481
G01 X-40.5080 Y15.0126
G01 X-40.4639 Y14.9780
G01 X-40.4261 Y14.9511
G01 X-40.3810 Y14.9222
G01 X-40.3371 Y14.8969
G01 X-40.2900 Y14.8728
G01 X-40.2432 Y14.8517
G01 X-40.1947 Y14.8326
G01 X-40.1453 Y14.8160
G01 X-40.0952 Y14.8017
G01 X-40.0375 Y14.7885
G01 X-39.9931 Y14.7807
G01 X-39.9397 Y14.7737
G01 X-39.8895 Y14.7697
G01 X-39.8300 Y14.7680
G01 X-39.7852 Y14.7690
G01 X-39.7332 Y14.7725
G01 X-39.6815 Y14.7785
G01 X-39.6225 Y14.7885
G01 X-39.5791 Y14.7981
G01 X-39.5288 Y14.8117
G01 X-39.4792 Y14.8277
G01 X-39.4270 Y14.8475
G01 X-39.3826 Y14.8669
G01 X-39.3359 Y14.8900
G01 X-39.2904 Y14.9154
G01 X-39.2462 Y14.9430
G01 X-39.1961 Y14.9780
G01 X-39.1620 Y15.0045
G01 X-39.1223 Y15.0382
G01 X-39.0791 Y15.0791
G01 X-39.0481 Y15.1114
G01 X-39.0126 Y15.1520
G01 X-38.9780 Y15.1961
G01 X-38.9511 Y15.2339
G01 X-38.9222 Y15.2790
G01 X-38.8969 Y15.3229
G01 X-38.8728 Y15.3700
G01 X-38.8517 Y15.4168
G01 X-38.8326 Y15.4653
G01 X-38.8160 Y15.5147
G01 X-38.8017 Y15.5648
G01 X-38.7885 Y15.6225
G01 X-38.7807 Y15.6669
G01 X-38.7737 Y15.7203
G01 X-38.7697 Y15.7705
G01 X-38.7680 Y15.8300
G01 X-38.7690 Y15.8748
G01 X-38.7725 Y15.9268
G01 X-38.7785 Y15.9785
G01 X-38.7885 Y16.0375
G01 X-38.7981 Y16.0809
G01 X-38.8117 Y16.1312
G01 X-38.8277 Y16.1808
G01 X-38.8475 Y16.2330
G01 X-38.8669 Y16.2774
G01 X-38.8900 Y16.3241
G01 X-38.9154 Y16.3696
G01 X-38.9430 Y16.4138
G01 X-38.9780 Y16.4639
G01 X-39.0045 Y16.4980
G01 X-39.0382 Y16.5377
G01 X-39.0791 Y16.5810
G01 X-39.1114 Y16.6119
G01 X-39.1520 Y16.6474
G01 X-39.1961 Y16.6820
G01 X-39.2339 Y16.7089
G01 X-39.2790 Y16.7378
G01 X-39.3229 Y16.7631
G01 X-39.3700 Y16.7872
G01 X-39.4168 Y16.8083
G01 X-39.4653 Y16.8274
G01 X-39.5147 Y16.8440
G01 X-39.5648 Y16.8583
G01 X-39.6225 Y16.8715
G01 X-39.6669 Y16.8793
G01 X-39.7203 Y16.8863
G01 X-39.7705 Y16.8903
G01 X-39.8300 Y16.8920
G01 X-39.8748 Y16.8910
G01 X-39.9268 Y16.8875
G01 X-39.9785 Y16.8815
G01 X-40.0375 Y16.8715
G01 X-40.0809 Y16.8619
G01 X-40.1312 Y16.8483
G01 X-40.1808 Y16.8323
G01 X-40.2330 Y16.8125
G01 X-40.2774 Y16.7931
G01 X-40.3241 Y16.7700
G01 X-40.3696 Y16.7446
G01 X-40.4138 Y16.7170
G01 X-40.4639 Y16.6820
G01 X-40.4980 Y16.6555
G01 X-40.5377 Y16.6218
G01 X-40.5809 Y16.5810
G01 X-40.6119 Y16.5486
G01 X-40.6474 Y16.5080
G01 X-40.6820 Y16.4639
G01 X-40.7089 Y16.4261
G01 X-40.7378 Y16.3810
G01 X-40.7631 Y16.3371
G01 X-40.7872 Y16.2900
G01 X-40.8083 Y16.2432
G01 X-40.8274 Y16.1947
G01 X-40.8440 Y16.1453
G01 X-40.8583 Y16.0952
G01 X-40.8715 Y16.0375
G01 X-40.8793 Y15.9931
G01 X-40.8863 Y15.9397
G01 X-40.8903 Y15.8895
G01 X-40.8920 Y15.8300
G01 X-40.8909 Y15.7853
G00 Z1.0000
G00 X-39.0065 Y20.0901
G01 F76.20
G01 Z-0.1000
G01 F200.00
G01 X-38.9911 Y20.1043
G01 X-38.9750 Y20.1177
G01 X-38.9582 Y20.1303
G01 X-38.9409 Y20.1421
G01 X-38.9230 Y20.1530
G01 X-38.9046 Y20.1630
G01 X-38.8699 Y20.1789
G01 X-38.8467 Y20.1875
G01 X-38.8267 Y20.1937
G01 X-38.7934 Y20.2018
G01 X-38.7590 Y20.2072
G01 X-38.7381 Y20.2091
G01 X-38.7098 Y20.2101
G01 X-37.4108 Y20.2101
G01 X-37.3825 Y20.2091
G01 X-37.3634 Y20.2074
G01 X-37.3409 Y20.2043
G01 X-37.3142 Y20.1990
G01 X-37.2798 Y20.1895
G01 X-37.2508 Y20.1789
G01 X-37.2160 Y20.1630
G01 X-37.1862 Y20.1462
G01 X-37.1551 Y20.1251
G01 X-37.1295 Y20.1043
G01 X-37.1088 Y20.0850
G01 X-23.1533 Y6.1295
G01 X-23.1340 Y6.1088
G01 X-23.1206 Y6.0927
G01 X-23.1044 Y6.0708
G01 X-23.0929 Y6.0533
G01 X-23.0753 Y6.0223
G01 X-23.0662 Y6.0034
G01 X-23.0580 Y5.9841
G01 X-23.0489 Y5.9585
G01 X-23.0429 Y5.9384
G01 X-23.0365 Y5.9111
G01 X-23.0319 Y5.8829
G01 X-23.0297 Y5.8620
G01 X-23.0285 Y5.8411
G01 X-23.0285 Y5.8139
G01 X-23.0309 Y5.7801
G01 X-23.0340 Y5.7576
G01 X-23.0380 Y5.7370
G01 X-23.0429 Y5.7166
G01 X-23.0489 Y5.6965
G01 X-23.0558 Y5.6767
G01 X-23.0662 Y5.6516
G01 X-23.0753 Y5.6327
G01 X-23.0921 Y5.6029
G01 X-23.1044 Y5.5842
G01 X-23.1206 Y5.5623
G01 X-23.1340 Y5.5462
G01 X-23.1482 Y5.5308
G01 X-23.1631 Y5.5161
G01 X-23.1787 Y5.5021
G01 X-23.2069 Y5.4802
G01 X-23.2295 Y5.4650
G01 X-23.2475 Y5.4544
G01 X-23.2668 Y5.4443
G01 X-23.2953 Y5.4316
G01 X-23.3184 Y5.4230
G01 X-23.3384 Y5.4168
G01 X-23.3717 Y5.4087
G01 X-23.4061 Y5.4033
G01 X-23.4417 Y5.4007
G01 X-23.4689 Y5.4007
G01 X-23.4898 Y5.4018
G01 X-23.5107 Y5.4041
G01 X-23.5458 Y5.4102
G01 X-23.5662 Y5.4151
G01 X-23.5863 Y5.4210
G01 X-23.6061 Y5.4280
G01 X-23.6312 Y5.4384
G01 X-23.6501 Y5.4475
G01 X-23.6799 Y5.4643
G01 X-24.0970 Y5.7426
G01 X-24.5900 Y5.8407
G01 X-25.0830 Y5.7426
G01 X-25.5010 Y5.4634
G01 X-25.7802 Y5.0454
G01 X-25.8535 Y4.6768
G01 X-25.8535 Y4.1232
G01 X-25.7802 Y3.7546
G01 X-25.5010 Y3.3366
G01 X-25.4686 Y3.3147
G01 X-25.4418 Y3.2940
G01 X-25.4150 Y3.2694
G01 X-25.3957 Y3.2487
G01 X-25.3749 Y3.2231
G01 X-25.3579 Y3.1985
G01 X-25.3439 Y3.1751
G01 X-25.3338 Y3.1559
G01 X-25.3253 Y3.1376
G01 X-25.3125 Y3.1043
G01 X-25.3063 Y3.0843
G01 X-25.3010 Y3.0640
G01 X-25.2957 Y3.0373
G01 X-25.2928 Y3.0165
G01 X-25.2909 Y2.9957
G01 X-25.2899 Y2.9674
G01 X-25.2899 Y2.8950
G01 X-25.2909 Y2.8667
G01 X-25.2926 Y2.8476
G01 X-25.2957 Y2.8251
G01 X-25.3036 Y2.7840
G01 X-25.2493 Y2.5109
G01 X-25.1339 Y2.3381
G01 X-24.6358 Y1.8401
G01 X-24.4631 Y1.7247
G01 X-24.2593 Y1.6841
G01 X-21.2087 Y1.6841
G01 X-21.0050 Y1.7247
G01 X-20.7734 Y1.8794
G01 X-20.7536 Y1.9089
G01 X-20.7412 Y1.9258
G01 X-20.7240 Y1.9469
G01 X-20.7046 Y1.9675
G01 X-16.5819 Y6.0901
G01 X-16.5618 Y6.1084
G01 X-16.5337 Y6.1303
G01 X-16.5111 Y6.1454
G01 X-16.4800 Y6.1630
G01 X-16.4611 Y6.1721
G01 X-16.4360 Y6.1825
G01 X-16.4021 Y6.1937
G01 X-16.3758 Y6.2003
G01 X-16.3552 Y6.2043
G01 X-16.3344 Y6.2072
G01 X-16.3135 Y6.2091
G01 X-16.2852 Y6.2101
G01 X-5.9389 Y6.2101
G01 X-5.9106 Y6.2091
G01 X-5.8915 Y6.2074
G01 X-5.8690 Y6.2043
G01 X-5.8423 Y6.1990
G01 X-5.8079 Y6.1895
G01 X-5.7823 Y6.1803
G01 X-5.7504 Y6.1662
G01 X-5.7257 Y6.1530
G01 X-5.6956 Y6.1339
G01 X-5.6737 Y6.1177
G01 X-5.6576 Y6.1043
G01 X-5.6369 Y6.0850
G01 X-5.1480 Y5.5960
G01 X-4.5783 Y5.3601
G01 X-3.9617 Y5.3601
G01 X-3.3920 Y5.5960
G01 X-2.9560 Y6.0320
G01 X-2.7201 Y6.6017
G01 X-2.7201 Y7.2183
G01 X-2.9560 Y7.7880
G01 X-3.3920 Y8.2240
G01 X-3.4989 Y8.2683
G01 X-3.5179 Y8.2772
G01 X-3.5419 Y8.2900
G01 X-3.5721 Y8.3091
G01 X-3.5939 Y8.3253
G01 X-3.6209 Y8.3486
G01 X-3.6401 Y8.3678
G01 X-3.6634 Y8.3948
G01 X-3.6761 Y8.4116
G01 X-3.6878 Y8.4289
G01 X-3.6987 Y8.4468
G01 X-3.7088 Y8.4652
G01 X-3.7247 Y8.5000
G01 X-3.7332 Y8.5231
G01 X-3.7394 Y8.5431
G01 X-3.7475 Y8.5764
G01 X-3.7529 Y8.6108
G01 X-3.7548 Y8.6317
G01 X-3.7557 Y8.6526
G01 X-3.7548 Y8.6883
G01 X-3.7531 Y8.7074
G01 X-3.7500 Y8.7299
G01 X-3.7461 Y8.7505
G01 X-3.7411 Y8.7709
G01 X-3.7352 Y8.7910
G01 X-3.7283 Y8.8108
G01 X-3.7119 Y8.8485
G01 X-3.6919 Y8.8846
G01 X-3.6796 Y8.9033
G01 X-3.6673 Y8.9203
G01 X-3.6553 Y8.9352
G01 X-3.6401 Y8.9522
G01 X-3.6209 Y8.9714
G01 X-3.5939 Y8.9947
G01 X-3.5721 Y9.0109
G01 X-3.5419 Y9.0300
G01 X-3.5179 Y9.0428
G01 X-3.4989 Y9.0517
G01 X-3.3920 Y9.0960
G01 X-2.9560 Y9.5320
G01 X-2.7201 Y10.1017
G01 X-2.7201 Y10.7183
G01 X-2.9560 Y11.2880
G01 X-3.3920 Y11.7240
G01 X-3.4989 Y11.7683
G01 X-3.5179 Y11.7772
G01 X-3.5419 Y11.7900
G01 X-3.5721 Y11.8091
G01 X-3.5939 Y11.8253
G01 X-3.6209 Y11.8486
G01 X-3.6401 Y11.8678
G01 X-3.6634 Y11.8948
G01 X-3.6761 Y11.9116
G01 X-3.6878 Y11.9289
G01 X-3.6987 Y11.9468
G01 X-3.7088 Y11.9652
G01 X-3.7247 Y12.0000
G01 X-3.7332 Y12.0231
G01 X-3.7394 Y12.0431
G01 X-3.7475 Y12.0764
G01 X-3.7529 Y12.1108
G01 X-3.7548 Y12.1317
G01 X-3.7557 Y12.1526
G01 X-3.7548 Y12.1883
G01 X-3.7531 Y12.2074
G01 X-3.7500 Y12.2299
G01 X-3.7461 Y12.2505
G01 X-3.7411 Y12.2709
G01 X-3.7352 Y12.2910
G01 X-3.7283 Y12.3108
G01 X-3.7119 Y12.3485
G01 X-3.6919 Y12.3846
G01 X-3.6796 Y12.4033
G01 X-3.6673 Y12.4203
G01 X-3.6553 Y12.4352
G01 X-3.6401 Y12.4522
G01 X-3.6209 Y12.4714
G01 X-3.5939 Y12.4947
G01 X-3.5721 Y12.5109
G01 X-3.5419 Y12.5300
G01 X-3.5179 Y12.5428
G01 X-3.4989 Y12.5517
G01 X-3.3920 Y12.5960
G01 X-2.9560 Y13.0320
G01 X-2.7201 Y13.6017
G01 X-2.7201 Y14.2183
G01 X-2.9560 Y14.7880
G01 X-3.3920 Y15.2240
G01 X-3.4989 Y15.2683
G01 X-3.5179 Y15.2772
G01 X-3.5419 Y15.2900
G01 X-3.5721 Y15.3091
G01 X-3.5939 Y15.3253
G01 X-3.6209 Y15.3486
G01 X-3.6401 Y15.3678
G01 X-3.6634 Y15.3948
G01 X-3.6761 Y15.4116
G01 X-3.6878 Y15.4289
G01 X-3.6987 Y15.4468
G01 X-3.7088 Y15.4652
G01 X-3.7247 Y15.5000
G01 X-3.7332 Y15.5231
G01 X-3.7394 Y15.5431
G01 X-3.7475 Y15.5764
G01 X-3.7529 Y15.6108
G01 X-3.7555 Y15.6464
G01 X-3.7557 Y15.6674
G01 X-3.7548 Y15.6883
G01 X-3.7531 Y15.7074
G01 X-3.7500 Y15.7299
G01 X-3.7447 Y15.7566
G01 X-3.7394 Y15.7769
G01 X-3.7332 Y15.7969
G01 X-3.7247 Y15.8200
G01 X-3.7178 Y15.8359
G01 X-3.7088 Y15.8548
G01 X-3.6987 Y15.8732
G01 X-3.6878 Y15.8911
G01 X-3.6761 Y15.9084
G01 X-3.6634 Y15.9252
G01 X-3.6500 Y15.9413
G01 X-3.6307 Y15.9620
G01 X-3.6053 Y15.9854
G01 X-3.5844 Y16.0021
G01 X-3.5545 Y16.0224
G01 X-3.5235 Y16.0400
G01 X-3.5046 Y16.0491
G01 X-3.3920 Y16.0960
G01 X-2.9560 Y16.5320
G01 X-2.7201 Y17.1017
G01 X-2.7201 Y17.7183
G01 X-2.9560 Y18.2880
G01 X-3.3060 Y18.6379
G01 X-3.3253 Y18.6586
G01 X-3.3460 Y18.6842
G01 X-3.3664 Y18.7141
G01 X-3.3840 Y18.7451
G01 X-3.3956 Y18.7697
G01 X-3.4085 Y18.8030
G01 X-3.4164 Y18.8290
G01 X-3.4242 Y18.8638
G01 X-3.4282 Y18.8907
G01 X-3.4308 Y18.9263
G01 X-3.4310 Y18.9472
G01 X-3.4301 Y18.9682
G01 X-3.4274 Y18.9952
G01 X-3.4242 Y19.0160
G01 X-3.4199 Y19.0365
G01 X-3.4147 Y19.0568
G01 X-3.4085 Y19.0768
G01 X-3.3999 Y19.0999
G01 X-3.3872 Y19.1284
G01 X-3.3771 Y19.1476
G01 X-3.3672 Y19.1645
G01 X-3.3549 Y19.1832
G01 X-3.3425 Y19.2001
G01 X-3.3294 Y19.2164
G01 X-3.3154 Y19.2321
G01 X-3.2962 Y19.2513
G01 X-3.2692 Y19.2746
G01 X-3.2524 Y19.2872
G01 X-3.2351 Y19.2990
G01 X-3.2172 Y19.3099
G01 X-3.1988 Y19.3199
G01 X-3.1640 Y19.3358
G01 X-3.1350 Y19.3463
G01 X-3.1006 Y19.3558
G01 X-2.9640 Y19.3833
G01 X-2.8317 Y19.4717
G01 X-2.7433 Y19.6040
G01 X-2.7039 Y19.8021
G01 X-2.7039 Y22.0179
G01 X-2.7433 Y22.2160
G01 X-2.8317 Y22.3483
G01 X-2.9640 Y22.4367
G01 X-3.1621 Y22.4761
G01 X-5.3779 Y22.4761
G01 X-5.5760 Y22.4367
G01 X-5.7083 Y22.3483
G01 X-5.7967 Y22.2160
G01 X-5.8368 Y22.0145
G01 X-5.8388 Y21.9896
G01 X-5.8419 Y21.9671
G01 X-5.8459 Y21.9465
G01 X-5.8508 Y21.9261
G01 X-5.8568 Y21.9060
G01 X-5.8637 Y21.8862
G01 X-5.8741 Y21.8611
G01 X-5.8901 Y21.8292
G01 X-5.9041 Y21.8059
G01 X-5.9211 Y21.7813
G01 X-5.9419 Y21.7557
G01 X-5.9612 Y21.7350
G01 X-5.9866 Y21.7116
G01 X-6.0075 Y21.6949
G01 X-6.0374 Y21.6746
G01 X-6.0684 Y21.6570
G01 X-6.1032 Y21.6411
G01 X-6.1263 Y21.6325
G01 X-6.1463 Y21.6263
G01 X-6.1796 Y21.6182
G01 X-6.2140 Y21.6128
G01 X-6.2349 Y21.6109
G01 X-6.2632 Y21.6099
G01 X-7.9690 Y21.6099
G01 X-7.9973 Y21.6109
G01 X-8.0244 Y21.6136
G01 X-8.0451 Y21.6168
G01 X-8.0800 Y21.6236
G01 X-8.3531 Y21.5693
G01 X-8.5846 Y21.4146
G01 X-8.6045 Y21.3851
G01 X-8.6168 Y21.3682
G01 X-8.6300 Y21.3519
G01 X-8.6483 Y21.3317
G01 X-8.8300 Y21.1500
G01 X-8.8501 Y21.1317
G01 X-8.8783 Y21.1098
G01 X-8.9009 Y21.0947
G01 X-8.9319 Y21.0771
G01 X-8.9565 Y21.0655
G01 X-8.9759 Y21.0576
G01 X-9.0098 Y21.0464
G01 X-9.0362 Y21.0398
G01 X-9.0713 Y21.0337
G01 X-9.0984 Y21.0310
G01 X-9.1193 Y21.0301
G01 X-9.1403 Y21.0303
G01 X-9.1741 Y21.0327
G01 X-9.1966 Y21.0358
G01 X-9.2172 Y21.0398
G01 X-9.2376 Y21.0447
G01 X-9.2577 Y21.0507
G01 X-9.2775 Y21.0576
G01 X-9.3026 Y21.0680
G01 X-9.3215 Y21.0771
G01 X-9.3399 Y21.0871
G01 X-9.3578 Y21.0980
G01 X-9.3751 Y21.1098
G01 X-9.3919 Y21.1224
G01 X-9.4080 Y21.1358
G01 X-9.4287 Y21.1551
G01 X-9.4521 Y21.1806
G01 X-9.4740 Y21.2087
G01 X-9.4858 Y21.2260
G01 X-9.4967 Y21.2439
G01 X-9.5099 Y21.2686
G01 X-9.5213 Y21.2937
G01 X-9.6350 Y21.5682
G01 X-9.9618 Y21.8950
G01 X-10.3889 Y22.0719
G01 X-10.8511 Y22.0719
G01 X-11.2782 Y21.8950
G01 X-11.6050 Y21.5682
G01 X-11.7819 Y21.1411
G01 X-11.7819 Y20.6789
G01 X-11.6050 Y20.2518
G01 X-11.2858 Y19.9322
G01 X-11.2718 Y19.9166
G01 X-11.2551 Y19.8957
G01 X-11.2381 Y19.8711
G01 X-11.2241 Y19.8478
G01 X-11.2081 Y19.8159
G01 X-11.1977 Y19.7908
G01 X-11.1865 Y19.7569
G01 X-11.1784 Y19.7236
G01 X-11.1730 Y19.6892
G01 X-11.1704 Y19.6536
G01 X-11.1704 Y19.6264
G01 X-11.1715 Y19.6055
G01 X-11.1738 Y19.5846
G01 X-11.1784 Y19.5564
G01 X-11.1848 Y19.5291
G01 X-11.1927 Y19.5031
G01 X-11.2013 Y19.4800
G01 X-11.2140 Y19.4515
G01 X-11.2272 Y19.4268
G01 X-11.2381 Y19.4089
G01 X-11.2586 Y19.3797
G01 X-11.2759 Y19.3587
G01 X-11.2952 Y19.3380
G01 X-11.6050 Y19.0282
G01 X-11.7819 Y18.6011
G01 X-11.7819 Y18.1389
G01 X-11.6050 Y17.7118
G01 X-11.2858 Y17.3922
G01 X-11.2718 Y17.3766
G01 X-11.2551 Y17.3557
G01 X-11.2381 Y17.3311
G01 X-11.2272 Y17.3132
G01 X-11.2140 Y17.2885
G01 X-11.2012 Y17.2600
G01 X-11.1907 Y17.2310
G01 X-11.1812 Y17.1966
G01 X-11.1770 Y17.1761
G01 X-11.1738 Y17.1554
G01 X-11.1711 Y17.1283
G01 X-11.1701 Y17.1000
G01 X-11.1715 Y17.0655
G01 X-11.1759 Y17.0301
G01 X-11.1812 Y17.0034
G01 X-11.1865 Y16.9831
G01 X-11.1977 Y16.9492
G01 X-11.2081 Y16.9241
G01 X-11.2241 Y16.8922
G01 X-11.2381 Y16.8689
G01 X-11.2551 Y16.8443
G01 X-11.2759 Y16.8187
G01 X-11.2952 Y16.7980
G01 X-11.6050 Y16.4882
G01 X-11.7819 Y16.0611
G01 X-11.7819 Y15.5989
G01 X-11.6050 Y15.1718
G01 X-11.2858 Y14.8522
G01 X-11.2718 Y14.8366
G01 X-11.2551 Y14.8157
G01 X-11.2381 Y14.7911
G01 X-11.2272 Y14.7732
G01 X-11.2140 Y14.7485
G01 X-11.2013 Y14.7200
G01 X-11.1907 Y14.6910
G01 X-11.1812 Y14.6566
G01 X-11.1759 Y14.6299
G01 X-11.1715 Y14.5945
G01 X-11.1701 Y14.5600
G01 X-11.1711 Y14.5317
G01 X-11.1738 Y14.5046
G01 X-11.1799 Y14.4695
G01 X-11.1865 Y14.4431
G01 X-11.1977 Y14.4092
G01 X-11.2081 Y14.3841
G01 X-11.2241 Y14.3522
G01 X-11.2381 Y14.3289
G01 X-11.2551 Y14.3043
G01 X-11.2759 Y14.2787
G01 X-11.2952 Y14.2580
G01 X-11.6050 Y13.9482
G01 X-11.7819 Y13.5211
G01 X-11.7819 Y13.0589
G01 X-11.6050 Y12.6318
G01 X-11.2858 Y12.3122
G01 X-11.2718 Y12.2966
G01 X-11.2551 Y12.2757
G01 X-11.2381 Y12.2511
G01 X-11.2272 Y12.2332
G01 X-11.2140 Y12.2085
G01 X-11.2013 Y12.1800
G01 X-11.1907 Y12.1510
G01 X-11.1812 Y12.1166
G01 X-11.1759 Y12.0899
G01 X-11.1715 Y12.0545
G01 X-11.1704 Y12.0336
G01 X-11.1704 Y12.0064
G01 X-11.1728 Y11.9726
G01 X-11.1770 Y11.9439
G01 X-11.1848 Y11.9091
G01 X-11.1927 Y11.8831
G01 X-11.2055 Y11.8498
G01 X-11.2172 Y11.8252
G01 X-11.2340 Y11.7954
G01 X-11.2499 Y11.7716
G01 X-11.2706 Y11.7448
G01 X-11.2952 Y11.7180
G01 X-11.6050 Y11.4082
G01 X-11.7819 Y10.9811
G01 X-11.7819 Y10.5189
G01 X-11.6823 Y10.2784
G01 X-11.6724 Y10.2519
G01 X-11.6645 Y10.2259
G01 X-11.6567 Y10.1911
G01 X-11.6527 Y10.1642
G01 X-11.6501 Y10.1286
G01 X-11.6501 Y10.1014
G01 X-11.6513 Y10.0805
G01 X-11.6535 Y10.0596
G01 X-11.6596 Y10.0245
G01 X-11.6645 Y10.0041
G01 X-11.6704 Y9.9840
G01 X-11.6810 Y9.9550
G01 X-11.6969 Y9.9202
G01 X-11.7137 Y9.8904
G01 X-11.7348 Y9.8593
G01 X-11.7503 Y9.8398
G01 X-11.7655 Y9.8228
G01 X-11.7802 Y9.8079
G01 X-11.8003 Y9.7896
G01 X-11.8166 Y9.7764
G01 X-11.8336 Y9.7641
G01 X-11.8637 Y9.7450
G01 X-11.8821 Y9.7350
G01 X-11.9067 Y9.7233
G01 X-11.9261 Y9.7155
G01 X-11.9459 Y9.7085
G01 X-11.9660 Y9.7026
G01 X-11.9864 Y9.6977
G01 X-12.0070 Y9.6937
G01 X-12.0424 Y9.6894
G01 X-12.0633 Y9.6882
G01 X-18.9670 Y9.6879
G01 X-18.9953 Y9.6889
G01 X-19.0224 Y9.6916
G01 X-19.0431 Y9.6948
G01 X-19.0780 Y9.7016
G01 X-19.3511 Y9.6473
G01 X-19.5826 Y9.4926
G01 X-19.6025 Y9.4631
G01 X-19.6148 Y9.4462
G01 X-19.6321 Y9.4251
G01 X-19.6514 Y9.4044
G01 X-21.7578 Y7.2984
G01 X-21.7734 Y7.2844
G01 X-21.7897 Y7.2713
G01 X-21.8189 Y7.2507
G01 X-21.8368 Y7.2398
G01 X-21.8552 Y7.2298
G01 X-21.8798 Y7.2182
G01 X-21.9131 Y7.2053
G01 X-21.9331 Y7.1991
G01 X-21.9534 Y7.1939
G01 X-21.9801 Y7.1885
G01 X-22.0008 Y7.1856
G01 X-22.0217 Y7.1837
G01 X-22.0426 Y7.1828
G01 X-22.0636 Y7.1830
G01 X-22.0974 Y7.1854
G01 X-22.1199 Y7.1885
G01 X-22.1405 Y7.1925
G01 X-22.1609 Y7.1974
G01 X-22.1810 Y7.2034
G01 X-22.2008 Y7.2103
G01 X-22.2202 Y7.2182
G01 X-22.2448 Y7.2298
G01 X-22.2632 Y7.2398
G01 X-22.2811 Y7.2507
G01 X-22.2984 Y7.2625
G01 X-22.3152 Y7.2751
G01 X-22.3313 Y7.2885
G01 X-22.3520 Y7.3078
G01 X-36.3706 Y21.3264
G01 X-36.3899 Y21.3471
G01 X-36.4072 Y21.3682
G01 X-36.4195 Y21.3851
G01 X-36.4394 Y21.4146
G01 X-36.6709 Y21.5693
G01 X-36.9440 Y21.6236
G01 X-36.9789 Y21.6168
G01 X-36.9996 Y21.6136
G01 X-37.0267 Y21.6109
G01 X-37.0550 Y21.6099
G01 X-38.7098 Y21.6099
G01 X-38.7381 Y21.6109
G01 X-38.7572 Y21.6126
G01 X-38.7934 Y21.6182
G01 X-38.8207 Y21.6246
G01 X-38.8408 Y21.6305
G01 X-38.8606 Y21.6375
G01 X-38.8857 Y21.6479
G01 X-38.9046 Y21.6570
G01 X-38.9230 Y21.6670
G01 X-38.9409 Y21.6779
G01 X-38.9655 Y21.6949
G01 X-38.9850 Y21.7104
G01 X-39.0065 Y21.7299
G01 X-39.1718 Y21.8950
G01 X-39.5989 Y22.0719
G01 X-40.0611 Y22.0719
G01 X-40.4882 Y21.8950
G01 X-40.8150 Y21.5682
G01 X-40.9919 Y21.1411
G01 X-40.9919 Y20.6789
G01 X-40.8150 Y20.2518
G01 X-40.4882 Y19.9250
G01 X-40.0611 Y19.7481
G01 X-39.5989 Y19.7481
G01 X-39.1718 Y19.9250
G01 X-39.0065 Y20.0901
G00 Z1.0000
G00 X-40.8909 Y20.8653
G01 F76.20
G01 Z-0.1000
G01 F200.00
G01 X-40.8861 Y20.7986
G01 X-40.8793 Y20.7469
G01 X-40.8701 Y20.6956
G01 X-40.8583 Y20.6448
G01 X-40.8440 Y20.5947
G01 X-40.8274 Y20.5453
G01 X-40.8125 Y20.5070
G01 X-40.7931 Y20.4626
G01 X-40.7700 Y20.4159
G01 X-40.7370 Y20.3578
G01 X-40.7089 Y20.3139
G01 X-40.6820 Y20.2761
G01 X-40.6555 Y20.2420
G01 X-40.6218 Y20.2023
G01 X-40.5757 Y20.1539
G01 X-40.5377 Y20.1182
G01 X-40.4980 Y20.0845
G01 X-40.4639 Y20.0580
G01 X-40.4261 Y20.0311
G01 X-40.3810 Y20.0022
G01 X-40.3371 Y19.9769
G01 X-40.2774 Y19.9469
G01 X-40.2330 Y19.9275
G01 X-40.1808 Y19.9077
G01 X-40.1312 Y19.8917
G01 X-40.0809 Y19.8781
G01 X-40.0375 Y19.8685
G01 X-39.9931 Y19.8607
G01 X-39.9268 Y19.8525
G01 X-39.8748 Y19.8490
G01 X-39.8300 Y19.8480
G01 X-39.7705 Y19.8497
G01 X-39.7186 Y19.8539
G01 X-39.6815 Y19.8585
G01 X-39.6225 Y19.8685
G01 X-39.5648 Y19.8817
G01 X-39.5147 Y19.8960
G01 X-39.4792 Y19.9077
G01 X-39.4168 Y19.9317
G01 X-39.3700 Y19.9528
G01 X-39.3359 Y19.9700
G01 X-39.2778 Y20.0030
G01 X-39.2339 Y20.0311
G01 X-39.1961 Y20.0580
G01 X-39.1620 Y20.0845
G01 X-39.1114 Y20.1281
G01 X-39.0791 Y20.1591
G01 X-39.0481 Y20.1914
G01 X-39.0045 Y20.2420
G01 X-38.9780 Y20.2761
G01 X-38.9540 Y20.3098
G01 X-37.1926 Y20.3098
G01 X-22.6502 Y5.7674
G01 X-22.6502 Y5.5492
G01 X-22.7025 Y5.5157
G01 X-22.7444 Y5.4861
G01 X-22.7824 Y5.4565
G01 X-22.8259 Y5.4194
G01 X-22.8728 Y5.3752
G01 X-22.9072 Y5.3392
G01 X-22.9541 Y5.2848
G01 X-22.9836 Y5.2468
G01 X-23.0133 Y5.2049
G01 X-23.0450 Y5.1557
G01 X-23.0727 Y5.1074
G01 X-23.0990 Y5.0558
G01 X-23.1221 Y5.0045
G01 X-23.1430 Y4.9513
G01 X-23.1613 Y4.8972
G01 X-23.1804 Y4.8280
G01 X-23.1926 Y4.7722
G01 X-23.2020 Y4.7158
G01 X-23.2072 Y4.6738
G01 X-23.2117 Y4.6168
G01 X-23.2136 Y4.5524
G01 X-23.2135 Y4.2402
G01 X-23.2117 Y4.1832
G01 X-23.2086 Y4.1409
G01 X-23.2020 Y4.0842
G01 X-23.1897 Y4.0134
G01 X-23.1769 Y3.9577
G01 X-23.1655 Y3.9169
G01 X-23.1430 Y3.8487
G01 X-23.1264 Y3.8057
G01 X-23.0990 Y3.7442
G01 X-23.0796 Y3.7056
G01 X-23.0518 Y3.6558
G01 X-23.0133 Y3.5951
G01 X-22.9836 Y3.5532
G01 X-22.9541 Y3.5152
G01 X-22.9072 Y3.4608
G01 X-22.8728 Y3.4248
G01 X-22.8259 Y3.3806
G01 X-22.7924 Y3.3517
G01 X-22.7490 Y3.3174
G01 X-22.6903 Y3.2761
G01 X-22.6533 Y3.2526
G01 X-22.6050 Y3.2249
G01 X-22.5408 Y3.1927
G01 X-22.4919 Y3.1712
G01 X-22.4489 Y3.1546
G01 X-22.3807 Y3.1321
G01 X-22.3256 Y3.1172
G01 X-22.2773 Y3.1064
G01 X-22.2280 Y3.0978
G01 X-22.1696 Y3.0902
G01 X-22.1144 Y3.0859
G01 X-22.0574 Y3.0841
G01 X-22.0003 Y3.0851
G01 X-21.9433 Y3.0890
G01 X-21.8720 Y3.0978
G01 X-21.8227 Y3.1064
G01 X-21.7601 Y3.1207
G01 X-21.7052 Y3.1363
G01 X-21.6511 Y3.1546
G01 X-21.6081 Y3.1712
G01 X-21.5466 Y3.1986
G01 X-21.5080 Y3.2180
G01 X-21.4582 Y3.2458
G01 X-21.4097 Y3.2761
G01 X-21.3556 Y3.3139
G01 X-21.3176 Y3.3435
G01 X-21.2741 Y3.3806
G01 X-21.2272 Y3.4248
G01 X-21.1928 Y3.4608
G01 X-21.1459 Y3.5152
G01 X-21.1164 Y3.5532
G01 X-21.0867 Y3.5951
G01 X-21.0550 Y3.6443
G01 X-21.0273 Y3.6926
G01 X-21.0010 Y3.7442
G01 X-20.9779 Y3.7955
G01 X-20.9570 Y3.8487
G01 X-20.9387 Y3.9028
G01 X-20.9196 Y3.9720
G01 X-20.9088 Y4.0203
G01 X-20.9002 Y4.0696
G01 X-20.8914 Y4.1409
G01 X-20.8875 Y4.1979
G01 X-20.8865 Y4.2402
G01 X-20.8864 Y4.5524
G01 X-20.8883 Y4.6168
G01 X-20.8928 Y4.6738
G01 X-20.9002 Y4.7304
G01 X-20.9088 Y4.7797
G01 X-20.9231 Y4.8423
G01 X-20.9387 Y4.8972
G01 X-20.9570 Y4.9513
G01 X-20.9736 Y4.9943
G01 X-21.0010 Y5.0558
G01 X-21.0273 Y5.1074
G01 X-21.0558 Y5.1569
G01 X-21.0867 Y5.2049
G01 X-21.1164 Y5.2468
G01 X-21.1459 Y5.2848
G01 X-21.1830 Y5.3283
G01 X-21.2272 Y5.3752
G01 X-21.2632 Y5.4096
G01 X-21.3076 Y5.4483
G01 X-21.3556 Y5.4861
G01 X-21.3975 Y5.5157
G01 X-21.4498 Y5.5492
G01 X-21.4498 Y5.7674
G01 X-18.8294 Y8.3878
G01 X-9.1920 Y8.3878
G01 X-9.1699 Y8.3883
G01 X-9.1405 Y8.3901
G01 X-9.0967 Y8.3955
G01 X-9.0533 Y8.4041
G01 X-9.0108 Y8.4159
G01 X-8.9829 Y8.4255
G01 X-8.9421 Y8.4424
G01 X-8.9156 Y8.4553
G01 X-8.8772 Y8.4771
G01 X-8.8525 Y8.4932
G01 X-8.8170 Y8.5195
G01 X-8.7945 Y8.5384
G01 X-8.7676 Y8.5636
G01 X-4.7788 Y12.5525
G01 X-4.7515 Y12.5424
G01 X-4.6979 Y12.5247
G01 X-4.6294 Y12.5053
G01 X-4.5532 Y12.4879
G01 X-4.4900 Y12.4769
G01 X-4.4177 Y12.4676
G01 X-4.3485 Y12.4622
G01 X-4.2700 Y12.4600
G01 X-4.1915 Y12.4622
G01 X-4.1206 Y12.4678
G01 X-4.0500 Y12.4769
G01 X-3.9944 Y12.4865
G01 X-3.9248 Y12.5018
G01 X-3.8562 Y12.5204
G01 X-3.7885 Y12.5424
G01 X-3.7185 Y12.5690
G01 X-3.6441 Y12.6021
G01 X-3.5800 Y12.6348
G01 X-3.5183 Y12.6702
G01 X-3.4584 Y12.7085
G01 X-3.4122 Y12.7410
G01 X-3.3559 Y12.7845
G01 X-3.3018 Y12.8307
G01 X-3.2447 Y12.8847
G01 X-3.2006 Y12.9308
G01 X-3.1527 Y12.9859
G01 X-3.1063 Y13.0449
G01 X-3.0685 Y13.0984
G01 X-3.0294 Y13.1595
G01 X-2.9878 Y13.2330
G01 X-2.9561 Y13.2967
G01 X-2.9290 Y13.3585
G01 X-2.9073 Y13.4146
G01 X-2.8847 Y13.4821
G01 X-2.8653 Y13.5506
G01 X-2.8479 Y13.6268
G01 X-2.8347 Y13.7045
G01 X-2.8276 Y13.7623
G01 X-2.8222 Y13.8315
G01 X-2.8200 Y13.9100
G01 X-2.8222 Y13.9885
G01 X-2.8278 Y14.0594
G01 X-2.8347 Y14.1155
G01 X-2.8479 Y14.1932
G01 X-2.8653 Y14.2694
G01 X-2.8847 Y14.3379
G01 X-2.9024 Y14.3915
G01 X-2.9290 Y14.4615
G01 X-2.9624 Y14.5366
G01 X-2.9948 Y14.6000
G01 X-3.0226 Y14.6491
G01 X-3.0685 Y14.7216
G01 X-3.1063 Y14.7751
G01 X-3.1445 Y14.8241
G01 X-3.1907 Y14.8782
G01 X-3.2447 Y14.9353
G01 X-3.3018 Y14.9893
G01 X-3.3459 Y15.0273
G01 X-3.4004 Y15.0702
G01 X-3.4706 Y15.1196
G01 X-3.5195 Y15.1506
G01 X-3.5800 Y15.1852
G01 X-3.6441 Y15.2179
G01 X-3.7185 Y15.2510
G01 X-3.7885 Y15.2776
G01 X-3.8562 Y15.2996
G01 X-3.9106 Y15.3147
G01 X-3.9868 Y15.3321
G01 X-4.0645 Y15.3453
G01 X-4.1223 Y15.3524
G01 X-4.1915 Y15.3578
G01 X-4.2700 Y15.3600
G01 X-4.3485 Y15.3578
G01 X-4.4194 Y15.3522
G01 X-4.4755 Y15.3453
G01 X-4.5532 Y15.3321
G01 X-4.6294 Y15.3147
G01 X-4.6979 Y15.2953
G01 X-4.7515 Y15.2776
G01 X-4.8215 Y15.2510
G01 X-4.8833 Y15.2239
G01 X-4.9470 Y15.1922
G01 X-5.0091 Y15.1574
G01 X-5.0694 Y15.1196
G01 X-5.1351 Y15.0737
G01 X-5.1841 Y15.0355
G01 X-5.2382 Y14.9893
G01 X-5.2953 Y14.9353
G01 X-5.3394 Y14.8892
G01 X-5.3873 Y14.8341
G01 X-5.4337 Y14.7751
G01 X-5.4715 Y14.7216
G01 X-5.5106 Y14.6605
G01 X-5.5522 Y14.5870
G01 X-5.5839 Y14.5233
G01 X-5.6110 Y14.4615
G01 X-5.6376 Y14.3915
G01 X-5.6596 Y14.3238
G01 X-5.6782 Y14.2552
G01 X-5.6921 Y14.1932
G01 X-5.7053 Y14.1155
G01 X-5.7136 Y14.0448
G01 X-5.7185 Y13.9738
G01 X-5.7200 Y13.9100
G01 X-5.7178 Y13.8315
G01 X-5.7122 Y13.7606
G01 X-5.7031 Y13.6900
G01 X-5.6921 Y13.6268
G01 X-5.6747 Y13.5506
G01 X-5.6553 Y13.4821
G01 X-5.6376 Y13.4285
G01 X-5.6275 Y13.4012
G01 X-9.4406 Y9.5881
G01 X-19.0780 Y9.5881
G01 X-19.1148 Y9.5870
G01 X-19.1441 Y9.5844
G01 X-19.1733 Y9.5805
G01 X-19.2023 Y9.5751
G01 X-19.2451 Y9.5644
G01 X-19.2732 Y9.5555
G01 X-19.3144 Y9.5396
G01 X-19.3544 Y9.5207
G01 X-19.3802 Y9.5065
G01 X-19.4175 Y9.4828
G01 X-19.4530 Y9.4565
G01 X-19.4864 Y9.4277
G01 X-22.0500 Y6.8647
G01 X-36.5196 Y21.3344
G01 X-36.5465 Y21.3596
G01 X-36.5852 Y21.3911
G01 X-36.6167 Y21.4130
G01 X-36.6546 Y21.4357
G01 X-36.6941 Y21.4556
G01 X-36.7349 Y21.4725
G01 X-36.7769 Y21.4864
G01 X-36.8053 Y21.4939
G01 X-36.8266 Y21.4986
G01 X-36.8632 Y21.5046
G01 X-36.9072 Y21.5090
G01 X-36.9440 Y21.5102
G01 X-38.9540 Y21.5102
G01 X-38.9780 Y21.5439
G01 X-39.0045 Y21.5780
G01 X-39.0481 Y21.6286
G01 X-39.0791 Y21.6609
G01 X-39.1114 Y21.6919
G01 X-39.1520 Y21.7274
G01 X-39.2033 Y21.7673
G01 X-39.2462 Y21.7970
G01 X-39.2778 Y21.8170
G01 X-39.3359 Y21.8500
G01 X-39.3826 Y21.8731
G01 X-39.4270 Y21.8925
G01 X-39.4653 Y21.9074
G01 X-39.5147 Y21.9240
G01 X-39.5791 Y21.9419
G01 X-39.6225 Y21.9515
G01 X-39.6669 Y21.9593
G01 X-39.7332 Y21.9675
G01 X-39.7852 Y21.9710
G01 X-39.8226 Y21.9719
G01 X-39.8895 Y21.9703
G01 X-39.9414 Y21.9661
G01 X-39.9931 Y21.9593
G01 X-40.0375 Y21.9515
G01 X-40.0952 Y21.9383
G01 X-40.1453 Y21.9240
G01 X-40.1947 Y21.9074
G01 X-40.2330 Y21.8925
G01 X-40.2774 Y21.8731
G01 X-40.3241 Y21.8500
G01 X-40.3696 Y21.8246
G01 X-40.4138 Y21.7970
G01 X-40.4639 Y21.7620
G01 X-40.4980 Y21.7355
G01 X-40.5377 Y21.7018
G01 X-40.5809 Y21.6610
G01 X-40.6119 Y21.6286
G01 X-40.6462 Y21.5894
G01 X-40.6820 Y21.5439
G01 X-40.7089 Y21.5061
G01 X-40.7378 Y21.4610
G01 X-40.7631 Y21.4171
G01 X-40.7931 Y21.3574
G01 X-40.8125 Y21.3130
G01 X-40.8323 Y21.2608
G01 X-40.8483 Y21.2112
G01 X-40.8619 Y21.1609
G01 X-40.8715 Y21.1175
G01 X-40.8815 Y21.0585
G01 X-40.8875 Y21.0068
G01 X-40.8910 Y20.9548
G01 X-40.8920 Y20.9100
G01 X-40.8909 Y20.8653
G00 Z1.0000
M05
G00 Z1.0000
G00 Z20.00
G00 X0.0 Y0.0

