(G-CODE GENERATED BY FLATCAM v8.99 - www.flatcam.org - Version Date: 2019/12/15)

(Name: cut_cutout_cnc)
(Type: G-code from Geometry)
(Units: MM)

(Created on Monday, 13 April 2020 at 17:36)

(TOOL DIAMETER: 1.0 mm)
(Feedrate: 200.0 mm/min)
(Feedrate_Z: 76.2 mm/min)
(Feedrate rapids 76.2 mm/min)

(Z_Cut: -1.8 mm)
(DepthPerCut: 0.6 mm <=>3 passes)
(Z_Move: 1.0 mm)
(Z Toolchange: 20.0 mm)
(X,Y Toolchange: 0.0000, 0.0000 mm)
(Z Start: None mm)
(Z End: 20.0 mm)
(Steps per circle: 128)
(Preprocessor Geometry: default)

(X range:  -43.5750 ...    0.5750  mm)
(Y range:   -0.5750 ...   24.5750  mm)

(Spindle Speed: 12000 RPM)
G21
G90
G94




G01 F200.00
G00 Z1.0000

M03 S12000
G00 X0.5749 Y-0.0123
G01 F76.20
G01 Z-0.6000
G01 F200.00
G01 X0.5736 Y-0.0405
G01 X0.5709 Y-0.0686
G01 X0.5669 Y-0.0965
G01 X0.5614 Y-0.1242
G01 X0.5547 Y-0.1516
G01 X0.5466 Y-0.1786
G01 X0.5371 Y-0.2052
G01 X0.5264 Y-0.2313
G01 X0.5150 Y-0.2557
G01 X0.5012 Y-0.2818
G01 X0.4868 Y-0.3061
G01 X0.4712 Y-0.3296
G01 X0.4544 Y-0.3523
G01 X0.4366 Y-0.3742
G01 X0.4066 Y-0.4066
G01 X0.3742 Y-0.4366
G01 X0.3523 Y-0.4544
G01 X0.3296 Y-0.4712
G01 X0.3061 Y-0.4868
G01 X0.2818 Y-0.5012
G01 X0.2557 Y-0.5150
G01 X0.2313 Y-0.5264
G01 X0.2087 Y-0.5358
G01 X0.1821 Y-0.5454
G01 X0.1551 Y-0.5537
G01 X0.1278 Y-0.5606
G01 X0.1001 Y-0.5662
G01 X0.0722 Y-0.5705
G01 X0.0441 Y-0.5733
G01 X0.0160 Y-0.5748
G01 X-20.5000 Y-0.5750
G00 X-20.5000 Y-0.5750
G01 F76.20
G01 Z-1.2000
G01 F200.00
G01 X0.0160 Y-0.5748
G01 X0.0441 Y-0.5733
G01 X0.0722 Y-0.5705
G01 X0.1001 Y-0.5662
G01 X0.1278 Y-0.5606
G01 X0.1551 Y-0.5537
G01 X0.1821 Y-0.5454
G01 X0.2087 Y-0.5358
G01 X0.2313 Y-0.5264
G01 X0.2557 Y-0.5150
G01 X0.2818 Y-0.5012
G01 X0.3061 Y-0.4868
G01 X0.3296 Y-0.4712
G01 X0.3523 Y-0.4544
G01 X0.3742 Y-0.4366
G01 X0.4066 Y-0.4066
G01 X0.4366 Y-0.3742
G01 X0.4544 Y-0.3523
G01 X0.4712 Y-0.3296
G01 X0.4868 Y-0.3061
G01 X0.5012 Y-0.2818
G01 X0.5150 Y-0.2557
G01 X0.5264 Y-0.2313
G01 X0.5371 Y-0.2052
G01 X0.5466 Y-0.1786
G01 X0.5547 Y-0.1516
G01 X0.5614 Y-0.1242
G01 X0.5669 Y-0.0965
G01 X0.5709 Y-0.0686
G01 X0.5736 Y-0.0405
G01 X0.5749 Y-0.0123
G00 X0.5749 Y-0.0123
G01 F76.20
G01 Z-1.8000
G01 F200.00
G01 X0.5736 Y-0.0405
G01 X0.5709 Y-0.0686
G01 X0.5669 Y-0.0965
G01 X0.5614 Y-0.1242
G01 X0.5547 Y-0.1516
G01 X0.5466 Y-0.1786
G01 X0.5371 Y-0.2052
G01 X0.5264 Y-0.2313
G01 X0.5150 Y-0.2557
G01 X0.5012 Y-0.2818
G01 X0.4868 Y-0.3061
G01 X0.4712 Y-0.3296
G01 X0.4544 Y-0.3523
G01 X0.4366 Y-0.3742
G01 X0.4066 Y-0.4066
G01 X0.3742 Y-0.4366
G01 X0.3523 Y-0.4544
G01 X0.3296 Y-0.4712
G01 X0.3061 Y-0.4868
G01 X0.2818 Y-0.5012
G01 X0.2557 Y-0.5150
G01 X0.2313 Y-0.5264
G01 X0.2087 Y-0.5358
G01 X0.1821 Y-0.5454
G01 X0.1551 Y-0.5537
G01 X0.1278 Y-0.5606
G01 X0.1001 Y-0.5662
G01 X0.0722 Y-0.5705
G01 X0.0441 Y-0.5733
G01 X0.0160 Y-0.5748
G01 X-20.5000 Y-0.5750
G00 Z1.0000
G00 X-22.5000 Y-0.5750
G01 F76.20
G01 Z-0.6000
G01 F200.00
G01 X-43.0000 Y-0.5750
G01 X-43.0405 Y-0.5736
G01 X-43.0722 Y-0.5705
G01 X-43.1127 Y-0.5639
G01 X-43.1516 Y-0.5547
G01 X-43.1821 Y-0.5454
G01 X-43.2144 Y-0.5336
G01 X-43.2557 Y-0.5150
G01 X-43.2818 Y-0.5012
G01 X-43.3092 Y-0.4848
G01 X-43.3447 Y-0.4603
G01 X-43.3742 Y-0.4366
G01 X-43.3952 Y-0.4177
G01 X-43.4152 Y-0.3978
G01 X-43.4366 Y-0.3742
G01 X-43.4603 Y-0.3447
G01 X-43.4868 Y-0.3061
G01 X-43.4994 Y-0.2850
G01 X-43.5128 Y-0.2602
G01 X-43.5264 Y-0.2313
G01 X-43.5371 Y-0.2052
G01 X-43.5454 Y-0.1821
G01 X-43.5537 Y-0.1551
G01 X-43.5606 Y-0.1278
G01 X-43.5669 Y-0.0965
G01 X-43.5709 Y-0.0686
G01 X-43.5733 Y-0.0441
G01 X-43.5748 Y-0.0160
G01 X-43.5750 Y11.0000
G00 X-43.5750 Y11.0000
G01 F76.20
G01 Z-1.2000
G01 F200.00
G01 X-43.5748 Y-0.0160
G01 X-43.5733 Y-0.0441
G01 X-43.5709 Y-0.0686
G01 X-43.5669 Y-0.0965
G01 X-43.5606 Y-0.1278
G01 X-43.5537 Y-0.1551
G01 X-43.5454 Y-0.1821
G01 X-43.5371 Y-0.2052
G01 X-43.5264 Y-0.2313
G01 X-43.5128 Y-0.2602
G01 X-43.4994 Y-0.2850
G01 X-43.4868 Y-0.3061
G01 X-43.4603 Y-0.3447
G01 X-43.4366 Y-0.3742
G01 X-43.4152 Y-0.3978
G01 X-43.3952 Y-0.4177
G01 X-43.3742 Y-0.4366
G01 X-43.3447 Y-0.4603
G01 X-43.3092 Y-0.4848
G01 X-43.2818 Y-0.5012
G01 X-43.2557 Y-0.5150
G01 X-43.2144 Y-0.5336
G01 X-43.1821 Y-0.5454
G01 X-43.1516 Y-0.5547
G01 X-43.1127 Y-0.5639
G01 X-43.0722 Y-0.5705
G01 X-43.0405 Y-0.5736
G01 X-43.0000 Y-0.5750
G01 X-22.5000 Y-0.5750
G00 X-22.5000 Y-0.5750
G01 F76.20
G01 Z-1.8000
G01 F200.00
G01 X-43.0000 Y-0.5750
G01 X-43.0405 Y-0.5736
G01 X-43.0722 Y-0.5705
G01 X-43.1127 Y-0.5639
G01 X-43.1516 Y-0.5547
G01 X-43.1821 Y-0.5454
G01 X-43.2144 Y-0.5336
G01 X-43.2557 Y-0.5150
G01 X-43.2818 Y-0.5012
G01 X-43.3092 Y-0.4848
G01 X-43.3447 Y-0.4603
G01 X-43.3742 Y-0.4366
G01 X-43.3952 Y-0.4177
G01 X-43.4152 Y-0.3978
G01 X-43.4366 Y-0.3742
G01 X-43.4603 Y-0.3447
G01 X-43.4868 Y-0.3061
G01 X-43.4994 Y-0.2850
G01 X-43.5128 Y-0.2602
G01 X-43.5264 Y-0.2313
G01 X-43.5371 Y-0.2052
G01 X-43.5454 Y-0.1821
G01 X-43.5537 Y-0.1551
G01 X-43.5606 Y-0.1278
G01 X-43.5669 Y-0.0965
G01 X-43.5709 Y-0.0686
G01 X-43.5733 Y-0.0441
G01 X-43.5748 Y-0.0160
G01 X-43.5750 Y11.0000
G00 Z1.0000
G00 X-43.5750 Y13.0000
G01 F76.20
G01 Z-0.6000
G01 F200.00
G01 X-43.5748 Y24.0160
G01 X-43.5733 Y24.0441
G01 X-43.5709 Y24.0686
G01 X-43.5669 Y24.0965
G01 X-43.5606 Y24.1278
G01 X-43.5537 Y24.1551
G01 X-43.5454 Y24.1821
G01 X-43.5371 Y24.2052
G01 X-43.5264 Y24.2313
G01 X-43.5128 Y24.2602
G01 X-43.4994 Y24.2850
G01 X-43.4868 Y24.3061
G01 X-43.4603 Y24.3447
G01 X-43.4366 Y24.3742
G01 X-43.4152 Y24.3978
G01 X-43.3952 Y24.4177
G01 X-43.3742 Y24.4366
G01 X-43.3447 Y24.4603
G01 X-43.3092 Y24.4848
G01 X-43.2818 Y24.5012
G01 X-43.2557 Y24.5150
G01 X-43.2144 Y24.5336
G01 X-43.1821 Y24.5454
G01 X-43.1516 Y24.5547
G01 X-43.1127 Y24.5639
G01 X-43.0722 Y24.5705
G01 X-43.0405 Y24.5736
G01 X-43.0000 Y24.5750
G01 X-22.5000 Y24.5750
G00 X-22.5000 Y24.5750
G01 F76.20
G01 Z-1.2000
G01 F200.00
G01 X-43.0000 Y24.5750
G01 X-43.0405 Y24.5736
G01 X-43.0722 Y24.5705
G01 X-43.1127 Y24.5639
G01 X-43.1516 Y24.5547
G01 X-43.1821 Y24.5454
G01 X-43.2144 Y24.5336
G01 X-43.2557 Y24.5150
G01 X-43.2818 Y24.5012
G01 X-43.3092 Y24.4848
G01 X-43.3447 Y24.4603
G01 X-43.3742 Y24.4366
G01 X-43.3952 Y24.4177
G01 X-43.4152 Y24.3978
G01 X-43.4366 Y24.3742
G01 X-43.4603 Y24.3447
G01 X-43.4868 Y24.3061
G01 X-43.4994 Y24.2850
G01 X-43.5128 Y24.2602
G01 X-43.5264 Y24.2313
G01 X-43.5371 Y24.2052
G01 X-43.5454 Y24.1821
G01 X-43.5537 Y24.1551
G01 X-43.5606 Y24.1278
G01 X-43.5669 Y24.0965
G01 X-43.5709 Y24.0686
G01 X-43.5733 Y24.0441
G01 X-43.5748 Y24.0160
G01 X-43.5750 Y13.0000
G00 X-43.5750 Y13.0000
G01 F76.20
G01 Z-1.8000
G01 F200.00
G01 X-43.5748 Y24.0160
G01 X-43.5733 Y24.0441
G01 X-43.5709 Y24.0686
G01 X-43.5669 Y24.0965
G01 X-43.5606 Y24.1278
G01 X-43.5537 Y24.1551
G01 X-43.5454 Y24.1821
G01 X-43.5371 Y24.2052
G01 X-43.5264 Y24.2313
G01 X-43.5128 Y24.2602
G01 X-43.4994 Y24.2850
G01 X-43.4868 Y24.3061
G01 X-43.4603 Y24.3447
G01 X-43.4366 Y24.3742
G01 X-43.4152 Y24.3978
G01 X-43.3952 Y24.4177
G01 X-43.3742 Y24.4366
G01 X-43.3447 Y24.4603
G01 X-43.3092 Y24.4848
G01 X-43.2818 Y24.5012
G01 X-43.2557 Y24.5150
G01 X-43.2144 Y24.5336
G01 X-43.1821 Y24.5454
G01 X-43.1516 Y24.5547
G01 X-43.1127 Y24.5639
G01 X-43.0722 Y24.5705
G01 X-43.0405 Y24.5736
G01 X-43.0000 Y24.5750
G01 X-22.5000 Y24.5750
G00 Z1.0000
G00 X-20.5000 Y24.5750
G01 F76.20
G01 Z-0.6000
G01 F200.00
G01 X0.0000 Y24.5750
G01 X0.0405 Y24.5736
G01 X0.0722 Y24.5705
G01 X0.1127 Y24.5639
G01 X0.1516 Y24.5547
G01 X0.1821 Y24.5454
G01 X0.2144 Y24.5336
G01 X0.2557 Y24.5150
G01 X0.2818 Y24.5012
G01 X0.3092 Y24.4848
G01 X0.3447 Y24.4603
G01 X0.3742 Y24.4366
G01 X0.3952 Y24.4177
G01 X0.4152 Y24.3978
G01 X0.4366 Y24.3742
G01 X0.4603 Y24.3447
G01 X0.4868 Y24.3061
G01 X0.4994 Y24.2850
G01 X0.5128 Y24.2602
G01 X0.5264 Y24.2313
G01 X0.5371 Y24.2052
G01 X0.5454 Y24.1821
G01 X0.5537 Y24.1551
G01 X0.5606 Y24.1278
G01 X0.5669 Y24.0965
G01 X0.5709 Y24.0686
G01 X0.5733 Y24.0441
G01 X0.5748 Y24.0160
G01 X0.5750 Y13.0000
G00 X0.5750 Y13.0000
G01 F76.20
G01 Z-1.2000
G01 F200.00
G01 X0.5748 Y24.0160
G01 X0.5733 Y24.0441
G01 X0.5709 Y24.0686
G01 X0.5669 Y24.0965
G01 X0.5606 Y24.1278
G01 X0.5537 Y24.1551
G01 X0.5454 Y24.1821
G01 X0.5371 Y24.2052
G01 X0.5264 Y24.2313
G01 X0.5128 Y24.2602
G01 X0.4994 Y24.2850
G01 X0.4868 Y24.3061
G01 X0.4603 Y24.3447
G01 X0.4366 Y24.3742
G01 X0.4152 Y24.3978
G01 X0.3952 Y24.4177
G01 X0.3742 Y24.4366
G01 X0.3447 Y24.4603
G01 X0.3092 Y24.4848
G01 X0.2818 Y24.5012
G01 X0.2557 Y24.5150
G01 X0.2144 Y24.5336
G01 X0.1821 Y24.5454
G01 X0.1516 Y24.5547
G01 X0.1127 Y24.5639
G01 X0.0722 Y24.5705
G01 X0.0405 Y24.5736
G01 X0.0000 Y24.5750
G01 X-20.5000 Y24.5750
G00 X-20.5000 Y24.5750
G01 F76.20
G01 Z-1.8000
G01 F200.00
G01 X0.0000 Y24.5750
G01 X0.0405 Y24.5736
G01 X0.0722 Y24.5705
G01 X0.1127 Y24.5639
G01 X0.1516 Y24.5547
G01 X0.1821 Y24.5454
G01 X0.2144 Y24.5336
G01 X0.2557 Y24.5150
G01 X0.2818 Y24.5012
G01 X0.3092 Y24.4848
G01 X0.3447 Y24.4603
G01 X0.3742 Y24.4366
G01 X0.3952 Y24.4177
G01 X0.4152 Y24.3978
G01 X0.4366 Y24.3742
G01 X0.4603 Y24.3447
G01 X0.4868 Y24.3061
G01 X0.4994 Y24.2850
G01 X0.5128 Y24.2602
G01 X0.5264 Y24.2313
G01 X0.5371 Y24.2052
G01 X0.5454 Y24.1821
G01 X0.5537 Y24.1551
G01 X0.5606 Y24.1278
G01 X0.5669 Y24.0965
G01 X0.5709 Y24.0686
G01 X0.5733 Y24.0441
G01 X0.5748 Y24.0160
G01 X0.5750 Y13.0000
G00 Z1.0000
G00 X0.5750 Y11.0000
G01 F76.20
G01 Z-0.6000
G01 F200.00
G01 X0.5749 Y-0.0123
G00 X0.5749 Y-0.0123
G01 F76.20
G01 Z-1.2000
G01 F200.00
G01 X0.5750 Y11.0000
G00 X0.5750 Y11.0000
G01 F76.20
G01 Z-1.8000
G01 F200.00
G01 X0.5749 Y-0.0123
G00 Z1.0000
M05
G00 Z1.0000
G00 Z20.00
G00 X0.0 Y0.0

