(G-CODE GENERATED BY FLATCAM v8.99 - www.flatcam.org - Version Date: 2019/12/15)

(Name: drill_cnc)
(Type: G-code from Excellon)
(Units: MM)

(Created on Monday, 13 April 2020 at 17:35)

(Feedrate: 50.0 mm/min)
(Feedrate rapids 76.2 mm/min)

(Z_Cut: -2.0 mm)
(Z_Move: 1.0 mm)
(Z Toolchange: 20.0 mm)
(X,Y Toolchange: 0.0000, 0.0000 mm)
(Z Start: None mm)
(Z End: 20.0 mm)
(Steps per circle: 128)
(Preprocessor Excellon: default)

(X range:    3.6700 ...   40.2110  mm)
(Y range:    2.8100 ...   21.5100  mm)

(Spindle Speed: 12000.0 RPM)
G21
G90
G94




G01 F50.00
G00 Z1.0000

M03 S12000.0
G00 X-10.6200 Y20.9100
G01 Z-2.0000
G01 Z0
G00 Z1.0000
G00 X-10.6200 Y18.3700
G01 Z-2.0000
G01 Z0
G00 Z1.0000
G00 X-10.6200 Y15.8300
G01 Z-2.0000
G01 Z0
G00 Z1.0000
G00 X-10.6200 Y13.2900
G01 Z-2.0000
G01 Z0
G00 Z1.0000
G00 X-10.6200 Y10.7500
G01 Z-2.0000
G01 Z0
G00 Z1.0000
G00 X-39.8300 Y13.2900
G01 Z-2.0000
G01 Z0
G00 Z1.0000
G00 X-39.8300 Y15.8300
G01 Z-2.0000
G01 Z0
G00 Z1.0000
G00 X-39.8300 Y18.3700
G01 Z-2.0000
G01 Z0
G00 Z1.0000
G00 X-39.8300 Y20.9100
G01 Z-2.0000
G01 Z0
G00 Z1.0000
M03 S12000.0
G00 X-22.0500 Y4.4000
G01 Z-2.0000
G01 Z0
G00 Z1.0000
G00 X-24.5900 Y4.4000
G01 Z-2.0000
G01 Z0
G00 Z1.0000
G00 X-27.1300 Y4.4000
G01 Z-2.0000
G01 Z0
G00 Z1.0000
M03 S12000.0
G00 X-4.2700 Y20.9100
G01 Z-2.0000
G01 Z0
G00 Z1.0000
G00 X-4.2700 Y17.4100
G01 Z-2.0000
G01 Z0
G00 Z1.0000
G00 X-4.2700 Y13.9100
G01 Z-2.0000
G01 Z0
G00 Z1.0000
G00 X-4.2700 Y10.4100
G01 Z-2.0000
G01 Z0
G00 Z1.0000
G00 X-4.2700 Y6.9100
G01 Z-2.0000
G01 Z0
G00 Z1.0000
G00 X-4.2700 Y3.4100
G01 Z-2.0000
G01 Z0
G00 Z1.0000
M05
G00 Z20.00
G00 X0.0 Y0.0

