(G-CODE GENERATED BY FLATCAM v8.994 - www.flatcam.org - Version Date: 2020/11/7)

(Name: cu_iso_combined_cnc)
(Type: G-code from Geometry)
(Units: MM)

(Created on Wednesday, 02 December 2020 at 20:38)

(This preprocessor is the default preprocessor used by FlatCAM.)
(It is made to work with MACH3 compatible motion controllers.)

(TOOL DIAMETER: 0.6 mm)
(Feedrate_XY: 100.0 mm/min)
(Feedrate_Z: 60.0 mm/min)
(Feedrate rapids 150.0 mm/min)

(Z_Cut: -0.15 mm)
(Z_Move: 2.0 mm)
(Z Start: None mm)
(Z End: 20.0 mm)
(X,Y End: None mm)
(Steps per circle: 64)
(Preprocessor Geometry: default)

(X range:    1.3926 ...   33.0152  mm)
(Y range:    1.5876 ...   93.0114  mm)

(Spindle Speed: 12000.0 RPM)
G21
G90
G94

G01 F100.00

M5
G00 Z20.0000
G00 X0.0000 Y0.0000
T1
M6    
(MSG, Change to Tool Dia = 0.6000)
M0
G00 Z20.0000

M03 S12000.0
G01 F100.00
G00 X8.6601 Y2.9118
G01 F60.00
G01 Z-0.1500
G01 F100.00
G01 X9.8084 Y1.7634
G01 X9.8191 Y1.7533
G01 X9.8464 Y1.7286
G01 X9.8578 Y1.7193
G01 X9.8873 Y1.6973
G01 X9.8994 Y1.6888
G01 X9.9118 Y1.6809
G01 X9.9499 Y1.6585
G01 X9.9630 Y1.6519
G01 X10.0031 Y1.6333
G01 X10.0446 Y1.6181
G01 X10.0586 Y1.6135
G01 X10.0728 Y1.6096
G01 X10.1085 Y1.6007
G01 X10.1230 Y1.5978
G01 X10.1594 Y1.5923
G01 X10.1740 Y1.5905
G01 X10.1887 Y1.5895
G01 X10.2328 Y1.5876
G01 X30.4072 Y1.5876
G01 X30.4219 Y1.5880
G01 X30.4660 Y1.5905
G01 X30.4806 Y1.5923
G01 X30.5243 Y1.5992
G01 X30.5672 Y1.6096
G01 X30.5814 Y1.6135
G01 X30.5954 Y1.6181
G01 X30.6369 Y1.6333
G01 X30.6770 Y1.6519
G01 X30.6901 Y1.6585
G01 X30.7029 Y1.6658
G01 X30.7406 Y1.6888
G01 X30.7763 Y1.7148
G01 X30.7879 Y1.7239
G01 X30.7991 Y1.7335
G01 X30.8263 Y1.7583
G01 X32.8445 Y3.7765
G01 X32.8693 Y3.8037
G01 X32.8789 Y3.8149
G01 X32.8880 Y3.8265
G01 X32.9140 Y3.8622
G01 X32.9370 Y3.8999
G01 X32.9443 Y3.9127
G01 X32.9509 Y3.9259
G01 X32.9695 Y3.9659
G01 X32.9847 Y4.0074
G01 X32.9893 Y4.0214
G01 X32.9932 Y4.0356
G01 X33.0036 Y4.0785
G01 X33.0105 Y4.1222
G01 X33.0123 Y4.1368
G01 X33.0134 Y4.1515
G01 X33.0152 Y4.1956
G01 X33.0152 Y17.7500
G01 X33.0134 Y17.7941
G01 X33.0123 Y17.8088
G01 X33.0105 Y17.8234
G01 X33.0050 Y17.8598
G01 X33.0021 Y17.8743
G01 X32.9932 Y17.9100
G01 X32.9893 Y17.9242
G01 X32.9847 Y17.9382
G01 X32.9695 Y17.9797
G01 X32.9509 Y18.0197
G01 X32.9443 Y18.0329
G01 X32.9370 Y18.0457
G01 X32.9180 Y18.0772
G01 X32.9055 Y18.0955
G01 X32.8789 Y18.1307
G01 X32.8693 Y18.1419
G01 X32.8445 Y18.1691
G01 X30.1342 Y20.8795
G01 X30.1342 Y45.4541
G01 X31.4853 Y46.8051
G01 X31.4954 Y46.8158
G01 X31.5248 Y46.8488
G01 X31.5514 Y46.8840
G01 X31.5639 Y46.9023
G01 X31.5829 Y46.9338
G01 X31.5902 Y46.9466
G01 X31.5968 Y46.9597
G01 X31.6125 Y46.9931
G01 X31.6207 Y47.0136
G01 X31.6352 Y47.0553
G01 X31.6463 Y47.0981
G01 X31.6509 Y47.1197
G01 X31.6573 Y47.1634
G01 X31.6592 Y47.1854
G01 X31.6611 Y47.2295
G01 X31.6611 Y51.7920
G01 X31.6607 Y51.8067
G01 X31.6588 Y51.8435
G01 X31.6573 Y51.8582
G01 X31.6520 Y51.8946
G01 X31.6495 Y51.9091
G01 X31.6463 Y51.9235
G01 X31.6352 Y51.9662
G01 X31.6306 Y51.9802
G01 X31.6154 Y52.0217
G01 X31.6094 Y52.0352
G01 X31.5936 Y52.0684
G01 X31.5829 Y52.0877
G01 X31.5599 Y52.1255
G01 X31.5339 Y52.1612
G01 X31.5248 Y52.1728
G01 X31.5152 Y52.1839
G01 X31.4853 Y52.2164
G01 X30.8009 Y52.9008
G01 X30.7684 Y52.9307
G01 X30.7573 Y52.9403
G01 X30.7220 Y52.9669
G01 X30.7038 Y52.9794
G01 X30.6659 Y53.0021
G01 X30.6463 Y53.0123
G01 X30.6062 Y53.0309
G01 X30.5647 Y53.0461
G01 X30.5437 Y53.0528
G01 X30.5008 Y53.0635
G01 X30.4791 Y53.0675
G01 X30.4427 Y53.0728
G01 X30.4280 Y53.0743
G01 X30.3913 Y53.0762
G01 X30.3765 Y53.0765
G01 X30.1748 Y53.0765
G01 X30.1289 Y53.1385
G01 X30.1198 Y53.1501
G01 X30.1102 Y53.1613
G01 X30.0600 Y53.2167
G01 X30.0498 Y53.2273
G01 X30.0392 Y53.2375
G01 X29.9838 Y53.2877
G01 X29.9726 Y53.2973
G01 X29.9610 Y53.3064
G01 X29.9010 Y53.3509
G01 X29.8889 Y53.3594
G01 X29.8765 Y53.3673
G01 X29.8123 Y53.4057
G01 X29.7995 Y53.4130
G01 X29.7864 Y53.4196
G01 X29.7188 Y53.4516
G01 X29.7053 Y53.4576
G01 X29.6916 Y53.4629
G01 X29.6212 Y53.4881
G01 X29.6072 Y53.4927
G01 X29.5930 Y53.4966
G01 X29.5205 Y53.5148
G01 X29.5061 Y53.5180
G01 X29.4916 Y53.5205
G01 X29.4176 Y53.5315
G01 X29.4030 Y53.5333
G01 X29.3883 Y53.5344
G01 X29.3136 Y53.5380
G01 X29.2989 Y53.5384
G01 X29.2842 Y53.5380
G01 X29.2095 Y53.5344
G01 X29.1948 Y53.5333
G01 X29.1802 Y53.5315
G01 X29.1062 Y53.5205
G01 X29.0917 Y53.5180
G01 X29.0773 Y53.5148
G01 X29.0048 Y53.4966
G01 X28.9906 Y53.4927
G01 X28.9766 Y53.4881
G01 X28.9062 Y53.4629
G01 X28.8925 Y53.4576
G01 X28.8790 Y53.4516
G01 X28.8114 Y53.4196
G01 X28.7983 Y53.4130
G01 X28.7855 Y53.4057
G01 X28.7213 Y53.3673
G01 X28.7089 Y53.3594
G01 X28.6968 Y53.3509
G01 X28.6368 Y53.3064
G01 X28.6252 Y53.2973
G01 X28.6140 Y53.2877
G01 X28.5586 Y53.2375
G01 X28.5480 Y53.2273
G01 X28.5378 Y53.2167
G01 X28.4876 Y53.1613
G01 X28.4780 Y53.1501
G01 X28.4689 Y53.1385
G01 X28.4244 Y53.0785
G01 X28.4159 Y53.0664
G01 X28.4080 Y53.0540
G01 X28.3696 Y52.9898
G01 X28.3623 Y52.9770
G01 X28.3557 Y52.9639
G01 X28.3237 Y52.8963
G01 X28.3177 Y52.8828
G01 X28.3124 Y52.8691
G01 X28.2872 Y52.7987
G01 X28.2826 Y52.7847
G01 X28.2787 Y52.7705
G01 X28.2605 Y52.6980
G01 X28.2573 Y52.6836
G01 X28.2548 Y52.6691
G01 X28.2438 Y52.5951
G01 X28.2420 Y52.5805
G01 X28.2409 Y52.5658
G01 X28.2370 Y52.4838
G01 X28.2373 Y52.4617
G01 X28.2409 Y52.3870
G01 X28.2420 Y52.3723
G01 X28.2438 Y52.3577
G01 X28.2548 Y52.2837
G01 X28.2573 Y52.2692
G01 X28.2605 Y52.2548
G01 X28.2787 Y52.1823
G01 X28.2826 Y52.1681
G01 X28.2872 Y52.1541
G01 X28.3124 Y52.0837
G01 X28.3177 Y52.0700
G01 X28.3237 Y52.0565
G01 X28.3557 Y51.9889
G01 X28.3623 Y51.9758
G01 X28.3696 Y51.9630
G01 X28.4080 Y51.8988
G01 X28.4159 Y51.8864
G01 X28.4244 Y51.8743
G01 X28.4689 Y51.8143
G01 X28.4780 Y51.8027
G01 X28.4876 Y51.7915
G01 X28.5378 Y51.7361
G01 X28.5480 Y51.7255
G01 X28.5586 Y51.7153
G01 X28.6140 Y51.6651
G01 X28.6252 Y51.6555
G01 X28.6368 Y51.6464
G01 X28.6968 Y51.6019
G01 X28.7089 Y51.5934
G01 X28.7213 Y51.5855
G01 X28.7855 Y51.5471
G01 X28.7983 Y51.5398
G01 X28.8114 Y51.5332
G01 X28.8790 Y51.5012
G01 X28.8925 Y51.4952
G01 X28.9062 Y51.4899
G01 X28.9766 Y51.4647
G01 X28.9906 Y51.4601
G01 X29.0048 Y51.4562
G01 X29.0773 Y51.4380
G01 X29.0917 Y51.4348
G01 X29.1062 Y51.4323
G01 X29.1875 Y51.4203
G01 X29.2095 Y51.4184
G01 X29.2842 Y51.4148
G01 X29.2989 Y51.4144
G01 X29.3136 Y51.4148
G01 X29.3883 Y51.4184
G01 X29.4030 Y51.4195
G01 X29.4176 Y51.4213
G01 X29.4916 Y51.4323
G01 X29.5061 Y51.4348
G01 X29.5205 Y51.4380
G01 X29.6001 Y51.4581
G01 X29.6212 Y51.4647
G01 X29.6916 Y51.4899
G01 X29.7053 Y51.4952
G01 X29.7188 Y51.5012
G01 X29.7864 Y51.5332
G01 X29.7995 Y51.5398
G01 X29.8123 Y51.5471
G01 X29.8765 Y51.5855
G01 X29.8950 Y51.5975
G01 X29.9610 Y51.6464
G01 X29.9726 Y51.6555
G01 X29.9838 Y51.6651
G01 X30.0446 Y51.7203
G01 X30.0600 Y51.7361
G01 X30.1151 Y51.7970
G01 X30.1244 Y51.8084
G01 X30.1549 Y51.8493
G01 X30.4608 Y51.5434
G01 X30.4608 Y47.4781
G01 X29.1097 Y46.1271
G01 X29.0996 Y46.1164
G01 X29.0749 Y46.0891
G01 X29.0656 Y46.0777
G01 X29.0436 Y46.0482
G01 X29.0351 Y46.0361
G01 X29.0272 Y46.0237
G01 X29.0048 Y45.9856
G01 X28.9982 Y45.9725
G01 X28.9796 Y45.9324
G01 X28.9644 Y45.8909
G01 X28.9598 Y45.8769
G01 X28.9559 Y45.8627
G01 X28.9470 Y45.8270
G01 X28.9441 Y45.8125
G01 X28.9386 Y45.7761
G01 X28.9368 Y45.7615
G01 X28.9358 Y45.7468
G01 X28.9339 Y45.7027
G01 X28.9339 Y20.6309
G01 X28.9343 Y20.6162
G01 X28.9368 Y20.5721
G01 X28.9386 Y20.5575
G01 X28.9455 Y20.5138
G01 X28.9559 Y20.4709
G01 X28.9598 Y20.4567
G01 X28.9644 Y20.4427
G01 X28.9796 Y20.4012
G01 X28.9982 Y20.3611
G01 X29.0048 Y20.3480
G01 X29.0121 Y20.3352
G01 X29.0351 Y20.2975
G01 X29.0611 Y20.2618
G01 X29.0702 Y20.2502
G01 X29.0996 Y20.2172
G01 X29.1097 Y20.2065
G01 X31.8149 Y17.5014
G01 X31.8149 Y4.4442
G01 X30.1586 Y2.7879
G01 X10.4814 Y2.7879
G01 X9.5088 Y3.7605
G01 X9.5117 Y3.7732
G01 X9.5142 Y3.7877
G01 X9.5257 Y3.8654
G01 X9.5275 Y3.8800
G01 X9.5286 Y3.8947
G01 X9.5324 Y3.9731
G01 X9.5328 Y3.9878
G01 X9.5324 Y4.0025
G01 X9.5286 Y4.0809
G01 X9.5275 Y4.0956
G01 X9.5257 Y4.1102
G01 X9.5142 Y4.1879
G01 X9.5117 Y4.2024
G01 X9.5084 Y4.2168
G01 X9.4894 Y4.2929
G01 X9.4854 Y4.3071
G01 X9.4808 Y4.3211
G01 X9.4544 Y4.3950
G01 X9.4491 Y4.4088
G01 X9.4431 Y4.4222
G01 X9.4095 Y4.4932
G01 X9.4029 Y4.5063
G01 X9.3957 Y4.5191
G01 X9.3553 Y4.5865
G01 X9.3474 Y4.5989
G01 X9.3389 Y4.6110
G01 X9.2922 Y4.6740
G01 X9.2831 Y4.6856
G01 X9.2735 Y4.6968
G01 X9.2208 Y4.7550
G01 X9.2106 Y4.7656
G01 X9.2000 Y4.7758
G01 X9.1418 Y4.8285
G01 X9.1306 Y4.8381
G01 X9.1190 Y4.8472
G01 X9.0560 Y4.8939
G01 X9.0439 Y4.9024
G01 X9.0315 Y4.9103
G01 X8.9641 Y4.9507
G01 X8.9513 Y4.9579
G01 X8.9382 Y4.9645
G01 X8.8672 Y4.9981
G01 X8.8538 Y5.0041
G01 X8.8400 Y5.0094
G01 X8.7661 Y5.0358
G01 X8.7521 Y5.0404
G01 X8.7379 Y5.0444
G01 X8.6618 Y5.0634
G01 X8.6474 Y5.0667
G01 X8.6329 Y5.0692
G01 X8.5552 Y5.0807
G01 X8.5406 Y5.0825
G01 X8.5259 Y5.0836
G01 X8.4475 Y5.0874
G01 X8.4328 Y5.0878
G01 X8.4181 Y5.0874
G01 X8.3397 Y5.0836
G01 X8.3250 Y5.0825
G01 X8.3104 Y5.0807
G01 X8.2327 Y5.0692
G01 X8.2182 Y5.0667
G01 X8.2038 Y5.0634
G01 X8.1277 Y5.0444
G01 X8.1135 Y5.0404
G01 X8.0995 Y5.0358
G01 X8.0256 Y5.0094
G01 X8.0118 Y5.0041
G01 X7.9984 Y4.9981
G01 X7.9274 Y4.9645
G01 X7.9143 Y4.9579
G01 X7.9015 Y4.9507
G01 X7.8341 Y4.9103
G01 X7.8217 Y4.9024
G01 X7.8096 Y4.8939
G01 X7.7466 Y4.8472
G01 X7.7350 Y4.8381
G01 X7.7238 Y4.8285
G01 X7.6656 Y4.7758
G01 X7.6550 Y4.7656
G01 X7.6448 Y4.7550
G01 X7.5921 Y4.6968
G01 X7.5825 Y4.6856
G01 X7.5734 Y4.6740
G01 X7.5267 Y4.6110
G01 X7.5182 Y4.5989
G01 X7.5103 Y4.5865
G01 X7.4699 Y4.5191
G01 X7.4627 Y4.5063
G01 X7.4561 Y4.4932
G01 X7.4225 Y4.4222
G01 X7.4165 Y4.4088
G01 X7.4112 Y4.3950
G01 X7.3848 Y4.3211
G01 X7.3802 Y4.3071
G01 X7.3762 Y4.2929
G01 X7.3572 Y4.2168
G01 X7.3539 Y4.2024
G01 X7.3514 Y4.1879
G01 X7.3399 Y4.1102
G01 X7.3381 Y4.0956
G01 X7.3370 Y4.0809
G01 X7.3332 Y4.0025
G01 X7.3328 Y3.9878
G01 X7.3332 Y3.9731
G01 X7.3370 Y3.8947
G01 X7.3381 Y3.8800
G01 X7.3399 Y3.8654
G01 X7.3514 Y3.7877
G01 X7.3539 Y3.7732
G01 X7.3572 Y3.7588
G01 X7.3762 Y3.6827
G01 X7.3802 Y3.6685
G01 X7.3848 Y3.6545
G01 X7.4112 Y3.5806
G01 X7.4165 Y3.5668
G01 X7.4225 Y3.5534
G01 X7.4561 Y3.4824
G01 X7.4627 Y3.4693
G01 X7.4699 Y3.4565
G01 X7.5103 Y3.3891
G01 X7.5182 Y3.3767
G01 X7.5267 Y3.3646
G01 X7.5734 Y3.3016
G01 X7.5825 Y3.2900
G01 X7.5921 Y3.2788
G01 X7.6448 Y3.2206
G01 X7.6550 Y3.2100
G01 X7.6656 Y3.1998
G01 X7.7238 Y3.1471
G01 X7.7350 Y3.1375
G01 X7.7466 Y3.1284
G01 X7.8096 Y3.0817
G01 X7.8217 Y3.0732
G01 X7.8341 Y3.0653
G01 X7.9015 Y3.0249
G01 X7.9143 Y3.0177
G01 X7.9274 Y3.0111
G01 X7.9984 Y2.9775
G01 X8.0118 Y2.9715
G01 X8.0256 Y2.9662
G01 X8.0995 Y2.9398
G01 X8.1135 Y2.9352
G01 X8.1277 Y2.9312
G01 X8.2038 Y2.9122
G01 X8.2182 Y2.9089
G01 X8.2327 Y2.9064
G01 X8.3104 Y2.8949
G01 X8.3250 Y2.8931
G01 X8.3397 Y2.8920
G01 X8.4181 Y2.8882
G01 X8.4328 Y2.8878
G01 X8.4475 Y2.8882
G01 X8.5259 Y2.8920
G01 X8.5406 Y2.8931
G01 X8.5552 Y2.8949
G01 X8.6329 Y2.9064
G01 X8.6474 Y2.9089
G01 X8.6601 Y2.9118
G00 Z2.0000
G00 X9.3544 Y5.9276
G01 F60.00
G01 Z-0.1500
G01 F100.00
G01 X11.9888 Y5.9277
G01 X12.0329 Y5.9295
G01 X12.0476 Y5.9305
G01 X12.0914 Y5.9367
G01 X12.1131 Y5.9407
G01 X12.1488 Y5.9496
G01 X12.1630 Y5.9535
G01 X12.1770 Y5.9581
G01 X12.2185 Y5.9733
G01 X12.2586 Y5.9919
G01 X12.2782 Y6.0021
G01 X12.3098 Y6.0209
G01 X12.3283 Y6.0330
G01 X12.3638 Y6.0593
G01 X12.3807 Y6.0735
G01 X12.4132 Y6.1034
G01 X13.1168 Y6.8072
G01 X13.1416 Y6.8344
G01 X13.1512 Y6.8456
G01 X13.1778 Y6.8808
G01 X13.1863 Y6.8929
G01 X13.1942 Y6.9053
G01 X13.2130 Y6.9369
G01 X13.2200 Y6.9499
G01 X13.2358 Y6.9832
G01 X13.2418 Y6.9966
G01 X13.2471 Y7.0104
G01 X13.2594 Y7.0451
G01 X13.2637 Y7.0592
G01 X13.2727 Y7.0948
G01 X13.2759 Y7.1092
G01 X13.2784 Y7.1237
G01 X13.2846 Y7.1675
G01 X13.2856 Y7.1822
G01 X13.2874 Y7.2263
G01 X13.2874 Y26.6216
G01 X16.1394 Y29.4737
G01 X16.1642 Y29.5009
G01 X16.1738 Y29.5121
G01 X16.1829 Y29.5237
G01 X16.2089 Y29.5594
G01 X16.2319 Y29.5971
G01 X16.2392 Y29.6099
G01 X16.2584 Y29.6497
G01 X16.2671 Y29.6700
G01 X16.2796 Y29.7046
G01 X16.2842 Y29.7186
G01 X16.2881 Y29.7328
G01 X16.2970 Y29.7685
G01 X16.2999 Y29.7829
G01 X16.3054 Y29.8194
G01 X16.3078 Y29.8413
G01 X16.3097 Y29.8781
G01 X16.3100 Y29.8928
G01 X16.3100 Y51.1763
G01 X22.0900 Y56.9563
G01 X25.8830 Y56.9563
G01 X25.9334 Y56.8884
G01 X25.9476 Y56.8715
G01 X25.9978 Y56.8161
G01 X26.0080 Y56.8055
G01 X26.0186 Y56.7953
G01 X26.0740 Y56.7451
G01 X26.0852 Y56.7355
G01 X26.0968 Y56.7264
G01 X26.1568 Y56.6819
G01 X26.1689 Y56.6734
G01 X26.1813 Y56.6655
G01 X26.2518 Y56.6234
G01 X26.2714 Y56.6132
G01 X26.3390 Y56.5812
G01 X26.3525 Y56.5752
G01 X26.3662 Y56.5699
G01 X26.4366 Y56.5447
G01 X26.4506 Y56.5401
G01 X26.4648 Y56.5362
G01 X26.5373 Y56.5180
G01 X26.5517 Y56.5148
G01 X26.5662 Y56.5123
G01 X26.6402 Y56.5013
G01 X26.6548 Y56.4995
G01 X26.6695 Y56.4984
G01 X26.7442 Y56.4948
G01 X26.7589 Y56.4944
G01 X26.7736 Y56.4948
G01 X26.8483 Y56.4984
G01 X26.8630 Y56.4995
G01 X26.8776 Y56.5013
G01 X26.9516 Y56.5123
G01 X26.9661 Y56.5148
G01 X26.9805 Y56.5180
G01 X27.0530 Y56.5362
G01 X27.0742 Y56.5424
G01 X27.1516 Y56.5699
G01 X27.1653 Y56.5752
G01 X27.1788 Y56.5812
G01 X27.2464 Y56.6132
G01 X27.2595 Y56.6198
G01 X27.2723 Y56.6271
G01 X27.3365 Y56.6655
G01 X27.3550 Y56.6775
G01 X27.4210 Y56.7264
G01 X27.4326 Y56.7355
G01 X27.4438 Y56.7451
G01 X27.4992 Y56.7953
G01 X27.5098 Y56.8055
G01 X27.5200 Y56.8161
G01 X27.5702 Y56.8715
G01 X27.5798 Y56.8827
G01 X27.5889 Y56.8943
G01 X27.6334 Y56.9543
G01 X27.6419 Y56.9664
G01 X27.6498 Y56.9788
G01 X27.6882 Y57.0430
G01 X27.6955 Y57.0558
G01 X27.7021 Y57.0689
G01 X27.7341 Y57.1365
G01 X27.7401 Y57.1500
G01 X27.7454 Y57.1637
G01 X27.7706 Y57.2341
G01 X27.7752 Y57.2481
G01 X27.7791 Y57.2623
G01 X27.7973 Y57.3348
G01 X27.8005 Y57.3492
G01 X27.8030 Y57.3637
G01 X27.8140 Y57.4377
G01 X27.8158 Y57.4523
G01 X27.8169 Y57.4670
G01 X27.8205 Y57.5417
G01 X27.8209 Y57.5564
G01 X27.8205 Y57.5711
G01 X27.8169 Y57.6458
G01 X27.8158 Y57.6605
G01 X27.8140 Y57.6751
G01 X27.8030 Y57.7491
G01 X27.8005 Y57.7636
G01 X27.7973 Y57.7780
G01 X27.7791 Y57.8505
G01 X27.7752 Y57.8647
G01 X27.7706 Y57.8787
G01 X27.7454 Y57.9491
G01 X27.7401 Y57.9628
G01 X27.7341 Y57.9763
G01 X27.7021 Y58.0439
G01 X27.6955 Y58.0570
G01 X27.6882 Y58.0698
G01 X27.6459 Y58.1402
G01 X27.6334 Y58.1585
G01 X27.5889 Y58.2185
G01 X27.5798 Y58.2301
G01 X27.5702 Y58.2413
G01 X27.5200 Y58.2967
G01 X27.5098 Y58.3073
G01 X27.4992 Y58.3175
G01 X27.4438 Y58.3677
G01 X27.4326 Y58.3773
G01 X27.4210 Y58.3864
G01 X27.3610 Y58.4309
G01 X27.3489 Y58.4394
G01 X27.3365 Y58.4473
G01 X27.2723 Y58.4857
G01 X27.2595 Y58.4930
G01 X27.2464 Y58.4996
G01 X27.1788 Y58.5316
G01 X27.1653 Y58.5376
G01 X27.1516 Y58.5429
G01 X27.0742 Y58.5704
G01 X27.0530 Y58.5766
G01 X26.9805 Y58.5948
G01 X26.9661 Y58.5980
G01 X26.9516 Y58.6005
G01 X26.8776 Y58.6115
G01 X26.8630 Y58.6133
G01 X26.8483 Y58.6144
G01 X26.7736 Y58.6180
G01 X26.7589 Y58.6184
G01 X26.7442 Y58.6180
G01 X26.6695 Y58.6144
G01 X26.6548 Y58.6133
G01 X26.6402 Y58.6115
G01 X26.5662 Y58.6005
G01 X26.5517 Y58.5980
G01 X26.5373 Y58.5948
G01 X26.4577 Y58.5747
G01 X26.4366 Y58.5681
G01 X26.3662 Y58.5429
G01 X26.3525 Y58.5376
G01 X26.3390 Y58.5316
G01 X26.2714 Y58.4996
G01 X26.2583 Y58.4930
G01 X26.2455 Y58.4857
G01 X26.1813 Y58.4473
G01 X26.1689 Y58.4394
G01 X26.1568 Y58.4309
G01 X26.0968 Y58.3864
G01 X26.0852 Y58.3773
G01 X26.0740 Y58.3677
G01 X26.0186 Y58.3175
G01 X26.0028 Y58.3021
G01 X25.9476 Y58.2413
G01 X25.9380 Y58.2301
G01 X25.9289 Y58.2185
G01 X25.8830 Y58.1566
G01 X21.8340 Y58.1565
G01 X21.7899 Y58.1543
G01 X21.7680 Y58.1519
G01 X21.7243 Y58.1450
G01 X21.7099 Y58.1418
G01 X21.6743 Y58.1328
G01 X21.6532 Y58.1261
G01 X21.6117 Y58.1109
G01 X21.5983 Y58.1049
G01 X21.5650 Y58.0891
G01 X21.5457 Y58.0784
G01 X21.5080 Y58.0554
G01 X21.4723 Y58.0294
G01 X21.4550 Y58.0156
G01 X21.4277 Y57.9909
G01 X21.4170 Y57.9808
G01 X15.2855 Y51.8493
G01 X15.2556 Y51.8168
G01 X15.2414 Y51.7999
G01 X15.2151 Y51.7644
G01 X15.2030 Y51.7459
G01 X15.1806 Y51.7078
G01 X15.1614 Y51.6680
G01 X15.1527 Y51.6477
G01 X15.1378 Y51.6061
G01 X15.1335 Y51.5920
G01 X15.1245 Y51.5564
G01 X15.1213 Y51.5420
G01 X15.1188 Y51.5275
G01 X15.1126 Y51.4837
G01 X15.1116 Y51.4690
G01 X15.1098 Y51.4249
G01 X15.1098 Y30.1414
G01 X12.2578 Y27.2893
G01 X12.2330 Y27.2621
G01 X12.2234 Y27.2509
G01 X12.2143 Y27.2393
G01 X12.1925 Y27.2097
G01 X12.1843 Y27.1974
G01 X12.1653 Y27.1659
G01 X12.1580 Y27.1531
G01 X12.1514 Y27.1399
G01 X12.1328 Y27.0999
G01 X12.1176 Y27.0584
G01 X12.1130 Y27.0444
G01 X12.1091 Y27.0302
G01 X12.0987 Y26.9873
G01 X12.0962 Y26.9728
G01 X12.0909 Y26.9363
G01 X12.0890 Y26.9143
G01 X12.0872 Y26.8702
G01 X12.0872 Y7.4749
G01 X11.7402 Y7.1279
G01 X9.3544 Y7.1279
G01 X9.3474 Y7.1389
G01 X9.3389 Y7.1510
G01 X9.2922 Y7.2140
G01 X9.2784 Y7.2313
G01 X9.2208 Y7.2950
G01 X9.2106 Y7.3056
G01 X9.2000 Y7.3158
G01 X9.1418 Y7.3685
G01 X9.1306 Y7.3781
G01 X9.1190 Y7.3872
G01 X9.0560 Y7.4339
G01 X9.0439 Y7.4424
G01 X9.0315 Y7.4503
G01 X8.9641 Y7.4907
G01 X8.9513 Y7.4979
G01 X8.9382 Y7.5045
G01 X8.8672 Y7.5381
G01 X8.8538 Y7.5441
G01 X8.8400 Y7.5494
G01 X8.7661 Y7.5758
G01 X8.7521 Y7.5804
G01 X8.7379 Y7.5844
G01 X8.6618 Y7.6034
G01 X8.6474 Y7.6067
G01 X8.6329 Y7.6092
G01 X8.5552 Y7.6207
G01 X8.5406 Y7.6225
G01 X8.5259 Y7.6236
G01 X8.4475 Y7.6274
G01 X8.4328 Y7.6278
G01 X8.4181 Y7.6274
G01 X8.3323 Y7.6231
G01 X8.3104 Y7.6207
G01 X8.2327 Y7.6092
G01 X8.2182 Y7.6067
G01 X8.2038 Y7.6034
G01 X8.1277 Y7.5844
G01 X8.1135 Y7.5804
G01 X8.0995 Y7.5758
G01 X8.0256 Y7.5494
G01 X8.0118 Y7.5441
G01 X7.9984 Y7.5381
G01 X7.9274 Y7.5045
G01 X7.9143 Y7.4979
G01 X7.9015 Y7.4907
G01 X7.8341 Y7.4503
G01 X7.8217 Y7.4424
G01 X7.8096 Y7.4339
G01 X7.7466 Y7.3872
G01 X7.7293 Y7.3734
G01 X7.6656 Y7.3158
G01 X7.6550 Y7.3056
G01 X7.6448 Y7.2950
G01 X7.5921 Y7.2368
G01 X7.5825 Y7.2256
G01 X7.5734 Y7.2140
G01 X7.5267 Y7.1510
G01 X7.5182 Y7.1389
G01 X7.5103 Y7.1265
G01 X7.4699 Y7.0591
G01 X7.4627 Y7.0463
G01 X7.4561 Y7.0332
G01 X7.4225 Y6.9622
G01 X7.4165 Y6.9488
G01 X7.4112 Y6.9350
G01 X7.3848 Y6.8611
G01 X7.3802 Y6.8471
G01 X7.3762 Y6.8329
G01 X7.3572 Y6.7568
G01 X7.3539 Y6.7424
G01 X7.3514 Y6.7279
G01 X7.3399 Y6.6502
G01 X7.3381 Y6.6356
G01 X7.3370 Y6.6209
G01 X7.3332 Y6.5425
G01 X7.3328 Y6.5278
G01 X7.3332 Y6.5131
G01 X7.3370 Y6.4347
G01 X7.3381 Y6.4200
G01 X7.3399 Y6.4054
G01 X7.3514 Y6.3277
G01 X7.3539 Y6.3132
G01 X7.3572 Y6.2988
G01 X7.3762 Y6.2227
G01 X7.3802 Y6.2085
G01 X7.3848 Y6.1945
G01 X7.4112 Y6.1206
G01 X7.4165 Y6.1068
G01 X7.4225 Y6.0934
G01 X7.4561 Y6.0224
G01 X7.4627 Y6.0093
G01 X7.4699 Y5.9965
G01 X7.5103 Y5.9291
G01 X7.5182 Y5.9167
G01 X7.5267 Y5.9046
G01 X7.5734 Y5.8416
G01 X7.5825 Y5.8300
G01 X7.5921 Y5.8188
G01 X7.6448 Y5.7606
G01 X7.6550 Y5.7500
G01 X7.6656 Y5.7398
G01 X7.7238 Y5.6871
G01 X7.7350 Y5.6775
G01 X7.7466 Y5.6684
G01 X7.8096 Y5.6217
G01 X7.8217 Y5.6132
G01 X7.8341 Y5.6053
G01 X7.9015 Y5.5649
G01 X7.9143 Y5.5577
G01 X7.9274 Y5.5511
G01 X7.9984 Y5.5175
G01 X8.0118 Y5.5115
G01 X8.0256 Y5.5062
G01 X8.0995 Y5.4798
G01 X8.1135 Y5.4752
G01 X8.1277 Y5.4712
G01 X8.2038 Y5.4522
G01 X8.2182 Y5.4489
G01 X8.2327 Y5.4464
G01 X8.3104 Y5.4349
G01 X8.3250 Y5.4331
G01 X8.3397 Y5.4320
G01 X8.4181 Y5.4282
G01 X8.4328 Y5.4278
G01 X8.4475 Y5.4282
G01 X8.5259 Y5.4320
G01 X8.5406 Y5.4331
G01 X8.5552 Y5.4349
G01 X8.6329 Y5.4464
G01 X8.6474 Y5.4489
G01 X8.6618 Y5.4522
G01 X8.7379 Y5.4712
G01 X8.7521 Y5.4752
G01 X8.7661 Y5.4798
G01 X8.8400 Y5.5062
G01 X8.8538 Y5.5115
G01 X8.8672 Y5.5175
G01 X8.9382 Y5.5511
G01 X8.9513 Y5.5577
G01 X8.9641 Y5.5649
G01 X9.0315 Y5.6053
G01 X9.0439 Y5.6132
G01 X9.0560 Y5.6217
G01 X9.1190 Y5.6684
G01 X9.1306 Y5.6775
G01 X9.1418 Y5.6871
G01 X9.2000 Y5.7398
G01 X9.2106 Y5.7500
G01 X9.2208 Y5.7606
G01 X9.2735 Y5.8188
G01 X9.2831 Y5.8300
G01 X9.2922 Y5.8416
G01 X9.3389 Y5.9046
G01 X9.3474 Y5.9167
G01 X9.3544 Y5.9276
G00 Z2.0000
G00 X9.3008 Y7.3910
G01 F60.00
G01 Z-0.1500
G01 F100.00
G01 X9.3160 Y7.3727
G01 X9.3346 Y7.3528
G01 X9.3545 Y7.3343
G01 X9.3656 Y7.3247
G01 X9.3872 Y7.3082
G01 X9.3993 Y7.2997
G01 X9.4117 Y7.2918
G01 X9.4352 Y7.2782
G01 X9.4596 Y7.2662
G01 X9.4731 Y7.2602
G01 X9.4986 Y7.2507
G01 X9.5126 Y7.2461
G01 X9.5268 Y7.2422
G01 X9.5532 Y7.2359
G01 X9.5801 Y7.2316
G01 X9.6020 Y7.2292
G01 X9.6365 Y7.2277
G01 X11.5220 Y7.2277
G01 X11.5565 Y7.2292
G01 X11.5712 Y7.2306
G01 X11.5908 Y7.2334
G01 X11.6053 Y7.2359
G01 X11.6197 Y7.2392
G01 X11.6389 Y7.2441
G01 X11.6530 Y7.2483
G01 X11.6854 Y7.2602
G01 X11.7168 Y7.2748
G01 X11.7297 Y7.2817
G01 X11.7468 Y7.2918
G01 X11.7592 Y7.2997
G01 X11.7713 Y7.3082
G01 X11.7872 Y7.3201
G01 X11.7985 Y7.3294
G01 X11.8240 Y7.3528
G01 X11.8623 Y7.3911
G01 X11.8724 Y7.4018
G01 X11.8857 Y7.4166
G01 X11.8950 Y7.4279
G01 X11.9154 Y7.4559
G01 X11.9233 Y7.4683
G01 X11.9369 Y7.4918
G01 X11.9520 Y7.5229
G01 X11.9576 Y7.5365
G01 X11.9668 Y7.5621
G01 X11.9710 Y7.5762
G01 X11.9759 Y7.5954
G01 X11.9805 Y7.6170
G01 X11.9845 Y7.6439
G01 X11.9864 Y7.6659
G01 X11.9874 Y7.6931
G01 X11.9874 Y26.7592
G01 X11.9864 Y26.7864
G01 X11.9845 Y26.8084
G01 X11.9805 Y26.8353
G01 X11.9737 Y26.8702
G01 X12.0280 Y27.1433
G01 X12.1827 Y27.3748
G01 X12.2122 Y27.3947
G01 X12.2341 Y27.4109
G01 X12.2510 Y27.4251
G01 X12.2709 Y27.4436
G01 X14.8900 Y30.0629
G01 X14.9130 Y30.0887
G01 X14.9295 Y30.1103
G01 X14.9380 Y30.1223
G01 X14.9560 Y30.1518
G01 X14.9629 Y30.1648
G01 X14.9715 Y30.1827
G01 X14.9775 Y30.1962
G01 X14.9828 Y30.2099
G01 X14.9894 Y30.2286
G01 X14.9936 Y30.2427
G01 X15.0018 Y30.2763
G01 X15.0071 Y30.3104
G01 X15.0090 Y30.3324
G01 X15.0100 Y30.3596
G01 X15.0100 Y51.4942
G01 X15.0506 Y51.6980
G01 X15.1660 Y51.8708
G01 X21.3955 Y58.1003
G01 X21.5683 Y58.2157
G01 X21.8414 Y58.2700
G01 X21.8763 Y58.2632
G01 X21.9032 Y58.2592
G01 X21.9252 Y58.2573
G01 X21.9524 Y58.2563
G01 X25.6387 Y58.2563
G01 X25.6534 Y58.2567
G01 X25.6806 Y58.2584
G01 X25.7075 Y58.2620
G01 X25.7292 Y58.2661
G01 X25.7627 Y58.2747
G01 X25.7884 Y58.2835
G01 X25.8089 Y58.2917
G01 X25.8335 Y58.3034
G01 X25.8528 Y58.3140
G01 X25.8760 Y58.3283
G01 X25.8880 Y58.3368
G01 X25.9096 Y58.3533
G01 X25.9354 Y58.3763
G01 X26.1007 Y58.5414
G01 X26.5278 Y58.7183
G01 X26.9900 Y58.7183
G01 X27.4171 Y58.5414
G01 X27.7439 Y58.2146
G01 X27.9208 Y57.7875
G01 X27.9208 Y57.3253
G01 X27.7439 Y56.8982
G01 X27.4341 Y56.5884
G01 X27.4107 Y56.5630
G01 X27.3969 Y56.5457
G01 X27.3810 Y56.5237
G01 X27.3630 Y56.4942
G01 X27.3561 Y56.4812
G01 X27.3475 Y56.4633
G01 X27.3388 Y56.4430
G01 X27.3274 Y56.4104
G01 X27.3188 Y56.3769
G01 X27.3147 Y56.3552
G01 X27.3119 Y56.3356
G01 X27.3104 Y56.3209
G01 X27.3090 Y56.2864
G01 X27.3094 Y56.2717
G01 X27.3111 Y56.2445
G01 X27.3147 Y56.2176
G01 X27.3172 Y56.2031
G01 X27.3254 Y56.1695
G01 X27.3296 Y56.1554
G01 X27.3362 Y56.1367
G01 X27.3415 Y56.1230
G01 X27.3475 Y56.1095
G01 X27.3561 Y56.0916
G01 X27.3630 Y56.0786
G01 X27.3770 Y56.0553
G01 X27.3852 Y56.0431
G01 X27.4060 Y56.0155
G01 X27.4240 Y55.9951
G01 X27.4341 Y55.9844
G01 X27.7269 Y55.6916
G01 X27.7523 Y55.6682
G01 X27.7696 Y55.6544
G01 X27.7916 Y55.6385
G01 X27.8148 Y55.6242
G01 X27.8341 Y55.6136
G01 X27.8587 Y55.6019
G01 X27.8792 Y55.5937
G01 X27.9049 Y55.5849
G01 X27.9312 Y55.5780
G01 X27.9528 Y55.5734
G01 X27.9797 Y55.5694
G01 X28.0017 Y55.5675
G01 X28.0289 Y55.5665
G01 X28.0561 Y55.5675
G01 X28.0781 Y55.5694
G01 X28.1050 Y55.5734
G01 X28.1266 Y55.5780
G01 X28.1529 Y55.5849
G01 X28.1786 Y55.5937
G01 X28.1923 Y55.5990
G01 X28.2058 Y55.6050
G01 X28.2302 Y55.6169
G01 X28.2537 Y55.6306
G01 X28.2662 Y55.6385
G01 X28.2882 Y55.6544
G01 X28.3055 Y55.6682
G01 X28.3309 Y55.6916
G01 X28.6407 Y56.0014
G01 X29.0678 Y56.1783
G01 X29.5300 Y56.1783
G01 X29.9571 Y56.0014
G01 X30.1001 Y55.8584
G01 X30.1255 Y55.8350
G01 X30.1428 Y55.8212
G01 X30.1648 Y55.8053
G01 X30.1943 Y55.7873
G01 X30.2139 Y55.7771
G01 X30.2387 Y55.7658
G01 X30.2641 Y55.7563
G01 X30.2852 Y55.7497
G01 X30.3116 Y55.7431
G01 X30.6496 Y55.6757
G01 X30.8812 Y55.5210
G01 X30.9010 Y55.4915
G01 X30.9172 Y55.4696
G01 X30.9314 Y55.4527
G01 X30.9500 Y55.4328
G01 X31.8410 Y54.5418
G01 X31.8664 Y54.5184
G01 X31.8778 Y54.5090
G01 X31.8937 Y54.4971
G01 X31.9119 Y54.4846
G01 X31.9417 Y54.4671
G01 X31.9661 Y54.4552
G01 X31.9796 Y54.4492
G01 X31.9933 Y54.4439
G01 X32.0190 Y54.4351
G01 X32.0453 Y54.4281
G01 X32.0597 Y54.4249
G01 X32.0938 Y54.4196
G01 X32.1085 Y54.4181
G01 X32.1356 Y54.4168
G01 X32.1504 Y54.4168
G01 X32.1702 Y54.4177
G01 X32.1922 Y54.4196
G01 X32.2118 Y54.4224
G01 X32.2263 Y54.4249
G01 X32.2407 Y54.4281
G01 X32.2599 Y54.4330
G01 X32.2740 Y54.4373
G01 X32.2996 Y54.4465
G01 X32.3132 Y54.4521
G01 X32.3378 Y54.4637
G01 X32.3508 Y54.4707
G01 X32.3741 Y54.4846
G01 X32.3863 Y54.4928
G01 X32.4139 Y54.5136
G01 X32.4343 Y54.5316
G01 X32.4450 Y54.5418
G01 X32.4551 Y54.5524
G01 X32.4731 Y54.5728
G01 X32.4896 Y54.5944
G01 X32.4981 Y54.6065
G01 X32.5161 Y54.6360
G01 X32.5263 Y54.6556
G01 X32.5347 Y54.6736
G01 X32.5403 Y54.6872
G01 X32.5517 Y54.7198
G01 X32.5603 Y54.7532
G01 X32.5632 Y54.7677
G01 X32.5662 Y54.7873
G01 X32.5686 Y54.8092
G01 X32.5701 Y54.8437
G01 X32.5701 Y77.3430
G01 X32.5686 Y77.3775
G01 X32.5672 Y77.3922
G01 X32.5644 Y77.4118
G01 X32.5619 Y77.4263
G01 X32.5586 Y77.4407
G01 X32.5537 Y77.4599
G01 X32.5495 Y77.4740
G01 X32.5376 Y77.5064
G01 X32.5230 Y77.5378
G01 X32.5161 Y77.5508
G01 X32.5060 Y77.5678
G01 X32.4981 Y77.5803
G01 X32.4896 Y77.5923
G01 X32.4777 Y77.6082
G01 X32.4684 Y77.6196
G01 X32.4450 Y77.6450
G01 X32.4196 Y77.6684
G01 X32.4082 Y77.6777
G01 X32.3923 Y77.6896
G01 X32.3803 Y77.6981
G01 X32.3678 Y77.7060
G01 X32.3508 Y77.7161
G01 X32.3378 Y77.7230
G01 X32.3064 Y77.7376
G01 X32.2740 Y77.7495
G01 X32.2599 Y77.7537
G01 X32.2407 Y77.7586
G01 X32.2191 Y77.7632
G01 X32.1849 Y77.7680
G01 X32.1504 Y77.7700
G01 X31.3985 Y77.7701
G01 X31.3640 Y77.7686
G01 X31.3493 Y77.7672
G01 X31.3297 Y77.7644
G01 X31.3152 Y77.7619
G01 X31.3008 Y77.7586
G01 X31.2816 Y77.7537
G01 X31.2675 Y77.7495
G01 X31.2351 Y77.7376
G01 X31.2103 Y77.7263
G01 X31.1972 Y77.7196
G01 X31.1674 Y77.7021
G01 X31.1552 Y77.6939
G01 X31.1392 Y77.6822
G01 X31.1276 Y77.6731
G01 X31.1164 Y77.6635
G01 X31.1018 Y77.6501
G01 X31.0864 Y77.6343
G01 X31.0684 Y77.6139
G01 X31.0519 Y77.5923
G01 X31.0394 Y77.5741
G01 X31.0254 Y77.5508
G01 X31.0185 Y77.5378
G01 X31.0068 Y77.5132
G01 X30.9986 Y77.4927
G01 X30.9898 Y77.4670
G01 X30.9829 Y77.4407
G01 X30.9796 Y77.4263
G01 X30.9753 Y77.3995
G01 X30.9729 Y77.3775
G01 X30.9715 Y77.3504
G01 X30.9718 Y77.3283
G01 X30.9729 Y77.3085
G01 X30.9743 Y77.2938
G01 X30.9796 Y77.2597
G01 X30.9878 Y77.2261
G01 X30.9920 Y77.2120
G01 X30.9986 Y77.1933
G01 X31.0039 Y77.1796
G01 X31.0099 Y77.1661
G01 X31.0185 Y77.1482
G01 X31.0254 Y77.1352
G01 X31.0394 Y77.1119
G01 X31.0642 Y77.0746
G01 X31.1573 Y76.6064
G01 X31.0642 Y76.1382
G01 X30.7990 Y75.7413
G01 X30.4021 Y75.4761
G01 X30.0521 Y75.4065
G01 X29.0203 Y75.4065
G01 X29.0056 Y75.4061
G01 X28.9785 Y75.4044
G01 X28.9442 Y75.3996
G01 X28.9226 Y75.3950
G01 X28.9034 Y75.3901
G01 X28.8893 Y75.3859
G01 X28.8569 Y75.3740
G01 X28.8255 Y75.3594
G01 X28.8062 Y75.3488
G01 X28.7831 Y75.3345
G01 X28.7551 Y75.3141
G01 X28.7382 Y75.2999
G01 X28.7183 Y75.2814
G01 X23.0039 Y69.5670
G01 X22.9854 Y69.5470
G01 X22.9758 Y69.5359
G01 X22.9667 Y69.5243
G01 X22.9508 Y69.5022
G01 X22.9328 Y69.4727
G01 X22.9226 Y69.4531
G01 X22.9142 Y69.4352
G01 X22.9086 Y69.4216
G01 X22.8972 Y69.3889
G01 X22.8886 Y69.3555
G01 X22.8857 Y69.3411
G01 X22.8827 Y69.3214
G01 X22.8803 Y69.2995
G01 X22.8788 Y69.2650
G01 X22.8788 Y62.5182
G01 X22.8092 Y62.1682
G01 X22.5421 Y61.7684
G01 X22.5293 Y61.7580
G01 X22.5146 Y61.7448
G01 X22.5039 Y61.7346
G01 X22.4938 Y61.7240
G01 X22.4805 Y61.7092
G01 X22.4712 Y61.6978
G01 X22.4508 Y61.6699
G01 X22.4328 Y61.6404
G01 X22.4259 Y61.6274
G01 X22.4173 Y61.6096
G01 X22.4086 Y61.5893
G01 X22.3972 Y61.5566
G01 X22.3886 Y61.5232
G01 X22.3857 Y61.5087
G01 X22.3827 Y61.4891
G01 X22.3803 Y61.4672
G01 X22.3788 Y61.4327
G01 X22.3788 Y61.1819
G01 X22.3792 Y61.1672
G01 X22.3803 Y61.1474
G01 X22.3827 Y61.1254
G01 X22.3857 Y61.1058
G01 X22.3925 Y61.0709
G01 X22.3382 Y60.7978
G01 X22.2228 Y60.6250
G01 X12.2550 Y50.6571
G01 X12.2365 Y50.6372
G01 X12.2223 Y50.6203
G01 X12.2019 Y50.5924
G01 X12.1940 Y50.5800
G01 X12.1804 Y50.5565
G01 X12.1653 Y50.5254
G01 X12.1597 Y50.5118
G01 X12.1529 Y50.4931
G01 X12.1483 Y50.4791
G01 X12.1444 Y50.4649
G01 X12.1397 Y50.4457
G01 X12.1368 Y50.4312
G01 X12.1320 Y50.3970
G01 X12.1300 Y50.3625
G01 X12.1299 Y47.8118
G01 X12.1314 Y47.7772
G01 X12.1328 Y47.7626
G01 X12.1356 Y47.7430
G01 X12.1397 Y47.7212
G01 X12.1483 Y47.6878
G01 X12.1597 Y47.6552
G01 X12.1684 Y47.6349
G01 X12.1770 Y47.6170
G01 X12.1839 Y47.6040
G01 X12.2019 Y47.5745
G01 X12.2223 Y47.5466
G01 X12.2365 Y47.5297
G01 X12.2550 Y47.5098
G01 X12.6168 Y47.1480
G01 X12.8299 Y46.6335
G01 X12.8299 Y46.0765
G01 X12.6168 Y45.5620
G01 X12.2230 Y45.1682
G01 X11.7085 Y44.9551
G01 X11.1968 Y44.9551
G01 X11.1696 Y44.9541
G01 X11.1476 Y44.9522
G01 X11.1135 Y44.9469
G01 X11.0870 Y44.9406
G01 X11.0658 Y44.9345
G01 X11.0334 Y44.9226
G01 X11.0020 Y44.9080
G01 X10.9891 Y44.9011
G01 X10.9720 Y44.8910
G01 X10.9535 Y44.8789
G01 X10.9259 Y44.8581
G01 X10.9055 Y44.8401
G01 X10.8948 Y44.8300
G01 X7.3491 Y41.2842
G01 X7.3305 Y41.2643
G01 X7.3163 Y41.2474
G01 X7.3001 Y41.2256
G01 X7.2881 Y41.2070
G01 X7.2744 Y41.1835
G01 X7.2624 Y41.1591
G01 X7.2537 Y41.1388
G01 X7.2446 Y41.1132
G01 X7.2384 Y41.0920
G01 X7.2322 Y41.0655
G01 X7.2278 Y41.0387
G01 X7.2260 Y41.0241
G01 X7.2243 Y40.9969
G01 X7.2240 Y40.9822
G01 X7.2243 Y40.9675
G01 X7.2260 Y40.9404
G01 X7.2297 Y40.9134
G01 X7.2322 Y40.8989
G01 X7.2354 Y40.8845
G01 X7.2424 Y40.8582
G01 X7.2512 Y40.8325
G01 X7.2565 Y40.8188
G01 X7.2624 Y40.8053
G01 X7.2744 Y40.7809
G01 X7.2817 Y40.7681
G01 X7.2959 Y40.7450
G01 X7.3119 Y40.7229
G01 X7.3209 Y40.7113
G01 X7.3305 Y40.7001
G01 X7.3491 Y40.6802
G01 X7.3690 Y40.6617
G01 X7.3859 Y40.6475
G01 X7.4077 Y40.6313
G01 X7.4199 Y40.6231
G01 X7.4433 Y40.6091
G01 X7.4563 Y40.6022
G01 X7.4808 Y40.5906
G01 X7.4944 Y40.5849
G01 X7.5200 Y40.5758
G01 X7.5413 Y40.5696
G01 X7.5677 Y40.5634
G01 X7.5946 Y40.5590
G01 X7.6165 Y40.5566
G01 X7.6437 Y40.5552
G01 X7.6658 Y40.5555
G01 X7.6929 Y40.5572
G01 X7.7198 Y40.5608
G01 X7.7416 Y40.5649
G01 X7.7750 Y40.5735
G01 X7.8007 Y40.5824
G01 X7.8212 Y40.5906
G01 X7.8458 Y40.6022
G01 X7.8588 Y40.6091
G01 X7.8821 Y40.6231
G01 X7.9646 Y40.6781
G01 X8.3146 Y40.7477
G01 X8.5510 Y40.7477
G01 X8.9010 Y40.6781
G01 X9.2979 Y40.4129
G01 X9.5631 Y40.0160
G01 X9.6562 Y39.5478
G01 X9.5631 Y39.0796
G01 X9.2979 Y38.6827
G01 X8.9010 Y38.4175
G01 X8.5510 Y38.3479
G01 X8.3146 Y38.3479
G01 X7.9646 Y38.4175
G01 X7.5677 Y38.6827
G01 X7.3749 Y38.9712
G01 X7.3664 Y38.9833
G01 X7.3499 Y39.0049
G01 X7.3269 Y39.0307
G01 X7.3111 Y39.0461
G01 X7.2907 Y39.0641
G01 X7.2631 Y39.0849
G01 X7.2446 Y39.0970
G01 X7.2211 Y39.1106
G01 X7.1900 Y39.1256
G01 X7.1764 Y39.1313
G01 X7.1578 Y39.1380
G01 X7.1367 Y39.1447
G01 X7.1031 Y39.1528
G01 X7.0763 Y39.1572
G01 X7.0543 Y39.1596
G01 X7.0272 Y39.1610
G01 X7.0124 Y39.1610
G01 X6.9853 Y39.1596
G01 X6.9633 Y39.1572
G01 X6.9365 Y39.1528
G01 X6.9221 Y39.1496
G01 X6.8958 Y39.1427
G01 X6.8818 Y39.1380
G01 X6.8564 Y39.1285
G01 X6.8316 Y39.1172
G01 X6.8185 Y39.1106
G01 X6.8057 Y39.1034
G01 X6.7825 Y39.0891
G01 X6.7605 Y39.0732
G01 X6.7432 Y39.0594
G01 X6.7231 Y39.0411
G01 X6.7127 Y39.0307
G01 X6.6944 Y39.0105
G01 X6.6806 Y38.9933
G01 X6.6689 Y38.9773
G01 X6.6568 Y38.9588
G01 X6.6432 Y38.9353
G01 X6.6312 Y38.9109
G01 X6.6225 Y38.8906
G01 X6.6133 Y38.8650
G01 X6.6091 Y38.8509
G01 X6.6025 Y38.8245
G01 X6.5984 Y38.8028
G01 X6.5948 Y38.7758
G01 X6.5931 Y38.7487
G01 X6.5927 Y38.7340
G01 X6.5928 Y35.2743
G01 X6.5948 Y35.2398
G01 X6.5996 Y35.2055
G01 X6.6042 Y35.1839
G01 X6.6091 Y35.1647
G01 X6.6133 Y35.1506
G01 X6.6252 Y35.1182
G01 X6.6398 Y35.0868
G01 X6.6504 Y35.0675
G01 X6.6607 Y35.0505
G01 X6.6689 Y35.0383
G01 X6.6897 Y35.0107
G01 X6.7127 Y34.9849
G01 X6.7231 Y34.9745
G01 X6.7377 Y34.9611
G01 X6.7489 Y34.9515
G01 X6.7605 Y34.9424
G01 X6.7765 Y34.9307
G01 X6.7887 Y34.9225
G01 X6.8185 Y34.9050
G01 X6.8316 Y34.8984
G01 X6.8564 Y34.8871
G01 X6.8888 Y34.8752
G01 X6.9029 Y34.8709
G01 X6.9221 Y34.8660
G01 X6.9365 Y34.8628
G01 X6.9510 Y34.8602
G01 X6.9706 Y34.8574
G01 X6.9853 Y34.8560
G01 X7.0198 Y34.8546
G01 X7.0543 Y34.8560
G01 X7.0690 Y34.8574
G01 X7.0886 Y34.8602
G01 X7.1031 Y34.8628
G01 X7.1175 Y34.8660
G01 X7.1367 Y34.8709
G01 X7.1508 Y34.8752
G01 X7.1832 Y34.8871
G01 X7.2080 Y34.8984
G01 X7.2276 Y34.9085
G01 X7.2509 Y34.9225
G01 X7.2691 Y34.9350
G01 X7.2907 Y34.9515
G01 X7.3165 Y34.9745
G01 X7.3319 Y34.9903
G01 X7.3499 Y35.0107
G01 X7.3707 Y35.0383
G01 X7.5677 Y35.3329
G01 X7.9646 Y35.5981
G01 X8.3146 Y35.6677
G01 X8.5510 Y35.6677
G01 X8.9010 Y35.5981
G01 X9.2979 Y35.3329
G01 X9.5631 Y34.9360
G01 X9.6562 Y34.4678
G01 X9.5631 Y33.9996
G01 X9.2979 Y33.6027
G01 X9.2173 Y33.5487
G01 X9.1955 Y33.5325
G01 X9.1841 Y33.5232
G01 X9.1587 Y33.4998
G01 X9.1401 Y33.4799
G01 X9.1259 Y33.4630
G01 X9.1055 Y33.4351
G01 X9.0875 Y33.4056
G01 X9.0806 Y33.3926
G01 X9.0720 Y33.3747
G01 X9.0633 Y33.3544
G01 X9.0520 Y33.3218
G01 X9.0433 Y33.2883
G01 X9.0393 Y33.2666
G01 X9.0356 Y33.2397
G01 X9.0337 Y33.2052
G01 X9.0337 Y33.1904
G01 X9.0345 Y33.1706
G01 X9.0356 Y33.1559
G01 X9.0374 Y33.1413
G01 X9.0404 Y33.1217
G01 X9.0433 Y33.1073
G01 X9.0520 Y33.0738
G01 X9.0633 Y33.0412
G01 X9.0720 Y33.0209
G01 X9.0806 Y33.0030
G01 X9.0875 Y32.9900
G01 X9.1055 Y32.9605
G01 X9.1259 Y32.9326
G01 X9.1401 Y32.9157
G01 X9.1587 Y32.8958
G01 X9.1841 Y32.8724
G01 X9.1955 Y32.8631
G01 X9.2173 Y32.8469
G01 X9.2979 Y32.7929
G01 X9.5631 Y32.3960
G01 X9.6562 Y31.9278
G01 X9.5631 Y31.4596
G01 X9.2979 Y31.0627
G01 X9.2173 Y31.0087
G01 X9.1955 Y30.9925
G01 X9.1841 Y30.9832
G01 X9.1587 Y30.9598
G01 X9.1401 Y30.9399
G01 X9.1259 Y30.9230
G01 X9.1055 Y30.8951
G01 X9.0875 Y30.8656
G01 X9.0806 Y30.8526
G01 X9.0720 Y30.8347
G01 X9.0633 Y30.8144
G01 X9.0520 Y30.7818
G01 X9.0433 Y30.7483
G01 X9.0393 Y30.7266
G01 X9.0356 Y30.6997
G01 X9.0337 Y30.6652
G01 X9.0337 Y30.6504
G01 X9.0345 Y30.6306
G01 X9.0356 Y30.6159
G01 X9.0374 Y30.6013
G01 X9.0404 Y30.5817
G01 X9.0433 Y30.5673
G01 X9.0520 Y30.5338
G01 X9.0633 Y30.5012
G01 X9.0720 Y30.4809
G01 X9.0806 Y30.4630
G01 X9.0875 Y30.4500
G01 X9.1055 Y30.4205
G01 X9.1259 Y30.3926
G01 X9.1401 Y30.3757
G01 X9.1587 Y30.3558
G01 X9.1841 Y30.3324
G01 X9.1955 Y30.3231
G01 X9.2173 Y30.3069
G01 X9.2979 Y30.2529
G01 X9.5631 Y29.8560
G01 X9.6562 Y29.3878
G01 X9.5631 Y28.9196
G01 X9.2979 Y28.5227
G01 X9.2173 Y28.4687
G01 X9.1955 Y28.4525
G01 X9.1841 Y28.4432
G01 X9.1587 Y28.4198
G01 X9.1401 Y28.3999
G01 X9.1259 Y28.3830
G01 X9.1055 Y28.3551
G01 X9.0875 Y28.3256
G01 X9.0806 Y28.3126
G01 X9.0720 Y28.2947
G01 X9.0633 Y28.2744
G01 X9.0520 Y28.2418
G01 X9.0433 Y28.2083
G01 X9.0393 Y28.1866
G01 X9.0356 Y28.1597
G01 X9.0337 Y28.1252
G01 X9.0337 Y28.1104
G01 X9.0345 Y28.0906
G01 X9.0356 Y28.0759
G01 X9.0374 Y28.0613
G01 X9.0404 Y28.0417
G01 X9.0433 Y28.0273
G01 X9.0520 Y27.9938
G01 X9.0633 Y27.9612
G01 X9.0720 Y27.9409
G01 X9.0806 Y27.9230
G01 X9.0875 Y27.9100
G01 X9.1055 Y27.8805
G01 X9.1259 Y27.8526
G01 X9.1401 Y27.8357
G01 X9.1587 Y27.8158
G01 X9.1841 Y27.7924
G01 X9.1955 Y27.7831
G01 X9.2173 Y27.7669
G01 X9.2979 Y27.7129
G01 X9.5631 Y27.3160
G01 X9.6562 Y26.8478
G01 X9.5631 Y26.3796
G01 X9.2979 Y25.9827
G01 X9.2173 Y25.9287
G01 X9.1955 Y25.9125
G01 X9.1841 Y25.9032
G01 X9.1587 Y25.8798
G01 X9.1401 Y25.8599
G01 X9.1259 Y25.8430
G01 X9.1055 Y25.8151
G01 X9.0875 Y25.7856
G01 X9.0806 Y25.7726
G01 X9.0720 Y25.7547
G01 X9.0633 Y25.7344
G01 X9.0520 Y25.7018
G01 X9.0433 Y25.6683
G01 X9.0393 Y25.6466
G01 X9.0356 Y25.6197
G01 X9.0337 Y25.5852
G01 X9.0337 Y25.5704
G01 X9.0345 Y25.5506
G01 X9.0356 Y25.5359
G01 X9.0374 Y25.5213
G01 X9.0404 Y25.5017
G01 X9.0433 Y25.4873
G01 X9.0520 Y25.4538
G01 X9.0633 Y25.4212
G01 X9.0720 Y25.4009
G01 X9.0806 Y25.3830
G01 X9.0875 Y25.3700
G01 X9.1055 Y25.3405
G01 X9.1259 Y25.3126
G01 X9.1401 Y25.2957
G01 X9.1587 Y25.2758
G01 X9.1841 Y25.2524
G01 X9.1955 Y25.2431
G01 X9.2173 Y25.2269
G01 X9.2979 Y25.1729
G01 X9.5631 Y24.7760
G01 X9.6562 Y24.3078
G01 X9.5631 Y23.8396
G01 X9.2979 Y23.4427
G01 X9.2173 Y23.3887
G01 X9.1955 Y23.3725
G01 X9.1841 Y23.3632
G01 X9.1587 Y23.3398
G01 X9.1401 Y23.3199
G01 X9.1259 Y23.3030
G01 X9.1055 Y23.2751
G01 X9.0875 Y23.2456
G01 X9.0806 Y23.2326
G01 X9.0720 Y23.2147
G01 X9.0633 Y23.1944
G01 X9.0520 Y23.1618
G01 X9.0433 Y23.1283
G01 X9.0393 Y23.1066
G01 X9.0356 Y23.0797
G01 X9.0337 Y23.0452
G01 X9.0337 Y23.0304
G01 X9.0345 Y23.0106
G01 X9.0356 Y22.9959
G01 X9.0374 Y22.9813
G01 X9.0404 Y22.9617
G01 X9.0433 Y22.9473
G01 X9.0520 Y22.9138
G01 X9.0633 Y22.8812
G01 X9.0720 Y22.8609
G01 X9.0806 Y22.8430
G01 X9.0875 Y22.8300
G01 X9.1055 Y22.8005
G01 X9.1259 Y22.7726
G01 X9.1401 Y22.7557
G01 X9.1587 Y22.7358
G01 X9.1841 Y22.7124
G01 X9.1955 Y22.7031
G01 X9.2173 Y22.6869
G01 X9.2979 Y22.6329
G01 X9.5631 Y22.2360
G01 X9.6562 Y21.7678
G01 X9.5631 Y21.2996
G01 X9.2979 Y20.9027
G01 X9.2173 Y20.8487
G01 X9.1955 Y20.8325
G01 X9.1841 Y20.8232
G01 X9.1587 Y20.7998
G01 X9.1401 Y20.7799
G01 X9.1259 Y20.7630
G01 X9.1055 Y20.7351
G01 X9.0875 Y20.7056
G01 X9.0806 Y20.6926
G01 X9.0720 Y20.6747
G01 X9.0633 Y20.6544
G01 X9.0520 Y20.6218
G01 X9.0433 Y20.5883
G01 X9.0393 Y20.5666
G01 X9.0356 Y20.5397
G01 X9.0337 Y20.5052
G01 X9.0337 Y20.4904
G01 X9.0345 Y20.4706
G01 X9.0356 Y20.4559
G01 X9.0374 Y20.4413
G01 X9.0404 Y20.4217
G01 X9.0433 Y20.4073
G01 X9.0520 Y20.3738
G01 X9.0633 Y20.3412
G01 X9.0720 Y20.3209
G01 X9.0806 Y20.3030
G01 X9.0875 Y20.2900
G01 X9.1055 Y20.2605
G01 X9.1259 Y20.2326
G01 X9.1401 Y20.2157
G01 X9.1587 Y20.1958
G01 X9.1841 Y20.1724
G01 X9.1955 Y20.1631
G01 X9.2173 Y20.1469
G01 X9.2979 Y20.0929
G01 X9.5631 Y19.6960
G01 X9.6562 Y19.2278
G01 X9.5631 Y18.7596
G01 X9.2979 Y18.3627
G01 X9.2173 Y18.3087
G01 X9.1955 Y18.2925
G01 X9.1841 Y18.2832
G01 X9.1587 Y18.2598
G01 X9.1401 Y18.2399
G01 X9.1259 Y18.2230
G01 X9.1055 Y18.1951
G01 X9.0875 Y18.1656
G01 X9.0806 Y18.1526
G01 X9.0720 Y18.1347
G01 X9.0633 Y18.1144
G01 X9.0520 Y18.0818
G01 X9.0433 Y18.0483
G01 X9.0393 Y18.0266
G01 X9.0356 Y17.9997
G01 X9.0337 Y17.9652
G01 X9.0337 Y17.9504
G01 X9.0345 Y17.9306
G01 X9.0356 Y17.9159
G01 X9.0374 Y17.9013
G01 X9.0404 Y17.8817
G01 X9.0433 Y17.8673
G01 X9.0520 Y17.8338
G01 X9.0633 Y17.8012
G01 X9.0720 Y17.7809
G01 X9.0806 Y17.7630
G01 X9.0875 Y17.7500
G01 X9.1055 Y17.7205
G01 X9.1259 Y17.6926
G01 X9.1401 Y17.6757
G01 X9.1587 Y17.6558
G01 X9.1841 Y17.6324
G01 X9.1955 Y17.6231
G01 X9.2173 Y17.6069
G01 X9.2979 Y17.5529
G01 X9.5631 Y17.1560
G01 X9.6562 Y16.6878
G01 X9.5631 Y16.2196
G01 X9.2979 Y15.8227
G01 X9.2173 Y15.7687
G01 X9.1955 Y15.7525
G01 X9.1841 Y15.7432
G01 X9.1587 Y15.7198
G01 X9.1401 Y15.6999
G01 X9.1259 Y15.6830
G01 X9.1055 Y15.6551
G01 X9.0875 Y15.6256
G01 X9.0774 Y15.6060
G01 X9.0661 Y15.5812
G01 X9.0542 Y15.5488
G01 X9.0480 Y15.5276
G01 X9.0433 Y15.5083
G01 X9.0404 Y15.4939
G01 X9.0356 Y15.4597
G01 X9.0339 Y15.4325
G01 X9.0336 Y15.4178
G01 X9.0339 Y15.4031
G01 X9.0350 Y15.3833
G01 X9.0364 Y15.3686
G01 X9.0418 Y15.3345
G01 X9.0499 Y15.3009
G01 X9.0542 Y15.2868
G01 X9.0608 Y15.2681
G01 X9.0690 Y15.2476
G01 X9.0840 Y15.2165
G01 X9.1015 Y15.1867
G01 X9.1140 Y15.1685
G01 X9.1259 Y15.1526
G01 X9.1352 Y15.1412
G01 X9.1587 Y15.1158
G01 X9.1786 Y15.0973
G01 X9.1955 Y15.0831
G01 X9.2173 Y15.0669
G01 X9.2979 Y15.0129
G01 X9.5631 Y14.6160
G01 X9.6562 Y14.1478
G01 X9.5631 Y13.6796
G01 X9.2979 Y13.2827
G01 X9.2173 Y13.2287
G01 X9.1955 Y13.2125
G01 X9.1841 Y13.2032
G01 X9.1587 Y13.1798
G01 X9.1401 Y13.1599
G01 X9.1259 Y13.1430
G01 X9.1055 Y13.1151
G01 X9.0875 Y13.0856
G01 X9.0774 Y13.0660
G01 X9.0661 Y13.0412
G01 X9.0542 Y13.0088
G01 X9.0480 Y12.9876
G01 X9.0418 Y12.9611
G01 X9.0364 Y12.9270
G01 X9.0345 Y12.9050
G01 X9.0337 Y12.8852
G01 X9.0337 Y12.8704
G01 X9.0356 Y12.8359
G01 X9.0404 Y12.8017
G01 X9.0433 Y12.7873
G01 X9.0480 Y12.7680
G01 X9.0520 Y12.7538
G01 X9.0566 Y12.7398
G01 X9.0633 Y12.7212
G01 X9.0690 Y12.7076
G01 X9.0840 Y12.6765
G01 X9.1015 Y12.6467
G01 X9.1140 Y12.6285
G01 X9.1259 Y12.6126
G01 X9.1352 Y12.6012
G01 X9.1587 Y12.5758
G01 X9.1786 Y12.5573
G01 X9.1955 Y12.5431
G01 X9.2173 Y12.5269
G01 X9.2979 Y12.4729
G01 X9.5631 Y12.0760
G01 X9.6562 Y11.6078
G01 X9.5631 Y11.1396
G01 X9.2979 Y10.7427
G01 X9.2173 Y10.6887
G01 X9.1955 Y10.6725
G01 X9.1841 Y10.6632
G01 X9.1639 Y10.6449
G01 X9.1485 Y10.6291
G01 X9.1305 Y10.6087
G01 X9.1097 Y10.5811
G01 X9.0977 Y10.5626
G01 X9.0840 Y10.5391
G01 X9.0690 Y10.5080
G01 X9.0608 Y10.4875
G01 X9.0520 Y10.4618
G01 X9.0433 Y10.4283
G01 X9.0404 Y10.4139
G01 X9.0374 Y10.3943
G01 X9.0350 Y10.3723
G01 X9.0336 Y10.3378
G01 X9.0350 Y10.3033
G01 X9.0364 Y10.2886
G01 X9.0393 Y10.2690
G01 X9.0418 Y10.2545
G01 X9.0450 Y10.2401
G01 X9.0499 Y10.2209
G01 X9.0542 Y10.2068
G01 X9.0661 Y10.1744
G01 X9.0720 Y10.1609
G01 X9.0840 Y10.1365
G01 X9.1015 Y10.1067
G01 X9.1140 Y10.0885
G01 X9.1259 Y10.0726
G01 X9.1352 Y10.0612
G01 X9.1587 Y10.0358
G01 X9.1786 Y10.0173
G01 X9.1955 Y10.0031
G01 X9.2173 Y9.9869
G01 X9.2979 Y9.9329
G01 X9.5631 Y9.5360
G01 X9.6562 Y9.0678
G01 X9.5631 Y8.5996
G01 X9.2979 Y8.2027
G01 X9.2173 Y8.1487
G01 X9.1955 Y8.1325
G01 X9.1841 Y8.1232
G01 X9.1639 Y8.1049
G01 X9.1485 Y8.0891
G01 X9.1305 Y8.0687
G01 X9.1140 Y8.0471
G01 X9.1015 Y8.0289
G01 X9.0875 Y8.0056
G01 X9.0806 Y7.9926
G01 X9.0690 Y7.9680
G01 X9.0633 Y7.9544
G01 X9.0542 Y7.9288
G01 X9.0499 Y7.9147
G01 X9.0433 Y7.8883
G01 X9.0404 Y7.8739
G01 X9.0364 Y7.8470
G01 X9.0350 Y7.8323
G01 X9.0339 Y7.8125
G01 X9.0336 Y7.7978
G01 X9.0339 Y7.7831
G01 X9.0350 Y7.7633
G01 X9.0364 Y7.7486
G01 X9.0418 Y7.7145
G01 X9.0450 Y7.7001
G01 X9.0520 Y7.6738
G01 X9.0608 Y7.6481
G01 X9.0661 Y7.6344
G01 X9.0806 Y7.6030
G01 X9.0875 Y7.5900
G01 X9.0977 Y7.5730
G01 X9.1055 Y7.5605
G01 X9.1140 Y7.5485
G01 X9.1259 Y7.5326
G01 X9.1352 Y7.5212
G01 X9.1535 Y7.5011
G01 X9.1639 Y7.4907
G01 X9.1897 Y7.4677
G01 X9.2113 Y7.4512
G01 X9.2234 Y7.4427
G01 X9.3008 Y7.3910
G00 Z2.0000
G00 X8.4181 Y7.9682
G01 F60.00
G01 Z-0.1500
G01 F100.00
G01 X8.4328 Y7.9678
G01 X8.4475 Y7.9682
G01 X8.5259 Y7.9720
G01 X8.5406 Y7.9731
G01 X8.5552 Y7.9749
G01 X8.6329 Y7.9864
G01 X8.6474 Y7.9889
G01 X8.6618 Y7.9922
G01 X8.7379 Y8.0112
G01 X8.7521 Y8.0152
G01 X8.7661 Y8.0198
G01 X8.8400 Y8.0462
G01 X8.8538 Y8.0515
G01 X8.8672 Y8.0575
G01 X8.9382 Y8.0911
G01 X8.9513 Y8.0977
G01 X8.9641 Y8.1049
G01 X9.0315 Y8.1453
G01 X9.0439 Y8.1532
G01 X9.0560 Y8.1617
G01 X9.1190 Y8.2084
G01 X9.1306 Y8.2175
G01 X9.1418 Y8.2271
G01 X9.2000 Y8.2798
G01 X9.2106 Y8.2900
G01 X9.2208 Y8.3006
G01 X9.2735 Y8.3588
G01 X9.2831 Y8.3700
G01 X9.2922 Y8.3816
G01 X9.3389 Y8.4446
G01 X9.3474 Y8.4567
G01 X9.3553 Y8.4691
G01 X9.3957 Y8.5365
G01 X9.4029 Y8.5493
G01 X9.4095 Y8.5624
G01 X9.4431 Y8.6334
G01 X9.4491 Y8.6468
G01 X9.4544 Y8.6606
G01 X9.4808 Y8.7345
G01 X9.4854 Y8.7485
G01 X9.4894 Y8.7627
G01 X9.5084 Y8.8388
G01 X9.5117 Y8.8532
G01 X9.5142 Y8.8677
G01 X9.5257 Y8.9454
G01 X9.5275 Y8.9600
G01 X9.5286 Y8.9747
G01 X9.5324 Y9.0531
G01 X9.5328 Y9.0678
G01 X9.5324 Y9.0825
G01 X9.5286 Y9.1609
G01 X9.5275 Y9.1756
G01 X9.5257 Y9.1902
G01 X9.5142 Y9.2679
G01 X9.5117 Y9.2824
G01 X9.5084 Y9.2968
G01 X9.4894 Y9.3729
G01 X9.4854 Y9.3871
G01 X9.4808 Y9.4011
G01 X9.4544 Y9.4750
G01 X9.4491 Y9.4888
G01 X9.4431 Y9.5022
G01 X9.4095 Y9.5732
G01 X9.4029 Y9.5863
G01 X9.3957 Y9.5991
G01 X9.3553 Y9.6665
G01 X9.3474 Y9.6789
G01 X9.3389 Y9.6910
G01 X9.2922 Y9.7540
G01 X9.2831 Y9.7656
G01 X9.2735 Y9.7768
G01 X9.2208 Y9.8350
G01 X9.2106 Y9.8456
G01 X9.2000 Y9.8558
G01 X9.1418 Y9.9085
G01 X9.1306 Y9.9181
G01 X9.1190 Y9.9272
G01 X9.0560 Y9.9739
G01 X9.0439 Y9.9824
G01 X9.0315 Y9.9903
G01 X8.9641 Y10.0307
G01 X8.9513 Y10.0379
G01 X8.9382 Y10.0445
G01 X8.8672 Y10.0781
G01 X8.8538 Y10.0841
G01 X8.8400 Y10.0894
G01 X8.7661 Y10.1158
G01 X8.7521 Y10.1204
G01 X8.7379 Y10.1244
G01 X8.6618 Y10.1434
G01 X8.6474 Y10.1467
G01 X8.6329 Y10.1492
G01 X8.5552 Y10.1607
G01 X8.5406 Y10.1625
G01 X8.5259 Y10.1636
G01 X8.4475 Y10.1674
G01 X8.4328 Y10.1678
G01 X8.4181 Y10.1674
G01 X8.3397 Y10.1636
G01 X8.3250 Y10.1625
G01 X8.3104 Y10.1607
G01 X8.2327 Y10.1492
G01 X8.2182 Y10.1467
G01 X8.2038 Y10.1434
G01 X8.1277 Y10.1244
G01 X8.1135 Y10.1204
G01 X8.0995 Y10.1158
G01 X8.0256 Y10.0894
G01 X8.0118 Y10.0841
G01 X7.9984 Y10.0781
G01 X7.9274 Y10.0445
G01 X7.9143 Y10.0379
G01 X7.9015 Y10.0307
G01 X7.8341 Y9.9903
G01 X7.8217 Y9.9824
G01 X7.8096 Y9.9739
G01 X7.7466 Y9.9272
G01 X7.7350 Y9.9181
G01 X7.7238 Y9.9085
G01 X7.6656 Y9.8558
G01 X7.6550 Y9.8456
G01 X7.6448 Y9.8350
G01 X7.5921 Y9.7768
G01 X7.5825 Y9.7656
G01 X7.5734 Y9.7540
G01 X7.5267 Y9.6910
G01 X7.5182 Y9.6789
G01 X7.5103 Y9.6665
G01 X7.4699 Y9.5991
G01 X7.4627 Y9.5863
G01 X7.4561 Y9.5732
G01 X7.4225 Y9.5022
G01 X7.4165 Y9.4888
G01 X7.4112 Y9.4750
G01 X7.3848 Y9.4011
G01 X7.3802 Y9.3871
G01 X7.3762 Y9.3729
G01 X7.3572 Y9.2968
G01 X7.3539 Y9.2824
G01 X7.3514 Y9.2679
G01 X7.3399 Y9.1902
G01 X7.3381 Y9.1756
G01 X7.3370 Y9.1609
G01 X7.3332 Y9.0825
G01 X7.3328 Y9.0678
G01 X7.3332 Y9.0531
G01 X7.3370 Y8.9747
G01 X7.3381 Y8.9600
G01 X7.3399 Y8.9454
G01 X7.3514 Y8.8677
G01 X7.3539 Y8.8532
G01 X7.3572 Y8.8388
G01 X7.3762 Y8.7627
G01 X7.3802 Y8.7485
G01 X7.3848 Y8.7345
G01 X7.4112 Y8.6606
G01 X7.4165 Y8.6468
G01 X7.4225 Y8.6334
G01 X7.4561 Y8.5624
G01 X7.4627 Y8.5493
G01 X7.4699 Y8.5365
G01 X7.5103 Y8.4691
G01 X7.5182 Y8.4567
G01 X7.5267 Y8.4446
G01 X7.5734 Y8.3816
G01 X7.5825 Y8.3700
G01 X7.5921 Y8.3588
G01 X7.6448 Y8.3006
G01 X7.6550 Y8.2900
G01 X7.6656 Y8.2798
G01 X7.7238 Y8.2271
G01 X7.7350 Y8.2175
G01 X7.7466 Y8.2084
G01 X7.8096 Y8.1617
G01 X7.8217 Y8.1532
G01 X7.8341 Y8.1453
G01 X7.9015 Y8.1049
G01 X7.9143 Y8.0977
G01 X7.9274 Y8.0911
G01 X7.9984 Y8.0575
G01 X8.0118 Y8.0515
G01 X8.0256 Y8.0462
G01 X8.0995 Y8.0198
G01 X8.1135 Y8.0152
G01 X8.1277 Y8.0112
G01 X8.2038 Y7.9922
G01 X8.2182 Y7.9889
G01 X8.2327 Y7.9864
G01 X8.3104 Y7.9749
G01 X8.3250 Y7.9731
G01 X8.3397 Y7.9720
G01 X8.4181 Y7.9682
G00 Z2.0000
G00 X8.4181 Y10.5082
G01 F60.00
G01 Z-0.1500
G01 F100.00
G01 X8.4328 Y10.5078
G01 X8.4475 Y10.5082
G01 X8.5259 Y10.5120
G01 X8.5406 Y10.5131
G01 X8.5552 Y10.5149
G01 X8.6329 Y10.5264
G01 X8.6474 Y10.5289
G01 X8.6618 Y10.5322
G01 X8.7379 Y10.5512
G01 X8.7521 Y10.5552
G01 X8.7661 Y10.5598
G01 X8.8400 Y10.5862
G01 X8.8538 Y10.5915
G01 X8.8672 Y10.5975
G01 X8.9382 Y10.6311
G01 X8.9513 Y10.6377
G01 X8.9641 Y10.6449
G01 X9.0315 Y10.6853
G01 X9.0439 Y10.6932
G01 X9.0560 Y10.7017
G01 X9.1190 Y10.7484
G01 X9.1306 Y10.7575
G01 X9.1418 Y10.7671
G01 X9.2000 Y10.8198
G01 X9.2106 Y10.8300
G01 X9.2208 Y10.8406
G01 X9.2735 Y10.8988
G01 X9.2831 Y10.9100
G01 X9.2922 Y10.9216
G01 X9.3389 Y10.9846
G01 X9.3474 Y10.9967
G01 X9.3553 Y11.0091
G01 X9.3957 Y11.0765
G01 X9.4029 Y11.0893
G01 X9.4095 Y11.1024
G01 X9.4431 Y11.1734
G01 X9.4491 Y11.1868
G01 X9.4544 Y11.2006
G01 X9.4808 Y11.2745
G01 X9.4854 Y11.2885
G01 X9.4894 Y11.3027
G01 X9.5084 Y11.3788
G01 X9.5117 Y11.3932
G01 X9.5142 Y11.4077
G01 X9.5257 Y11.4854
G01 X9.5275 Y11.5000
G01 X9.5286 Y11.5147
G01 X9.5324 Y11.5931
G01 X9.5328 Y11.6078
G01 X9.5324 Y11.6225
G01 X9.5286 Y11.7009
G01 X9.5275 Y11.7156
G01 X9.5257 Y11.7302
G01 X9.5142 Y11.8079
G01 X9.5117 Y11.8224
G01 X9.5084 Y11.8368
G01 X9.4894 Y11.9129
G01 X9.4854 Y11.9271
G01 X9.4808 Y11.9411
G01 X9.4544 Y12.0150
G01 X9.4491 Y12.0288
G01 X9.4431 Y12.0422
G01 X9.4095 Y12.1132
G01 X9.4029 Y12.1263
G01 X9.3957 Y12.1391
G01 X9.3553 Y12.2065
G01 X9.3474 Y12.2189
G01 X9.3389 Y12.2310
G01 X9.2922 Y12.2940
G01 X9.2831 Y12.3056
G01 X9.2735 Y12.3168
G01 X9.2208 Y12.3750
G01 X9.2106 Y12.3856
G01 X9.2000 Y12.3958
G01 X9.1418 Y12.4485
G01 X9.1306 Y12.4581
G01 X9.1190 Y12.4672
G01 X9.0560 Y12.5139
G01 X9.0439 Y12.5224
G01 X9.0315 Y12.5303
G01 X8.9641 Y12.5707
G01 X8.9513 Y12.5779
G01 X8.9382 Y12.5845
G01 X8.8672 Y12.6181
G01 X8.8538 Y12.6241
G01 X8.8400 Y12.6294
G01 X8.7661 Y12.6558
G01 X8.7521 Y12.6604
G01 X8.7379 Y12.6644
G01 X8.6618 Y12.6834
G01 X8.6474 Y12.6867
G01 X8.6329 Y12.6892
G01 X8.5552 Y12.7007
G01 X8.5406 Y12.7025
G01 X8.5259 Y12.7036
G01 X8.4475 Y12.7074
G01 X8.4328 Y12.7078
G01 X8.4181 Y12.7074
G01 X8.3397 Y12.7036
G01 X8.3250 Y12.7025
G01 X8.3104 Y12.7007
G01 X8.2327 Y12.6892
G01 X8.2182 Y12.6867
G01 X8.2038 Y12.6834
G01 X8.1277 Y12.6644
G01 X8.1135 Y12.6604
G01 X8.0995 Y12.6558
G01 X8.0256 Y12.6294
G01 X8.0118 Y12.6241
G01 X7.9984 Y12.6181
G01 X7.9274 Y12.5845
G01 X7.9143 Y12.5779
G01 X7.9015 Y12.5707
G01 X7.8341 Y12.5303
G01 X7.8217 Y12.5224
G01 X7.8096 Y12.5139
G01 X7.7466 Y12.4672
G01 X7.7350 Y12.4581
G01 X7.7238 Y12.4485
G01 X7.6656 Y12.3958
G01 X7.6550 Y12.3856
G01 X7.6448 Y12.3750
G01 X7.5921 Y12.3168
G01 X7.5825 Y12.3056
G01 X7.5734 Y12.2940
G01 X7.5267 Y12.2310
G01 X7.5182 Y12.2189
G01 X7.5103 Y12.2065
G01 X7.4699 Y12.1391
G01 X7.4627 Y12.1263
G01 X7.4561 Y12.1132
G01 X7.4225 Y12.0422
G01 X7.4165 Y12.0288
G01 X7.4112 Y12.0150
G01 X7.3848 Y11.9411
G01 X7.3802 Y11.9271
G01 X7.3762 Y11.9129
G01 X7.3572 Y11.8368
G01 X7.3539 Y11.8224
G01 X7.3514 Y11.8079
G01 X7.3399 Y11.7302
G01 X7.3381 Y11.7156
G01 X7.3370 Y11.7009
G01 X7.3332 Y11.6225
G01 X7.3328 Y11.6078
G01 X7.3332 Y11.5931
G01 X7.3370 Y11.5147
G01 X7.3381 Y11.5000
G01 X7.3399 Y11.4854
G01 X7.3514 Y11.4077
G01 X7.3539 Y11.3932
G01 X7.3572 Y11.3788
G01 X7.3762 Y11.3027
G01 X7.3802 Y11.2885
G01 X7.3848 Y11.2745
G01 X7.4112 Y11.2006
G01 X7.4165 Y11.1868
G01 X7.4225 Y11.1734
G01 X7.4561 Y11.1024
G01 X7.4627 Y11.0893
G01 X7.4699 Y11.0765
G01 X7.5103 Y11.0091
G01 X7.5182 Y10.9967
G01 X7.5267 Y10.9846
G01 X7.5734 Y10.9216
G01 X7.5825 Y10.9100
G01 X7.5921 Y10.8988
G01 X7.6448 Y10.8406
G01 X7.6550 Y10.8300
G01 X7.6656 Y10.8198
G01 X7.7238 Y10.7671
G01 X7.7350 Y10.7575
G01 X7.7466 Y10.7484
G01 X7.8096 Y10.7017
G01 X7.8217 Y10.6932
G01 X7.8341 Y10.6853
G01 X7.9015 Y10.6449
G01 X7.9143 Y10.6377
G01 X7.9274 Y10.6311
G01 X7.9984 Y10.5975
G01 X8.0118 Y10.5915
G01 X8.0256 Y10.5862
G01 X8.0995 Y10.5598
G01 X8.1135 Y10.5552
G01 X8.1277 Y10.5512
G01 X8.2038 Y10.5322
G01 X8.2182 Y10.5289
G01 X8.2327 Y10.5264
G01 X8.3104 Y10.5149
G01 X8.3250 Y10.5131
G01 X8.3397 Y10.5120
G01 X8.4181 Y10.5082
G00 Z2.0000
G00 X8.4181 Y13.0482
G01 F60.00
G01 Z-0.1500
G01 F100.00
G01 X8.4328 Y13.0478
G01 X8.4475 Y13.0482
G01 X8.5259 Y13.0520
G01 X8.5406 Y13.0531
G01 X8.5552 Y13.0549
G01 X8.6329 Y13.0664
G01 X8.6474 Y13.0689
G01 X8.6618 Y13.0722
G01 X8.7379 Y13.0912
G01 X8.7521 Y13.0952
G01 X8.7661 Y13.0998
G01 X8.8400 Y13.1262
G01 X8.8538 Y13.1315
G01 X8.8672 Y13.1375
G01 X8.9382 Y13.1711
G01 X8.9513 Y13.1777
G01 X8.9641 Y13.1849
G01 X9.0315 Y13.2253
G01 X9.0439 Y13.2332
G01 X9.0560 Y13.2417
G01 X9.1190 Y13.2884
G01 X9.1306 Y13.2975
G01 X9.1418 Y13.3071
G01 X9.2000 Y13.3598
G01 X9.2106 Y13.3700
G01 X9.2208 Y13.3806
G01 X9.2735 Y13.4388
G01 X9.2831 Y13.4500
G01 X9.2922 Y13.4616
G01 X9.3389 Y13.5246
G01 X9.3474 Y13.5367
G01 X9.3553 Y13.5491
G01 X9.3957 Y13.6165
G01 X9.4029 Y13.6293
G01 X9.4095 Y13.6424
G01 X9.4431 Y13.7134
G01 X9.4491 Y13.7268
G01 X9.4544 Y13.7406
G01 X9.4808 Y13.8145
G01 X9.4854 Y13.8285
G01 X9.4894 Y13.8427
G01 X9.5084 Y13.9188
G01 X9.5117 Y13.9332
G01 X9.5142 Y13.9477
G01 X9.5257 Y14.0254
G01 X9.5275 Y14.0400
G01 X9.5286 Y14.0547
G01 X9.5324 Y14.1331
G01 X9.5328 Y14.1478
G01 X9.5324 Y14.1625
G01 X9.5286 Y14.2409
G01 X9.5275 Y14.2556
G01 X9.5257 Y14.2702
G01 X9.5142 Y14.3479
G01 X9.5117 Y14.3624
G01 X9.5084 Y14.3768
G01 X9.4894 Y14.4529
G01 X9.4854 Y14.4671
G01 X9.4808 Y14.4811
G01 X9.4544 Y14.5550
G01 X9.4491 Y14.5688
G01 X9.4431 Y14.5822
G01 X9.4095 Y14.6532
G01 X9.4029 Y14.6663
G01 X9.3957 Y14.6791
G01 X9.3553 Y14.7465
G01 X9.3474 Y14.7589
G01 X9.3389 Y14.7710
G01 X9.2922 Y14.8340
G01 X9.2831 Y14.8456
G01 X9.2735 Y14.8568
G01 X9.2208 Y14.9150
G01 X9.2106 Y14.9256
G01 X9.2000 Y14.9358
G01 X9.1418 Y14.9885
G01 X9.1306 Y14.9981
G01 X9.1190 Y15.0072
G01 X9.0560 Y15.0539
G01 X9.0439 Y15.0624
G01 X9.0315 Y15.0703
G01 X8.9641 Y15.1107
G01 X8.9513 Y15.1179
G01 X8.9382 Y15.1245
G01 X8.8672 Y15.1581
G01 X8.8538 Y15.1641
G01 X8.8400 Y15.1694
G01 X8.7661 Y15.1958
G01 X8.7521 Y15.2004
G01 X8.7379 Y15.2044
G01 X8.6618 Y15.2234
G01 X8.6474 Y15.2267
G01 X8.6329 Y15.2292
G01 X8.5552 Y15.2407
G01 X8.5406 Y15.2425
G01 X8.5259 Y15.2436
G01 X8.4475 Y15.2474
G01 X8.4328 Y15.2478
G01 X8.4181 Y15.2474
G01 X8.3397 Y15.2436
G01 X8.3250 Y15.2425
G01 X8.3104 Y15.2407
G01 X8.2327 Y15.2292
G01 X8.2182 Y15.2267
G01 X8.2038 Y15.2234
G01 X8.1277 Y15.2044
G01 X8.1135 Y15.2004
G01 X8.0995 Y15.1958
G01 X8.0256 Y15.1694
G01 X8.0118 Y15.1641
G01 X7.9984 Y15.1581
G01 X7.9274 Y15.1245
G01 X7.9143 Y15.1179
G01 X7.9015 Y15.1107
G01 X7.8341 Y15.0703
G01 X7.8217 Y15.0624
G01 X7.8096 Y15.0539
G01 X7.7466 Y15.0072
G01 X7.7350 Y14.9981
G01 X7.7238 Y14.9885
G01 X7.6656 Y14.9358
G01 X7.6550 Y14.9256
G01 X7.6448 Y14.9150
G01 X7.5921 Y14.8568
G01 X7.5825 Y14.8456
G01 X7.5734 Y14.8340
G01 X7.5267 Y14.7710
G01 X7.5182 Y14.7589
G01 X7.5103 Y14.7465
G01 X7.4699 Y14.6791
G01 X7.4627 Y14.6663
G01 X7.4561 Y14.6532
G01 X7.4225 Y14.5822
G01 X7.4165 Y14.5688
G01 X7.4112 Y14.5550
G01 X7.3848 Y14.4811
G01 X7.3802 Y14.4671
G01 X7.3762 Y14.4529
G01 X7.3572 Y14.3768
G01 X7.3539 Y14.3624
G01 X7.3514 Y14.3479
G01 X7.3399 Y14.2702
G01 X7.3381 Y14.2556
G01 X7.3370 Y14.2409
G01 X7.3332 Y14.1625
G01 X7.3328 Y14.1478
G01 X7.3332 Y14.1331
G01 X7.3370 Y14.0547
G01 X7.3381 Y14.0400
G01 X7.3399 Y14.0254
G01 X7.3514 Y13.9477
G01 X7.3539 Y13.9332
G01 X7.3572 Y13.9188
G01 X7.3762 Y13.8427
G01 X7.3802 Y13.8285
G01 X7.3848 Y13.8145
G01 X7.4112 Y13.7406
G01 X7.4165 Y13.7268
G01 X7.4225 Y13.7134
G01 X7.4561 Y13.6424
G01 X7.4627 Y13.6293
G01 X7.4699 Y13.6165
G01 X7.5103 Y13.5491
G01 X7.5182 Y13.5367
G01 X7.5267 Y13.5246
G01 X7.5734 Y13.4616
G01 X7.5825 Y13.4500
G01 X7.5921 Y13.4388
G01 X7.6448 Y13.3806
G01 X7.6550 Y13.3700
G01 X7.6656 Y13.3598
G01 X7.7238 Y13.3071
G01 X7.7350 Y13.2975
G01 X7.7466 Y13.2884
G01 X7.8096 Y13.2417
G01 X7.8217 Y13.2332
G01 X7.8341 Y13.2253
G01 X7.9015 Y13.1849
G01 X7.9143 Y13.1777
G01 X7.9274 Y13.1711
G01 X7.9984 Y13.1375
G01 X8.0118 Y13.1315
G01 X8.0256 Y13.1262
G01 X8.0995 Y13.0998
G01 X8.1135 Y13.0952
G01 X8.1277 Y13.0912
G01 X8.2038 Y13.0722
G01 X8.2182 Y13.0689
G01 X8.2327 Y13.0664
G01 X8.3104 Y13.0549
G01 X8.3250 Y13.0531
G01 X8.3397 Y13.0520
G01 X8.4181 Y13.0482
G00 Z2.0000
G00 X8.4181 Y15.5882
G01 F60.00
G01 Z-0.1500
G01 F100.00
G01 X8.4328 Y15.5878
G01 X8.4475 Y15.5882
G01 X8.5259 Y15.5920
G01 X8.5406 Y15.5931
G01 X8.5552 Y15.5949
G01 X8.6329 Y15.6064
G01 X8.6474 Y15.6089
G01 X8.6618 Y15.6122
G01 X8.7379 Y15.6312
G01 X8.7521 Y15.6352
G01 X8.7661 Y15.6398
G01 X8.8400 Y15.6662
G01 X8.8538 Y15.6715
G01 X8.8672 Y15.6775
G01 X8.9382 Y15.7111
G01 X8.9513 Y15.7177
G01 X8.9641 Y15.7249
G01 X9.0315 Y15.7653
G01 X9.0439 Y15.7732
G01 X9.0560 Y15.7817
G01 X9.1190 Y15.8284
G01 X9.1306 Y15.8375
G01 X9.1418 Y15.8471
G01 X9.2000 Y15.8998
G01 X9.2106 Y15.9100
G01 X9.2208 Y15.9206
G01 X9.2735 Y15.9788
G01 X9.2831 Y15.9900
G01 X9.2922 Y16.0016
G01 X9.3389 Y16.0646
G01 X9.3474 Y16.0767
G01 X9.3553 Y16.0891
G01 X9.3957 Y16.1565
G01 X9.4029 Y16.1693
G01 X9.4095 Y16.1824
G01 X9.4431 Y16.2534
G01 X9.4491 Y16.2668
G01 X9.4544 Y16.2806
G01 X9.4808 Y16.3545
G01 X9.4854 Y16.3685
G01 X9.4894 Y16.3827
G01 X9.5084 Y16.4588
G01 X9.5117 Y16.4732
G01 X9.5142 Y16.4877
G01 X9.5257 Y16.5654
G01 X9.5275 Y16.5800
G01 X9.5286 Y16.5947
G01 X9.5324 Y16.6731
G01 X9.5328 Y16.6878
G01 X9.5324 Y16.7025
G01 X9.5286 Y16.7809
G01 X9.5275 Y16.7956
G01 X9.5257 Y16.8102
G01 X9.5142 Y16.8879
G01 X9.5117 Y16.9024
G01 X9.5084 Y16.9168
G01 X9.4894 Y16.9929
G01 X9.4854 Y17.0071
G01 X9.4808 Y17.0211
G01 X9.4544 Y17.0950
G01 X9.4491 Y17.1088
G01 X9.4431 Y17.1222
G01 X9.4095 Y17.1932
G01 X9.4029 Y17.2063
G01 X9.3957 Y17.2191
G01 X9.3553 Y17.2865
G01 X9.3474 Y17.2989
G01 X9.3389 Y17.3110
G01 X9.2922 Y17.3740
G01 X9.2831 Y17.3856
G01 X9.2735 Y17.3968
G01 X9.2208 Y17.4550
G01 X9.2106 Y17.4656
G01 X9.2000 Y17.4758
G01 X9.1418 Y17.5285
G01 X9.1306 Y17.5381
G01 X9.1190 Y17.5472
G01 X9.0560 Y17.5939
G01 X9.0439 Y17.6024
G01 X9.0315 Y17.6103
G01 X8.9641 Y17.6507
G01 X8.9513 Y17.6579
G01 X8.9382 Y17.6645
G01 X8.8672 Y17.6981
G01 X8.8538 Y17.7041
G01 X8.8400 Y17.7094
G01 X8.7661 Y17.7358
G01 X8.7521 Y17.7404
G01 X8.7379 Y17.7444
G01 X8.6618 Y17.7634
G01 X8.6474 Y17.7667
G01 X8.6329 Y17.7692
G01 X8.5552 Y17.7807
G01 X8.5406 Y17.7825
G01 X8.5259 Y17.7836
G01 X8.4475 Y17.7874
G01 X8.4328 Y17.7878
G01 X8.4181 Y17.7874
G01 X8.3397 Y17.7836
G01 X8.3250 Y17.7825
G01 X8.3104 Y17.7807
G01 X8.2327 Y17.7692
G01 X8.2182 Y17.7667
G01 X8.2038 Y17.7634
G01 X8.1277 Y17.7444
G01 X8.1135 Y17.7404
G01 X8.0995 Y17.7358
G01 X8.0256 Y17.7094
G01 X8.0118 Y17.7041
G01 X7.9984 Y17.6981
G01 X7.9274 Y17.6645
G01 X7.9143 Y17.6579
G01 X7.9015 Y17.6507
G01 X7.8341 Y17.6103
G01 X7.8217 Y17.6024
G01 X7.8096 Y17.5939
G01 X7.7466 Y17.5472
G01 X7.7350 Y17.5381
G01 X7.7238 Y17.5285
G01 X7.6656 Y17.4758
G01 X7.6550 Y17.4656
G01 X7.6448 Y17.4550
G01 X7.5921 Y17.3968
G01 X7.5825 Y17.3856
G01 X7.5734 Y17.3740
G01 X7.5267 Y17.3110
G01 X7.5182 Y17.2989
G01 X7.5103 Y17.2865
G01 X7.4699 Y17.2191
G01 X7.4627 Y17.2063
G01 X7.4561 Y17.1932
G01 X7.4225 Y17.1222
G01 X7.4165 Y17.1088
G01 X7.4112 Y17.0950
G01 X7.3848 Y17.0211
G01 X7.3802 Y17.0071
G01 X7.3762 Y16.9929
G01 X7.3572 Y16.9168
G01 X7.3539 Y16.9024
G01 X7.3514 Y16.8879
G01 X7.3399 Y16.8102
G01 X7.3381 Y16.7956
G01 X7.3370 Y16.7809
G01 X7.3332 Y16.7025
G01 X7.3328 Y16.6878
G01 X7.3332 Y16.6731
G01 X7.3370 Y16.5947
G01 X7.3381 Y16.5800
G01 X7.3399 Y16.5654
G01 X7.3514 Y16.4877
G01 X7.3539 Y16.4732
G01 X7.3572 Y16.4588
G01 X7.3762 Y16.3827
G01 X7.3802 Y16.3685
G01 X7.3848 Y16.3545
G01 X7.4112 Y16.2806
G01 X7.4165 Y16.2668
G01 X7.4225 Y16.2534
G01 X7.4561 Y16.1824
G01 X7.4627 Y16.1693
G01 X7.4699 Y16.1565
G01 X7.5103 Y16.0891
G01 X7.5182 Y16.0767
G01 X7.5267 Y16.0646
G01 X7.5734 Y16.0016
G01 X7.5825 Y15.9900
G01 X7.5921 Y15.9788
G01 X7.6448 Y15.9206
G01 X7.6550 Y15.9100
G01 X7.6656 Y15.8998
G01 X7.7238 Y15.8471
G01 X7.7350 Y15.8375
G01 X7.7466 Y15.8284
G01 X7.8096 Y15.7817
G01 X7.8217 Y15.7732
G01 X7.8341 Y15.7653
G01 X7.9015 Y15.7249
G01 X7.9143 Y15.7177
G01 X7.9274 Y15.7111
G01 X7.9984 Y15.6775
G01 X8.0118 Y15.6715
G01 X8.0256 Y15.6662
G01 X8.0995 Y15.6398
G01 X8.1135 Y15.6352
G01 X8.1277 Y15.6312
G01 X8.2038 Y15.6122
G01 X8.2182 Y15.6089
G01 X8.2327 Y15.6064
G01 X8.3104 Y15.5949
G01 X8.3250 Y15.5931
G01 X8.3397 Y15.5920
G01 X8.4181 Y15.5882
G00 Z2.0000
G00 X7.5112 Y18.6277
G01 F60.00
G01 Z-0.1500
G01 F100.00
G01 X7.5182 Y18.6167
G01 X7.5267 Y18.6046
G01 X7.5734 Y18.5416
G01 X7.5825 Y18.5300
G01 X7.5921 Y18.5188
G01 X7.6448 Y18.4606
G01 X7.6550 Y18.4500
G01 X7.6656 Y18.4398
G01 X7.7238 Y18.3871
G01 X7.7350 Y18.3775
G01 X7.7466 Y18.3684
G01 X7.8096 Y18.3217
G01 X7.8217 Y18.3132
G01 X7.8341 Y18.3053
G01 X7.9015 Y18.2649
G01 X7.9143 Y18.2577
G01 X7.9274 Y18.2511
G01 X7.9984 Y18.2175
G01 X8.0118 Y18.2115
G01 X8.0256 Y18.2062
G01 X8.0995 Y18.1798
G01 X8.1135 Y18.1752
G01 X8.1277 Y18.1712
G01 X8.2038 Y18.1522
G01 X8.2182 Y18.1489
G01 X8.2327 Y18.1464
G01 X8.3104 Y18.1349
G01 X8.3250 Y18.1331
G01 X8.3397 Y18.1320
G01 X8.4181 Y18.1282
G01 X8.4328 Y18.1278
G01 X8.4475 Y18.1282
G01 X8.5259 Y18.1320
G01 X8.5406 Y18.1331
G01 X8.5552 Y18.1349
G01 X8.6329 Y18.1464
G01 X8.6474 Y18.1489
G01 X8.6618 Y18.1522
G01 X8.7379 Y18.1712
G01 X8.7521 Y18.1752
G01 X8.7661 Y18.1798
G01 X8.8400 Y18.2062
G01 X8.8538 Y18.2115
G01 X8.8672 Y18.2175
G01 X8.9382 Y18.2511
G01 X8.9513 Y18.2577
G01 X8.9641 Y18.2649
G01 X9.0315 Y18.3053
G01 X9.0439 Y18.3132
G01 X9.0560 Y18.3217
G01 X9.1190 Y18.3684
G01 X9.1306 Y18.3775
G01 X9.1418 Y18.3871
G01 X9.2000 Y18.4398
G01 X9.2106 Y18.4500
G01 X9.2208 Y18.4606
G01 X9.2735 Y18.5188
G01 X9.2831 Y18.5300
G01 X9.2922 Y18.5416
G01 X9.3389 Y18.6046
G01 X9.3474 Y18.6167
G01 X9.3553 Y18.6291
G01 X9.3957 Y18.6965
G01 X9.4029 Y18.7093
G01 X9.4095 Y18.7224
G01 X9.4431 Y18.7934
G01 X9.4491 Y18.8068
G01 X9.4544 Y18.8206
G01 X9.4808 Y18.8945
G01 X9.4854 Y18.9085
G01 X9.4894 Y18.9227
G01 X9.5084 Y18.9988
G01 X9.5117 Y19.0132
G01 X9.5142 Y19.0277
G01 X9.5257 Y19.1054
G01 X9.5275 Y19.1200
G01 X9.5286 Y19.1347
G01 X9.5324 Y19.2131
G01 X9.5328 Y19.2278
G01 X9.5324 Y19.2425
G01 X9.5286 Y19.3209
G01 X9.5275 Y19.3356
G01 X9.5257 Y19.3502
G01 X9.5142 Y19.4279
G01 X9.5117 Y19.4424
G01 X9.5084 Y19.4568
G01 X9.4894 Y19.5329
G01 X9.4854 Y19.5471
G01 X9.4808 Y19.5611
G01 X9.4544 Y19.6350
G01 X9.4491 Y19.6488
G01 X9.4431 Y19.6622
G01 X9.4095 Y19.7332
G01 X9.4029 Y19.7463
G01 X9.3957 Y19.7591
G01 X9.3553 Y19.8265
G01 X9.3474 Y19.8389
G01 X9.3389 Y19.8510
G01 X9.2922 Y19.9140
G01 X9.2831 Y19.9256
G01 X9.2735 Y19.9368
G01 X9.2208 Y19.9950
G01 X9.2106 Y20.0056
G01 X9.2000 Y20.0158
G01 X9.1418 Y20.0685
G01 X9.1306 Y20.0781
G01 X9.1190 Y20.0872
G01 X9.0560 Y20.1339
G01 X9.0439 Y20.1424
G01 X9.0315 Y20.1503
G01 X8.9641 Y20.1907
G01 X8.9513 Y20.1979
G01 X8.9382 Y20.2045
G01 X8.8672 Y20.2381
G01 X8.8538 Y20.2441
G01 X8.8400 Y20.2494
G01 X8.7661 Y20.2758
G01 X8.7521 Y20.2804
G01 X8.7379 Y20.2844
G01 X8.6618 Y20.3034
G01 X8.6474 Y20.3067
G01 X8.6329 Y20.3092
G01 X8.5552 Y20.3207
G01 X8.5406 Y20.3225
G01 X8.5259 Y20.3236
G01 X8.4475 Y20.3274
G01 X8.4328 Y20.3278
G01 X8.4181 Y20.3274
G01 X8.3397 Y20.3236
G01 X8.3250 Y20.3225
G01 X8.3104 Y20.3207
G01 X8.2327 Y20.3092
G01 X8.2182 Y20.3067
G01 X8.2038 Y20.3034
G01 X8.1277 Y20.2844
G01 X8.1135 Y20.2804
G01 X8.0995 Y20.2758
G01 X8.0256 Y20.2494
G01 X8.0118 Y20.2441
G01 X7.9984 Y20.2381
G01 X7.9274 Y20.2045
G01 X7.9143 Y20.1979
G01 X7.9015 Y20.1907
G01 X7.8341 Y20.1503
G01 X7.8217 Y20.1424
G01 X7.8096 Y20.1339
G01 X7.7466 Y20.0872
G01 X7.7350 Y20.0781
G01 X7.7238 Y20.0685
G01 X7.6656 Y20.0158
G01 X7.6550 Y20.0056
G01 X7.6448 Y19.9950
G01 X7.5921 Y19.9368
G01 X7.5825 Y19.9256
G01 X7.5734 Y19.9140
G01 X7.5267 Y19.8510
G01 X7.5182 Y19.8389
G01 X7.5112 Y19.8280
G01 X5.8493 Y19.8279
G01 X2.5929 Y23.0843
G01 X2.5929 Y46.6865
G01 X14.4833 Y58.5768
G01 X14.5132 Y58.6093
G01 X14.5228 Y58.6205
G01 X14.5319 Y58.6321
G01 X14.5579 Y58.6678
G01 X14.5658 Y58.6802
G01 X14.5846 Y58.7118
G01 X14.5948 Y58.7314
G01 X14.6134 Y58.7715
G01 X14.6286 Y58.8130
G01 X14.6332 Y58.8270
G01 X14.6371 Y58.8412
G01 X14.6460 Y58.8769
G01 X14.6500 Y58.8986
G01 X14.6562 Y58.9424
G01 X14.6572 Y58.9571
G01 X14.6590 Y58.9938
G01 X14.6590 Y61.7605
G01 X14.7210 Y61.8064
G01 X14.7326 Y61.8155
G01 X14.7438 Y61.8251
G01 X14.7992 Y61.8753
G01 X14.8098 Y61.8855
G01 X14.8200 Y61.8961
G01 X14.8751 Y61.9570
G01 X14.8889 Y61.9743
G01 X14.9334 Y62.0343
G01 X14.9419 Y62.0464
G01 X14.9498 Y62.0588
G01 X14.9882 Y62.1230
G01 X14.9955 Y62.1358
G01 X15.0021 Y62.1489
G01 X15.0341 Y62.2165
G01 X15.0401 Y62.2300
G01 X15.0454 Y62.2437
G01 X15.0706 Y62.3141
G01 X15.0752 Y62.3281
G01 X15.0791 Y62.3423
G01 X15.0973 Y62.4148
G01 X15.1005 Y62.4292
G01 X15.1030 Y62.4437
G01 X15.1140 Y62.5177
G01 X15.1158 Y62.5323
G01 X15.1169 Y62.5470
G01 X15.1205 Y62.6217
G01 X15.1209 Y62.6364
G01 X15.1205 Y62.6511
G01 X15.1169 Y62.7258
G01 X15.1150 Y62.7478
G01 X15.1030 Y62.8291
G01 X15.1005 Y62.8436
G01 X15.0973 Y62.8580
G01 X15.0791 Y62.9305
G01 X15.0752 Y62.9447
G01 X15.0706 Y62.9587
G01 X15.0454 Y63.0291
G01 X15.0372 Y63.0496
G01 X15.0021 Y63.1239
G01 X14.9955 Y63.1370
G01 X14.9882 Y63.1498
G01 X14.9498 Y63.2140
G01 X14.9419 Y63.2264
G01 X14.9334 Y63.2385
G01 X14.8889 Y63.2985
G01 X14.8798 Y63.3101
G01 X14.8702 Y63.3213
G01 X14.8200 Y63.3767
G01 X14.8098 Y63.3873
G01 X14.7992 Y63.3975
G01 X14.7383 Y63.4526
G01 X14.7210 Y63.4664
G01 X14.6610 Y63.5109
G01 X14.6489 Y63.5194
G01 X14.6365 Y63.5273
G01 X14.5723 Y63.5657
G01 X14.5595 Y63.5730
G01 X14.5464 Y63.5796
G01 X14.4788 Y63.6116
G01 X14.4653 Y63.6176
G01 X14.4516 Y63.6229
G01 X14.3812 Y63.6481
G01 X14.3601 Y63.6547
G01 X14.2805 Y63.6748
G01 X14.2661 Y63.6780
G01 X14.2516 Y63.6805
G01 X14.1776 Y63.6915
G01 X14.1630 Y63.6933
G01 X14.1483 Y63.6944
G01 X14.0736 Y63.6980
G01 X14.0589 Y63.6984
G01 X14.0442 Y63.6980
G01 X13.9695 Y63.6944
G01 X13.9548 Y63.6933
G01 X13.9402 Y63.6915
G01 X13.8662 Y63.6805
G01 X13.8517 Y63.6780
G01 X13.8373 Y63.6748
G01 X13.7648 Y63.6566
G01 X13.7506 Y63.6527
G01 X13.7366 Y63.6481
G01 X13.6662 Y63.6229
G01 X13.6525 Y63.6176
G01 X13.6390 Y63.6116
G01 X13.5714 Y63.5796
G01 X13.5583 Y63.5730
G01 X13.5455 Y63.5657
G01 X13.4813 Y63.5273
G01 X13.4689 Y63.5194
G01 X13.4568 Y63.5109
G01 X13.3968 Y63.4664
G01 X13.3852 Y63.4573
G01 X13.3740 Y63.4477
G01 X13.3186 Y63.3975
G01 X13.3080 Y63.3873
G01 X13.2978 Y63.3767
G01 X13.2476 Y63.3213
G01 X13.2380 Y63.3101
G01 X13.2289 Y63.2985
G01 X13.1844 Y63.2385
G01 X13.1759 Y63.2264
G01 X13.1680 Y63.2140
G01 X13.1296 Y63.1498
G01 X13.1223 Y63.1370
G01 X13.1157 Y63.1239
G01 X13.0837 Y63.0563
G01 X13.0777 Y63.0428
G01 X13.0724 Y63.0291
G01 X13.0472 Y62.9587
G01 X13.0426 Y62.9447
G01 X13.0387 Y62.9305
G01 X13.0205 Y62.8580
G01 X13.0160 Y62.8363
G01 X13.0038 Y62.7551
G01 X13.0020 Y62.7405
G01 X13.0009 Y62.7258
G01 X12.9973 Y62.6511
G01 X12.9969 Y62.6364
G01 X12.9973 Y62.6217
G01 X13.0009 Y62.5470
G01 X13.0020 Y62.5323
G01 X13.0038 Y62.5177
G01 X13.0148 Y62.4437
G01 X13.0173 Y62.4292
G01 X13.0205 Y62.4148
G01 X13.0387 Y62.3423
G01 X13.0426 Y62.3281
G01 X13.0472 Y62.3141
G01 X13.0724 Y62.2437
G01 X13.0777 Y62.2300
G01 X13.0837 Y62.2165
G01 X13.1157 Y62.1489
G01 X13.1223 Y62.1358
G01 X13.1296 Y62.1230
G01 X13.1680 Y62.0588
G01 X13.1759 Y62.0464
G01 X13.1844 Y62.0343
G01 X13.2289 Y61.9743
G01 X13.2380 Y61.9627
G01 X13.2476 Y61.9515
G01 X13.2978 Y61.8961
G01 X13.3080 Y61.8855
G01 X13.3186 Y61.8753
G01 X13.3740 Y61.8251
G01 X13.3852 Y61.8155
G01 X13.3968 Y61.8064
G01 X13.4587 Y61.7605
G01 X13.4588 Y59.2498
G01 X1.5684 Y47.3594
G01 X1.5385 Y47.3269
G01 X1.5288 Y47.3158
G01 X1.5022 Y47.2805
G01 X1.4938 Y47.2685
G01 X1.4859 Y47.2560
G01 X1.4670 Y47.2244
G01 X1.4601 Y47.2114
G01 X1.4443 Y47.1782
G01 X1.4383 Y47.1647
G01 X1.4330 Y47.1510
G01 X1.4207 Y47.1163
G01 X1.4164 Y47.1022
G01 X1.4074 Y47.0665
G01 X1.4042 Y47.0521
G01 X1.4016 Y47.0376
G01 X1.3955 Y46.9939
G01 X1.3944 Y46.9792
G01 X1.3926 Y46.9351
G01 X1.3926 Y22.8357
G01 X1.3944 Y22.7916
G01 X1.3955 Y22.7769
G01 X1.4016 Y22.7332
G01 X1.4057 Y22.7114
G01 X1.4145 Y22.6757
G01 X1.4185 Y22.6615
G01 X1.4330 Y22.6198
G01 X1.4412 Y22.5993
G01 X1.4569 Y22.5660
G01 X1.4635 Y22.5528
G01 X1.4707 Y22.5400
G01 X1.4897 Y22.5085
G01 X1.5022 Y22.4903
G01 X1.5288 Y22.4550
G01 X1.5385 Y22.4438
G01 X1.5633 Y22.4166
G01 X5.1763 Y18.8034
G01 X5.2088 Y18.7735
G01 X5.2200 Y18.7639
G01 X5.2316 Y18.7548
G01 X5.2673 Y18.7288
G01 X5.2797 Y18.7209
G01 X5.3113 Y18.7021
G01 X5.3309 Y18.6919
G01 X5.3710 Y18.6733
G01 X5.4125 Y18.6581
G01 X5.4265 Y18.6535
G01 X5.4407 Y18.6496
G01 X5.4764 Y18.6407
G01 X5.4981 Y18.6367
G01 X5.5419 Y18.6305
G01 X5.5860 Y18.6280
G01 X5.6007 Y18.6277
G01 X7.5112 Y18.6277
G00 Z2.0000
G00 X7.4446 Y22.3680
G01 F60.00
G01 Z-0.1500
G01 F100.00
G01 X6.7383 Y22.3679
G01 X3.8929 Y25.2133
G01 X3.8929 Y46.1480
G01 X17.0233 Y59.2783
G01 X17.0532 Y59.3108
G01 X17.0628 Y59.3220
G01 X17.0894 Y59.3572
G01 X17.0979 Y59.3693
G01 X17.1058 Y59.3817
G01 X17.1246 Y59.4133
G01 X17.1316 Y59.4263
G01 X17.1474 Y59.4596
G01 X17.1534 Y59.4730
G01 X17.1587 Y59.4868
G01 X17.1710 Y59.5215
G01 X17.1771 Y59.5427
G01 X17.1860 Y59.5784
G01 X17.1889 Y59.5929
G01 X17.1944 Y59.6293
G01 X17.1962 Y59.6439
G01 X17.1987 Y59.6880
G01 X17.1990 Y59.7027
G01 X17.1990 Y61.7605
G01 X17.2610 Y61.8064
G01 X17.2726 Y61.8155
G01 X17.2838 Y61.8251
G01 X17.3392 Y61.8753
G01 X17.3498 Y61.8855
G01 X17.3600 Y61.8961
G01 X17.4102 Y61.9515
G01 X17.4198 Y61.9627
G01 X17.4289 Y61.9743
G01 X17.4734 Y62.0343
G01 X17.4819 Y62.0464
G01 X17.4898 Y62.0588
G01 X17.5282 Y62.1230
G01 X17.5355 Y62.1358
G01 X17.5421 Y62.1489
G01 X17.5741 Y62.2165
G01 X17.5801 Y62.2300
G01 X17.5854 Y62.2437
G01 X17.6106 Y62.3141
G01 X17.6152 Y62.3281
G01 X17.6191 Y62.3423
G01 X17.6373 Y62.4148
G01 X17.6405 Y62.4292
G01 X17.6430 Y62.4437
G01 X17.6540 Y62.5177
G01 X17.6558 Y62.5323
G01 X17.6569 Y62.5470
G01 X17.6605 Y62.6217
G01 X17.6609 Y62.6364
G01 X17.6605 Y62.6511
G01 X17.6564 Y62.7332
G01 X17.6540 Y62.7551
G01 X17.6430 Y62.8291
G01 X17.6405 Y62.8436
G01 X17.6373 Y62.8580
G01 X17.6191 Y62.9305
G01 X17.6152 Y62.9447
G01 X17.6106 Y62.9587
G01 X17.5854 Y63.0291
G01 X17.5801 Y63.0428
G01 X17.5741 Y63.0563
G01 X17.5421 Y63.1239
G01 X17.5355 Y63.1370
G01 X17.5282 Y63.1498
G01 X17.4898 Y63.2140
G01 X17.4819 Y63.2264
G01 X17.4734 Y63.2385
G01 X17.4244 Y63.3044
G01 X17.4102 Y63.3213
G01 X17.3600 Y63.3767
G01 X17.3498 Y63.3873
G01 X17.3392 Y63.3975
G01 X17.2838 Y63.4477
G01 X17.2726 Y63.4573
G01 X17.2610 Y63.4664
G01 X17.2010 Y63.5109
G01 X17.1889 Y63.5194
G01 X17.1765 Y63.5273
G01 X17.1123 Y63.5657
G01 X17.0930 Y63.5764
G01 X17.0188 Y63.6116
G01 X17.0053 Y63.6176
G01 X16.9916 Y63.6229
G01 X16.9212 Y63.6481
G01 X16.9072 Y63.6527
G01 X16.8930 Y63.6566
G01 X16.8133 Y63.6765
G01 X16.7916 Y63.6805
G01 X16.7176 Y63.6915
G01 X16.7030 Y63.6933
G01 X16.6883 Y63.6944
G01 X16.6136 Y63.6980
G01 X16.5989 Y63.6984
G01 X16.5842 Y63.6980
G01 X16.5095 Y63.6944
G01 X16.4948 Y63.6933
G01 X16.4802 Y63.6915
G01 X16.4062 Y63.6805
G01 X16.3917 Y63.6780
G01 X16.3773 Y63.6748
G01 X16.3048 Y63.6566
G01 X16.2906 Y63.6527
G01 X16.2766 Y63.6481
G01 X16.2062 Y63.6229
G01 X16.1925 Y63.6176
G01 X16.1790 Y63.6116
G01 X16.1114 Y63.5796
G01 X16.0983 Y63.5730
G01 X16.0855 Y63.5657
G01 X16.0213 Y63.5273
G01 X16.0089 Y63.5194
G01 X15.9968 Y63.5109
G01 X15.9368 Y63.4664
G01 X15.9252 Y63.4573
G01 X15.9140 Y63.4477
G01 X15.8586 Y63.3975
G01 X15.8480 Y63.3873
G01 X15.8378 Y63.3767
G01 X15.7876 Y63.3213
G01 X15.7780 Y63.3101
G01 X15.7689 Y63.2985
G01 X15.7244 Y63.2385
G01 X15.7159 Y63.2264
G01 X15.7080 Y63.2140
G01 X15.6696 Y63.1498
G01 X15.6623 Y63.1370
G01 X15.6557 Y63.1239
G01 X15.6237 Y63.0563
G01 X15.6177 Y63.0428
G01 X15.6124 Y63.0291
G01 X15.5872 Y62.9587
G01 X15.5826 Y62.9447
G01 X15.5787 Y62.9305
G01 X15.5588 Y62.8508
G01 X15.5548 Y62.8291
G01 X15.5438 Y62.7551
G01 X15.5420 Y62.7405
G01 X15.5409 Y62.7258
G01 X15.5373 Y62.6511
G01 X15.5369 Y62.6364
G01 X15.5373 Y62.6217
G01 X15.5409 Y62.5470
G01 X15.5420 Y62.5323
G01 X15.5438 Y62.5177
G01 X15.5548 Y62.4437
G01 X15.5573 Y62.4292
G01 X15.5605 Y62.4148
G01 X15.5787 Y62.3423
G01 X15.5826 Y62.3281
G01 X15.5872 Y62.3141
G01 X15.6124 Y62.2437
G01 X15.6177 Y62.2300
G01 X15.6237 Y62.2165
G01 X15.6557 Y62.1489
G01 X15.6623 Y62.1358
G01 X15.6696 Y62.1230
G01 X15.7080 Y62.0588
G01 X15.7159 Y62.0464
G01 X15.7244 Y62.0343
G01 X15.7689 Y61.9743
G01 X15.7780 Y61.9627
G01 X15.7876 Y61.9515
G01 X15.8378 Y61.8961
G01 X15.8480 Y61.8855
G01 X15.8586 Y61.8753
G01 X15.9140 Y61.8251
G01 X15.9252 Y61.8155
G01 X15.9368 Y61.8064
G01 X15.9987 Y61.7605
G01 X15.9988 Y59.9513
G01 X2.8684 Y46.8210
G01 X2.8583 Y46.8103
G01 X2.8336 Y46.7829
G01 X2.8198 Y46.7657
G01 X2.7938 Y46.7300
G01 X2.7708 Y46.6923
G01 X2.7635 Y46.6795
G01 X2.7569 Y46.6663
G01 X2.7412 Y46.6330
G01 X2.7330 Y46.6125
G01 X2.7185 Y46.5708
G01 X2.7145 Y46.5566
G01 X2.7057 Y46.5209
G01 X2.7016 Y46.4992
G01 X2.6955 Y46.4554
G01 X2.6944 Y46.4407
G01 X2.6926 Y46.3966
G01 X2.6926 Y24.9647
G01 X2.6944 Y24.9206
G01 X2.6955 Y24.9059
G01 X2.6973 Y24.8913
G01 X2.7042 Y24.8476
G01 X2.7074 Y24.8333
G01 X2.7164 Y24.7976
G01 X2.7231 Y24.7765
G01 X2.7383 Y24.7351
G01 X2.7569 Y24.6950
G01 X2.7635 Y24.6818
G01 X2.7708 Y24.6690
G01 X2.7898 Y24.6375
G01 X2.8023 Y24.6193
G01 X2.8289 Y24.5840
G01 X2.8385 Y24.5728
G01 X2.8633 Y24.5456
G01 X6.0653 Y21.3434
G01 X6.0760 Y21.3333
G01 X6.1033 Y21.3086
G01 X6.1206 Y21.2948
G01 X6.1563 Y21.2688
G01 X6.1687 Y21.2609
G01 X6.2003 Y21.2421
G01 X6.2199 Y21.2319
G01 X6.2600 Y21.2133
G01 X6.3015 Y21.1981
G01 X6.3155 Y21.1935
G01 X6.3582 Y21.1824
G01 X6.3799 Y21.1778
G01 X6.4236 Y21.1714
G01 X6.4456 Y21.1695
G01 X6.4897 Y21.1677
G01 X7.5112 Y21.1677
G01 X7.5182 Y21.1567
G01 X7.5267 Y21.1446
G01 X7.5734 Y21.0816
G01 X7.5825 Y21.0700
G01 X7.5921 Y21.0588
G01 X7.6448 Y21.0006
G01 X7.6550 Y20.9900
G01 X7.6656 Y20.9798
G01 X7.7238 Y20.9271
G01 X7.7350 Y20.9175
G01 X7.7466 Y20.9084
G01 X7.8096 Y20.8617
G01 X7.8217 Y20.8532
G01 X7.8341 Y20.8453
G01 X7.9015 Y20.8049
G01 X7.9143 Y20.7977
G01 X7.9274 Y20.7911
G01 X7.9984 Y20.7575
G01 X8.0118 Y20.7515
G01 X8.0256 Y20.7462
G01 X8.0995 Y20.7198
G01 X8.1135 Y20.7152
G01 X8.1277 Y20.7112
G01 X8.2038 Y20.6922
G01 X8.2182 Y20.6889
G01 X8.2327 Y20.6864
G01 X8.3104 Y20.6749
G01 X8.3250 Y20.6731
G01 X8.3397 Y20.6720
G01 X8.4254 Y20.6679
G01 X8.4475 Y20.6682
G01 X8.5259 Y20.6720
G01 X8.5406 Y20.6731
G01 X8.5552 Y20.6749
G01 X8.6329 Y20.6864
G01 X8.6474 Y20.6889
G01 X8.6618 Y20.6922
G01 X8.7379 Y20.7112
G01 X8.7521 Y20.7152
G01 X8.7661 Y20.7198
G01 X8.8400 Y20.7462
G01 X8.8538 Y20.7515
G01 X8.8672 Y20.7575
G01 X8.9382 Y20.7911
G01 X8.9513 Y20.7977
G01 X8.9641 Y20.8049
G01 X9.0315 Y20.8453
G01 X9.0439 Y20.8532
G01 X9.0560 Y20.8617
G01 X9.1190 Y20.9084
G01 X9.1306 Y20.9175
G01 X9.1418 Y20.9271
G01 X9.2000 Y20.9798
G01 X9.2106 Y20.9900
G01 X9.2208 Y21.0006
G01 X9.2735 Y21.0588
G01 X9.2831 Y21.0700
G01 X9.2922 Y21.0816
G01 X9.3389 Y21.1446
G01 X9.3514 Y21.1628
G01 X9.3957 Y21.2365
G01 X9.4029 Y21.2493
G01 X9.4095 Y21.2624
G01 X9.4431 Y21.3334
G01 X9.4491 Y21.3468
G01 X9.4544 Y21.3606
G01 X9.4808 Y21.4345
G01 X9.4854 Y21.4485
G01 X9.4894 Y21.4627
G01 X9.5084 Y21.5388
G01 X9.5117 Y21.5532
G01 X9.5142 Y21.5677
G01 X9.5257 Y21.6454
G01 X9.5275 Y21.6600
G01 X9.5286 Y21.6747
G01 X9.5324 Y21.7531
G01 X9.5328 Y21.7678
G01 X9.5324 Y21.7825
G01 X9.5286 Y21.8609
G01 X9.5275 Y21.8756
G01 X9.5257 Y21.8902
G01 X9.5142 Y21.9679
G01 X9.5117 Y21.9824
G01 X9.5084 Y21.9968
G01 X9.4894 Y22.0729
G01 X9.4854 Y22.0871
G01 X9.4808 Y22.1011
G01 X9.4544 Y22.1750
G01 X9.4491 Y22.1888
G01 X9.4431 Y22.2022
G01 X9.4095 Y22.2732
G01 X9.4029 Y22.2863
G01 X9.3957 Y22.2991
G01 X9.3553 Y22.3665
G01 X9.3474 Y22.3789
G01 X9.3389 Y22.3910
G01 X9.2922 Y22.4540
G01 X9.2831 Y22.4656
G01 X9.2735 Y22.4768
G01 X9.2208 Y22.5350
G01 X9.2106 Y22.5456
G01 X9.2000 Y22.5558
G01 X9.1418 Y22.6085
G01 X9.1306 Y22.6181
G01 X9.1190 Y22.6272
G01 X9.0560 Y22.6739
G01 X9.0378 Y22.6864
G01 X8.9641 Y22.7307
G01 X8.9513 Y22.7379
G01 X8.9382 Y22.7445
G01 X8.8672 Y22.7781
G01 X8.8538 Y22.7841
G01 X8.8400 Y22.7894
G01 X8.7661 Y22.8158
G01 X8.7521 Y22.8204
G01 X8.7379 Y22.8244
G01 X8.6618 Y22.8434
G01 X8.6474 Y22.8467
G01 X8.6329 Y22.8492
G01 X8.5552 Y22.8607
G01 X8.5406 Y22.8625
G01 X8.5259 Y22.8636
G01 X8.4475 Y22.8674
G01 X8.4328 Y22.8678
G01 X8.4181 Y22.8674
G01 X8.3397 Y22.8636
G01 X8.3250 Y22.8625
G01 X8.3104 Y22.8607
G01 X8.2327 Y22.8492
G01 X8.2182 Y22.8467
G01 X8.2038 Y22.8434
G01 X8.1277 Y22.8244
G01 X8.1065 Y22.8182
G01 X8.0187 Y22.7868
G01 X8.0051 Y22.7812
G01 X7.9912 Y22.7747
G01 X7.9756 Y22.7751
G01 X7.9609 Y22.7748
G01 X7.9290 Y22.7731
G01 X7.9144 Y22.7717
G01 X7.8828 Y22.7671
G01 X7.8683 Y22.7646
G01 X7.8301 Y22.7554
G01 X7.8159 Y22.7514
G01 X7.8019 Y22.7468
G01 X7.7719 Y22.7360
G01 X7.7516 Y22.7273
G01 X7.7163 Y22.7102
G01 X7.7035 Y22.7029
G01 X7.6761 Y22.6864
G01 X7.6639 Y22.6782
G01 X7.6324 Y22.6549
G01 X7.6210 Y22.6455
G01 X7.5919 Y22.6191
G01 X7.5815 Y22.6087
G01 X7.5551 Y22.5796
G01 X7.5457 Y22.5682
G01 X7.5267 Y22.5427
G01 X7.5142 Y22.5245
G01 X7.4940 Y22.4908
G01 X7.4870 Y22.4778
G01 X7.4733 Y22.4490
G01 X7.4646 Y22.4287
G01 X7.4538 Y22.3987
G01 X7.4492 Y22.3847
G01 X7.4446 Y22.3680
G00 Z2.0000
G00 X7.5112 Y23.7077
G01 F60.00
G01 Z-0.1500
G01 F100.00
G01 X7.5182 Y23.6967
G01 X7.5267 Y23.6846
G01 X7.5734 Y23.6216
G01 X7.5825 Y23.6100
G01 X7.5921 Y23.5988
G01 X7.6448 Y23.5406
G01 X7.6550 Y23.5300
G01 X7.6656 Y23.5198
G01 X7.7238 Y23.4671
G01 X7.7407 Y23.4529
G01 X7.8096 Y23.4017
G01 X7.8217 Y23.3932
G01 X7.8341 Y23.3853
G01 X7.9015 Y23.3449
G01 X7.9143 Y23.3377
G01 X7.9274 Y23.3311
G01 X7.9984 Y23.2975
G01 X8.0118 Y23.2915
G01 X8.0256 Y23.2862
G01 X8.0995 Y23.2598
G01 X8.1135 Y23.2552
G01 X8.1277 Y23.2512
G01 X8.2110 Y23.2305
G01 X8.2327 Y23.2264
G01 X8.3104 Y23.2149
G01 X8.3250 Y23.2131
G01 X8.3397 Y23.2120
G01 X8.4181 Y23.2082
G01 X8.4328 Y23.2078
G01 X8.4475 Y23.2082
G01 X8.5259 Y23.2120
G01 X8.5406 Y23.2131
G01 X8.5552 Y23.2149
G01 X8.6329 Y23.2264
G01 X8.6546 Y23.2305
G01 X8.7379 Y23.2512
G01 X8.7521 Y23.2552
G01 X8.7661 Y23.2598
G01 X8.8400 Y23.2862
G01 X8.8538 Y23.2915
G01 X8.8672 Y23.2975
G01 X8.9382 Y23.3311
G01 X8.9513 Y23.3377
G01 X8.9641 Y23.3449
G01 X9.0315 Y23.3853
G01 X9.0439 Y23.3932
G01 X9.0560 Y23.4017
G01 X9.1190 Y23.4484
G01 X9.1306 Y23.4575
G01 X9.1418 Y23.4671
G01 X9.2053 Y23.5248
G01 X9.2208 Y23.5406
G01 X9.2735 Y23.5988
G01 X9.2831 Y23.6100
G01 X9.2922 Y23.6216
G01 X9.3389 Y23.6846
G01 X9.3474 Y23.6967
G01 X9.3553 Y23.7091
G01 X9.3957 Y23.7765
G01 X9.4029 Y23.7893
G01 X9.4095 Y23.8024
G01 X9.4431 Y23.8734
G01 X9.4518 Y23.8937
G01 X9.4808 Y23.9745
G01 X9.4854 Y23.9885
G01 X9.4894 Y24.0027
G01 X9.5084 Y24.0788
G01 X9.5117 Y24.0932
G01 X9.5142 Y24.1077
G01 X9.5257 Y24.1854
G01 X9.5275 Y24.2000
G01 X9.5286 Y24.2147
G01 X9.5324 Y24.2931
G01 X9.5328 Y24.3078
G01 X9.5324 Y24.3225
G01 X9.5286 Y24.4009
G01 X9.5275 Y24.4156
G01 X9.5257 Y24.4302
G01 X9.5142 Y24.5079
G01 X9.5117 Y24.5224
G01 X9.5084 Y24.5368
G01 X9.4894 Y24.6129
G01 X9.4854 Y24.6271
G01 X9.4808 Y24.6411
G01 X9.4544 Y24.7150
G01 X9.4491 Y24.7288
G01 X9.4431 Y24.7422
G01 X9.4095 Y24.8132
G01 X9.4029 Y24.8263
G01 X9.3957 Y24.8391
G01 X9.3553 Y24.9065
G01 X9.3474 Y24.9189
G01 X9.3389 Y24.9310
G01 X9.2922 Y24.9940
G01 X9.2831 Y25.0056
G01 X9.2735 Y25.0168
G01 X9.2208 Y25.0750
G01 X9.2106 Y25.0856
G01 X9.2000 Y25.0958
G01 X9.1418 Y25.1485
G01 X9.1306 Y25.1581
G01 X9.1190 Y25.1672
G01 X9.0560 Y25.2139
G01 X9.0439 Y25.2224
G01 X9.0315 Y25.2303
G01 X8.9641 Y25.2707
G01 X8.9513 Y25.2779
G01 X8.9382 Y25.2845
G01 X8.8672 Y25.3181
G01 X8.8469 Y25.3268
G01 X8.7661 Y25.3558
G01 X8.7521 Y25.3604
G01 X8.7379 Y25.3644
G01 X8.6618 Y25.3834
G01 X8.6474 Y25.3867
G01 X8.6329 Y25.3892
G01 X8.5552 Y25.4007
G01 X8.5406 Y25.4025
G01 X8.5259 Y25.4036
G01 X8.4475 Y25.4074
G01 X8.4254 Y25.4077
G01 X8.3397 Y25.4036
G01 X8.3250 Y25.4025
G01 X8.3104 Y25.4007
G01 X8.2327 Y25.3892
G01 X8.2110 Y25.3851
G01 X8.1277 Y25.3644
G01 X8.1135 Y25.3604
G01 X8.0995 Y25.3558
G01 X8.0256 Y25.3294
G01 X8.0118 Y25.3241
G01 X7.9984 Y25.3181
G01 X7.9208 Y25.2813
G01 X7.9015 Y25.2707
G01 X7.8341 Y25.2303
G01 X7.8217 Y25.2224
G01 X7.8096 Y25.2139
G01 X7.7466 Y25.1672
G01 X7.7350 Y25.1581
G01 X7.7238 Y25.1485
G01 X7.6656 Y25.0958
G01 X7.6550 Y25.0856
G01 X7.6448 Y25.0750
G01 X7.5921 Y25.0168
G01 X7.5825 Y25.0056
G01 X7.5734 Y24.9940
G01 X7.5268 Y24.9312
G01 X5.1929 Y27.2650
G01 X5.1929 Y45.5747
G01 X19.5633 Y59.9450
G01 X19.5932 Y59.9775
G01 X19.6074 Y59.9944
G01 X19.6294 Y60.0239
G01 X19.6379 Y60.0360
G01 X19.6609 Y60.0737
G01 X19.6716 Y60.0930
G01 X19.6874 Y60.1262
G01 X19.6934 Y60.1397
G01 X19.7086 Y60.1812
G01 X19.7132 Y60.1952
G01 X19.7243 Y60.2379
G01 X19.7275 Y60.2523
G01 X19.7300 Y60.2668
G01 X19.7353 Y60.3032
G01 X19.7368 Y60.3179
G01 X19.7387 Y60.3547
G01 X19.7390 Y60.3694
G01 X19.7390 Y61.7605
G01 X19.8069 Y61.8109
G01 X19.8238 Y61.8251
G01 X19.8792 Y61.8753
G01 X19.8898 Y61.8855
G01 X19.9000 Y61.8961
G01 X19.9502 Y61.9515
G01 X19.9598 Y61.9627
G01 X19.9689 Y61.9743
G01 X20.0134 Y62.0343
G01 X20.0219 Y62.0464
G01 X20.0298 Y62.0588
G01 X20.0682 Y62.1230
G01 X20.0789 Y62.1423
G01 X20.1141 Y62.2165
G01 X20.1201 Y62.2300
G01 X20.1254 Y62.2437
G01 X20.1506 Y62.3141
G01 X20.1552 Y62.3281
G01 X20.1591 Y62.3423
G01 X20.1773 Y62.4148
G01 X20.1805 Y62.4292
G01 X20.1830 Y62.4437
G01 X20.1940 Y62.5177
G01 X20.1958 Y62.5323
G01 X20.1969 Y62.5470
G01 X20.2005 Y62.6217
G01 X20.2009 Y62.6364
G01 X20.2005 Y62.6511
G01 X20.1969 Y62.7258
G01 X20.1958 Y62.7405
G01 X20.1940 Y62.7551
G01 X20.1830 Y62.8291
G01 X20.1805 Y62.8436
G01 X20.1773 Y62.8580
G01 X20.1591 Y62.9305
G01 X20.1552 Y62.9447
G01 X20.1506 Y62.9587
G01 X20.1254 Y63.0291
G01 X20.1201 Y63.0428
G01 X20.1141 Y63.0563
G01 X20.0821 Y63.1239
G01 X20.0719 Y63.1435
G01 X20.0298 Y63.2140
G01 X20.0219 Y63.2264
G01 X20.0134 Y63.2385
G01 X19.9689 Y63.2985
G01 X19.9551 Y63.3158
G01 X19.9000 Y63.3767
G01 X19.8898 Y63.3873
G01 X19.8792 Y63.3975
G01 X19.8238 Y63.4477
G01 X19.8126 Y63.4573
G01 X19.8010 Y63.4664
G01 X19.7410 Y63.5109
G01 X19.7289 Y63.5194
G01 X19.7165 Y63.5273
G01 X19.6523 Y63.5657
G01 X19.6395 Y63.5730
G01 X19.6264 Y63.5796
G01 X19.5588 Y63.6116
G01 X19.5453 Y63.6176
G01 X19.5316 Y63.6229
G01 X19.4612 Y63.6481
G01 X19.4472 Y63.6527
G01 X19.4330 Y63.6566
G01 X19.3605 Y63.6748
G01 X19.3461 Y63.6780
G01 X19.3316 Y63.6805
G01 X19.2576 Y63.6915
G01 X19.2430 Y63.6933
G01 X19.2283 Y63.6944
G01 X19.1536 Y63.6980
G01 X19.1389 Y63.6984
G01 X19.1242 Y63.6980
G01 X19.0495 Y63.6944
G01 X19.0348 Y63.6933
G01 X19.0202 Y63.6915
G01 X18.9462 Y63.6805
G01 X18.9317 Y63.6780
G01 X18.9173 Y63.6748
G01 X18.8448 Y63.6566
G01 X18.8306 Y63.6527
G01 X18.8166 Y63.6481
G01 X18.7462 Y63.6229
G01 X18.7325 Y63.6176
G01 X18.7190 Y63.6116
G01 X18.6514 Y63.5796
G01 X18.6383 Y63.5730
G01 X18.6255 Y63.5657
G01 X18.5613 Y63.5273
G01 X18.5489 Y63.5194
G01 X18.5368 Y63.5109
G01 X18.4768 Y63.4664
G01 X18.4652 Y63.4573
G01 X18.4540 Y63.4477
G01 X18.3986 Y63.3975
G01 X18.3880 Y63.3873
G01 X18.3778 Y63.3767
G01 X18.3276 Y63.3213
G01 X18.3180 Y63.3101
G01 X18.3089 Y63.2985
G01 X18.2644 Y63.2385
G01 X18.2559 Y63.2264
G01 X18.2480 Y63.2140
G01 X18.2096 Y63.1498
G01 X18.2023 Y63.1370
G01 X18.1957 Y63.1239
G01 X18.1637 Y63.0563
G01 X18.1577 Y63.0428
G01 X18.1524 Y63.0291
G01 X18.1272 Y62.9587
G01 X18.1226 Y62.9447
G01 X18.1187 Y62.9305
G01 X18.1005 Y62.8580
G01 X18.0973 Y62.8436
G01 X18.0948 Y62.8291
G01 X18.0838 Y62.7551
G01 X18.0820 Y62.7405
G01 X18.0809 Y62.7258
G01 X18.0773 Y62.6511
G01 X18.0769 Y62.6364
G01 X18.0773 Y62.6217
G01 X18.0809 Y62.5470
G01 X18.0820 Y62.5323
G01 X18.0838 Y62.5177
G01 X18.0948 Y62.4437
G01 X18.0973 Y62.4292
G01 X18.1005 Y62.4148
G01 X18.1206 Y62.3352
G01 X18.1272 Y62.3141
G01 X18.1524 Y62.2437
G01 X18.1577 Y62.2300
G01 X18.1637 Y62.2165
G01 X18.1957 Y62.1489
G01 X18.2023 Y62.1358
G01 X18.2096 Y62.1230
G01 X18.2480 Y62.0588
G01 X18.2559 Y62.0464
G01 X18.2644 Y62.0343
G01 X18.3089 Y61.9743
G01 X18.3180 Y61.9627
G01 X18.3276 Y61.9515
G01 X18.3778 Y61.8961
G01 X18.3932 Y61.8803
G01 X18.4540 Y61.8251
G01 X18.4652 Y61.8155
G01 X18.4768 Y61.8064
G01 X18.5387 Y61.7605
G01 X18.5388 Y60.6180
G01 X4.1684 Y46.2476
G01 X4.1385 Y46.2151
G01 X4.1243 Y46.1983
G01 X4.0979 Y46.1628
G01 X4.0859 Y46.1443
G01 X4.0635 Y46.1062
G01 X4.0443 Y46.0664
G01 X4.0356 Y46.0461
G01 X4.0231 Y46.0115
G01 X4.0185 Y45.9975
G01 X4.0146 Y45.9833
G01 X4.0042 Y45.9404
G01 X3.9973 Y45.8967
G01 X3.9949 Y45.8748
G01 X3.9930 Y45.8380
G01 X3.9926 Y45.8233
G01 X3.9926 Y27.0164
G01 X3.9944 Y26.9723
G01 X3.9955 Y26.9576
G01 X4.0017 Y26.9139
G01 X4.0042 Y26.8994
G01 X4.0074 Y26.8850
G01 X4.0164 Y26.8493
G01 X4.0207 Y26.8352
G01 X4.0330 Y26.8005
G01 X4.0383 Y26.7868
G01 X4.0443 Y26.7733
G01 X4.0601 Y26.7401
G01 X4.0671 Y26.7271
G01 X4.0859 Y26.6955
G01 X4.0938 Y26.6830
G01 X4.1023 Y26.6710
G01 X4.1289 Y26.6357
G01 X4.1385 Y26.6246
G01 X4.1633 Y26.5973
G01 X6.8771 Y23.8834
G01 X6.8877 Y23.8733
G01 X6.9207 Y23.8439
G01 X6.9560 Y23.8173
G01 X6.9742 Y23.8048
G01 X7.0121 Y23.7821
G01 X7.0317 Y23.7719
G01 X7.0718 Y23.7533
G01 X7.1132 Y23.7381
G01 X7.1343 Y23.7314
G01 X7.1700 Y23.7224
G01 X7.1843 Y23.7192
G01 X7.2280 Y23.7123
G01 X7.2499 Y23.7099
G01 X7.2867 Y23.7080
G01 X7.3014 Y23.7077
G01 X7.5112 Y23.7077
G00 Z2.0000
G00 X8.4181 Y25.7482
G01 F60.00
G01 Z-0.1500
G01 F100.00
G01 X8.4328 Y25.7478
G01 X8.4475 Y25.7482
G01 X8.5259 Y25.7520
G01 X8.5406 Y25.7531
G01 X8.5552 Y25.7549
G01 X8.6329 Y25.7664
G01 X8.6474 Y25.7689
G01 X8.6618 Y25.7722
G01 X8.7379 Y25.7912
G01 X8.7521 Y25.7952
G01 X8.7661 Y25.7998
G01 X8.8400 Y25.8262
G01 X8.8538 Y25.8315
G01 X8.8672 Y25.8375
G01 X8.9382 Y25.8711
G01 X8.9513 Y25.8777
G01 X8.9641 Y25.8849
G01 X9.0315 Y25.9253
G01 X9.0439 Y25.9332
G01 X9.0560 Y25.9417
G01 X9.1190 Y25.9884
G01 X9.1306 Y25.9975
G01 X9.1418 Y26.0071
G01 X9.2000 Y26.0598
G01 X9.2106 Y26.0700
G01 X9.2208 Y26.0806
G01 X9.2735 Y26.1388
G01 X9.2831 Y26.1500
G01 X9.2922 Y26.1616
G01 X9.3389 Y26.2246
G01 X9.3474 Y26.2367
G01 X9.3553 Y26.2491
G01 X9.3957 Y26.3165
G01 X9.4029 Y26.3293
G01 X9.4095 Y26.3424
G01 X9.4431 Y26.4134
G01 X9.4491 Y26.4268
G01 X9.4544 Y26.4406
G01 X9.4808 Y26.5145
G01 X9.4854 Y26.5285
G01 X9.4894 Y26.5427
G01 X9.5084 Y26.6188
G01 X9.5117 Y26.6332
G01 X9.5142 Y26.6477
G01 X9.5257 Y26.7254
G01 X9.5275 Y26.7400
G01 X9.5286 Y26.7547
G01 X9.5324 Y26.8331
G01 X9.5328 Y26.8478
G01 X9.5324 Y26.8625
G01 X9.5286 Y26.9409
G01 X9.5275 Y26.9556
G01 X9.5257 Y26.9702
G01 X9.5142 Y27.0479
G01 X9.5117 Y27.0624
G01 X9.5084 Y27.0768
G01 X9.4894 Y27.1529
G01 X9.4854 Y27.1671
G01 X9.4808 Y27.1811
G01 X9.4544 Y27.2550
G01 X9.4491 Y27.2688
G01 X9.4431 Y27.2822
G01 X9.4095 Y27.3532
G01 X9.4029 Y27.3663
G01 X9.3957 Y27.3791
G01 X9.3553 Y27.4465
G01 X9.3474 Y27.4589
G01 X9.3389 Y27.4710
G01 X9.2922 Y27.5340
G01 X9.2831 Y27.5456
G01 X9.2735 Y27.5568
G01 X9.2208 Y27.6150
G01 X9.2106 Y27.6256
G01 X9.2000 Y27.6358
G01 X9.1418 Y27.6885
G01 X9.1306 Y27.6981
G01 X9.1190 Y27.7072
G01 X9.0560 Y27.7539
G01 X9.0439 Y27.7624
G01 X9.0315 Y27.7703
G01 X8.9641 Y27.8107
G01 X8.9513 Y27.8179
G01 X8.9382 Y27.8245
G01 X8.8672 Y27.8581
G01 X8.8538 Y27.8641
G01 X8.8400 Y27.8694
G01 X8.7661 Y27.8958
G01 X8.7521 Y27.9004
G01 X8.7379 Y27.9044
G01 X8.6618 Y27.9234
G01 X8.6474 Y27.9267
G01 X8.6329 Y27.9292
G01 X8.5552 Y27.9407
G01 X8.5406 Y27.9425
G01 X8.5259 Y27.9436
G01 X8.4475 Y27.9474
G01 X8.4328 Y27.9478
G01 X8.4181 Y27.9474
G01 X8.3397 Y27.9436
G01 X8.3250 Y27.9425
G01 X8.3104 Y27.9407
G01 X8.2327 Y27.9292
G01 X8.2182 Y27.9267
G01 X8.2038 Y27.9234
G01 X8.1277 Y27.9044
G01 X8.1135 Y27.9004
G01 X8.0995 Y27.8958
G01 X8.0256 Y27.8694
G01 X8.0118 Y27.8641
G01 X7.9984 Y27.8581
G01 X7.9274 Y27.8245
G01 X7.9143 Y27.8179
G01 X7.9015 Y27.8107
G01 X7.8341 Y27.7703
G01 X7.8217 Y27.7624
G01 X7.8096 Y27.7539
G01 X7.7466 Y27.7072
G01 X7.7350 Y27.6981
G01 X7.7238 Y27.6885
G01 X7.6656 Y27.6358
G01 X7.6550 Y27.6256
G01 X7.6448 Y27.6150
G01 X7.5921 Y27.5568
G01 X7.5825 Y27.5456
G01 X7.5734 Y27.5340
G01 X7.5267 Y27.4710
G01 X7.5182 Y27.4589
G01 X7.5103 Y27.4465
G01 X7.4699 Y27.3791
G01 X7.4627 Y27.3663
G01 X7.4561 Y27.3532
G01 X7.4225 Y27.2822
G01 X7.4165 Y27.2688
G01 X7.4112 Y27.2550
G01 X7.3848 Y27.1811
G01 X7.3802 Y27.1671
G01 X7.3762 Y27.1529
G01 X7.3572 Y27.0768
G01 X7.3539 Y27.0624
G01 X7.3514 Y27.0479
G01 X7.3399 Y26.9702
G01 X7.3381 Y26.9556
G01 X7.3370 Y26.9409
G01 X7.3332 Y26.8625
G01 X7.3328 Y26.8478
G01 X7.3332 Y26.8331
G01 X7.3370 Y26.7547
G01 X7.3381 Y26.7400
G01 X7.3399 Y26.7254
G01 X7.3514 Y26.6477
G01 X7.3539 Y26.6332
G01 X7.3572 Y26.6188
G01 X7.3762 Y26.5427
G01 X7.3802 Y26.5285
G01 X7.3848 Y26.5145
G01 X7.4112 Y26.4406
G01 X7.4165 Y26.4268
G01 X7.4225 Y26.4134
G01 X7.4561 Y26.3424
G01 X7.4627 Y26.3293
G01 X7.4699 Y26.3165
G01 X7.5103 Y26.2491
G01 X7.5182 Y26.2367
G01 X7.5267 Y26.2246
G01 X7.5734 Y26.1616
G01 X7.5825 Y26.1500
G01 X7.5921 Y26.1388
G01 X7.6448 Y26.0806
G01 X7.6550 Y26.0700
G01 X7.6656 Y26.0598
G01 X7.7238 Y26.0071
G01 X7.7350 Y25.9975
G01 X7.7466 Y25.9884
G01 X7.8096 Y25.9417
G01 X7.8217 Y25.9332
G01 X7.8341 Y25.9253
G01 X7.9015 Y25.8849
G01 X7.9143 Y25.8777
G01 X7.9274 Y25.8711
G01 X7.9984 Y25.8375
G01 X8.0118 Y25.8315
G01 X8.0256 Y25.8262
G01 X8.0995 Y25.7998
G01 X8.1135 Y25.7952
G01 X8.1277 Y25.7912
G01 X8.2038 Y25.7722
G01 X8.2182 Y25.7689
G01 X8.2327 Y25.7664
G01 X8.3104 Y25.7549
G01 X8.3250 Y25.7531
G01 X8.3397 Y25.7520
G01 X8.4181 Y25.7482
G00 Z2.0000
G00 X8.4181 Y28.2882
G01 F60.00
G01 Z-0.1500
G01 F100.00
G01 X8.4328 Y28.2878
G01 X8.4475 Y28.2882
G01 X8.5259 Y28.2920
G01 X8.5406 Y28.2931
G01 X8.5552 Y28.2949
G01 X8.6329 Y28.3064
G01 X8.6474 Y28.3089
G01 X8.6618 Y28.3122
G01 X8.7379 Y28.3312
G01 X8.7521 Y28.3352
G01 X8.7661 Y28.3398
G01 X8.8400 Y28.3662
G01 X8.8538 Y28.3715
G01 X8.8672 Y28.3775
G01 X8.9382 Y28.4111
G01 X8.9513 Y28.4177
G01 X8.9641 Y28.4249
G01 X9.0315 Y28.4653
G01 X9.0439 Y28.4732
G01 X9.0560 Y28.4817
G01 X9.1190 Y28.5284
G01 X9.1306 Y28.5375
G01 X9.1418 Y28.5471
G01 X9.2000 Y28.5998
G01 X9.2106 Y28.6100
G01 X9.2208 Y28.6206
G01 X9.2735 Y28.6788
G01 X9.2831 Y28.6900
G01 X9.2922 Y28.7016
G01 X9.3389 Y28.7646
G01 X9.3474 Y28.7767
G01 X9.3553 Y28.7891
G01 X9.3957 Y28.8565
G01 X9.4029 Y28.8693
G01 X9.4095 Y28.8824
G01 X9.4431 Y28.9534
G01 X9.4491 Y28.9668
G01 X9.4544 Y28.9806
G01 X9.4808 Y29.0545
G01 X9.4854 Y29.0685
G01 X9.4894 Y29.0827
G01 X9.5084 Y29.1588
G01 X9.5117 Y29.1732
G01 X9.5142 Y29.1877
G01 X9.5257 Y29.2654
G01 X9.5275 Y29.2800
G01 X9.5286 Y29.2947
G01 X9.5324 Y29.3731
G01 X9.5328 Y29.3878
G01 X9.5324 Y29.4025
G01 X9.5286 Y29.4809
G01 X9.5275 Y29.4956
G01 X9.5257 Y29.5102
G01 X9.5142 Y29.5879
G01 X9.5117 Y29.6024
G01 X9.5084 Y29.6168
G01 X9.4894 Y29.6929
G01 X9.4854 Y29.7071
G01 X9.4808 Y29.7211
G01 X9.4544 Y29.7950
G01 X9.4491 Y29.8088
G01 X9.4431 Y29.8222
G01 X9.4095 Y29.8932
G01 X9.4029 Y29.9063
G01 X9.3957 Y29.9191
G01 X9.3553 Y29.9865
G01 X9.3474 Y29.9989
G01 X9.3389 Y30.0110
G01 X9.2922 Y30.0740
G01 X9.2831 Y30.0856
G01 X9.2735 Y30.0968
G01 X9.2208 Y30.1550
G01 X9.2106 Y30.1656
G01 X9.2000 Y30.1758
G01 X9.1418 Y30.2285
G01 X9.1306 Y30.2381
G01 X9.1190 Y30.2472
G01 X9.0560 Y30.2939
G01 X9.0439 Y30.3024
G01 X9.0315 Y30.3103
G01 X8.9641 Y30.3507
G01 X8.9513 Y30.3579
G01 X8.9382 Y30.3645
G01 X8.8672 Y30.3981
G01 X8.8538 Y30.4041
G01 X8.8400 Y30.4094
G01 X8.7661 Y30.4358
G01 X8.7521 Y30.4404
G01 X8.7379 Y30.4444
G01 X8.6618 Y30.4634
G01 X8.6474 Y30.4667
G01 X8.6329 Y30.4692
G01 X8.5552 Y30.4807
G01 X8.5406 Y30.4825
G01 X8.5259 Y30.4836
G01 X8.4475 Y30.4874
G01 X8.4328 Y30.4878
G01 X8.4181 Y30.4874
G01 X8.3397 Y30.4836
G01 X8.3250 Y30.4825
G01 X8.3104 Y30.4807
G01 X8.2327 Y30.4692
G01 X8.2182 Y30.4667
G01 X8.2038 Y30.4634
G01 X8.1277 Y30.4444
G01 X8.1135 Y30.4404
G01 X8.0995 Y30.4358
G01 X8.0256 Y30.4094
G01 X8.0118 Y30.4041
G01 X7.9984 Y30.3981
G01 X7.9274 Y30.3645
G01 X7.9143 Y30.3579
G01 X7.9015 Y30.3507
G01 X7.8341 Y30.3103
G01 X7.8217 Y30.3024
G01 X7.8096 Y30.2939
G01 X7.7466 Y30.2472
G01 X7.7350 Y30.2381
G01 X7.7238 Y30.2285
G01 X7.6656 Y30.1758
G01 X7.6550 Y30.1656
G01 X7.6448 Y30.1550
G01 X7.5921 Y30.0968
G01 X7.5825 Y30.0856
G01 X7.5734 Y30.0740
G01 X7.5267 Y30.0110
G01 X7.5182 Y29.9989
G01 X7.5103 Y29.9865
G01 X7.4699 Y29.9191
G01 X7.4627 Y29.9063
G01 X7.4561 Y29.8932
G01 X7.4225 Y29.8222
G01 X7.4165 Y29.8088
G01 X7.4112 Y29.7950
G01 X7.3848 Y29.7211
G01 X7.3802 Y29.7071
G01 X7.3762 Y29.6929
G01 X7.3572 Y29.6168
G01 X7.3539 Y29.6024
G01 X7.3514 Y29.5879
G01 X7.3399 Y29.5102
G01 X7.3381 Y29.4956
G01 X7.3370 Y29.4809
G01 X7.3332 Y29.4025
G01 X7.3328 Y29.3878
G01 X7.3332 Y29.3731
G01 X7.3370 Y29.2947
G01 X7.3381 Y29.2800
G01 X7.3399 Y29.2654
G01 X7.3514 Y29.1877
G01 X7.3539 Y29.1732
G01 X7.3572 Y29.1588
G01 X7.3762 Y29.0827
G01 X7.3802 Y29.0685
G01 X7.3848 Y29.0545
G01 X7.4112 Y28.9806
G01 X7.4165 Y28.9668
G01 X7.4225 Y28.9534
G01 X7.4561 Y28.8824
G01 X7.4627 Y28.8693
G01 X7.4699 Y28.8565
G01 X7.5103 Y28.7891
G01 X7.5182 Y28.7767
G01 X7.5267 Y28.7646
G01 X7.5734 Y28.7016
G01 X7.5825 Y28.6900
G01 X7.5921 Y28.6788
G01 X7.6448 Y28.6206
G01 X7.6550 Y28.6100
G01 X7.6656 Y28.5998
G01 X7.7238 Y28.5471
G01 X7.7350 Y28.5375
G01 X7.7466 Y28.5284
G01 X7.8096 Y28.4817
G01 X7.8217 Y28.4732
G01 X7.8341 Y28.4653
G01 X7.9015 Y28.4249
G01 X7.9143 Y28.4177
G01 X7.9274 Y28.4111
G01 X7.9984 Y28.3775
G01 X8.0118 Y28.3715
G01 X8.0256 Y28.3662
G01 X8.0995 Y28.3398
G01 X8.1135 Y28.3352
G01 X8.1277 Y28.3312
G01 X8.2038 Y28.3122
G01 X8.2182 Y28.3089
G01 X8.2327 Y28.3064
G01 X8.3104 Y28.2949
G01 X8.3250 Y28.2931
G01 X8.3397 Y28.2920
G01 X8.4181 Y28.2882
G00 Z2.0000
G00 X7.5112 Y31.3277
G01 F60.00
G01 Z-0.1500
G01 F100.00
G01 X7.5182 Y31.3167
G01 X7.5267 Y31.3046
G01 X7.5734 Y31.2416
G01 X7.5825 Y31.2300
G01 X7.5921 Y31.2188
G01 X7.6448 Y31.1606
G01 X7.6550 Y31.1500
G01 X7.6656 Y31.1398
G01 X7.7238 Y31.0871
G01 X7.7407 Y31.0729
G01 X7.8096 Y31.0217
G01 X7.8217 Y31.0132
G01 X7.8341 Y31.0053
G01 X7.9015 Y30.9649
G01 X7.9143 Y30.9577
G01 X7.9274 Y30.9511
G01 X7.9984 Y30.9175
G01 X8.0118 Y30.9115
G01 X8.0256 Y30.9062
G01 X8.0995 Y30.8798
G01 X8.1135 Y30.8752
G01 X8.1277 Y30.8712
G01 X8.2110 Y30.8505
G01 X8.2327 Y30.8464
G01 X8.3104 Y30.8349
G01 X8.3250 Y30.8331
G01 X8.3397 Y30.8320
G01 X8.4181 Y30.8282
G01 X8.4328 Y30.8278
G01 X8.4475 Y30.8282
G01 X8.5259 Y30.8320
G01 X8.5406 Y30.8331
G01 X8.5552 Y30.8349
G01 X8.6329 Y30.8464
G01 X8.6546 Y30.8505
G01 X8.7379 Y30.8712
G01 X8.7521 Y30.8752
G01 X8.7661 Y30.8798
G01 X8.8400 Y30.9062
G01 X8.8538 Y30.9115
G01 X8.8672 Y30.9175
G01 X8.9382 Y30.9511
G01 X8.9513 Y30.9577
G01 X8.9641 Y30.9649
G01 X9.0315 Y31.0053
G01 X9.0439 Y31.0132
G01 X9.0560 Y31.0217
G01 X9.1190 Y31.0684
G01 X9.1306 Y31.0775
G01 X9.1418 Y31.0871
G01 X9.2053 Y31.1448
G01 X9.2208 Y31.1606
G01 X9.2735 Y31.2188
G01 X9.2831 Y31.2300
G01 X9.2922 Y31.2416
G01 X9.3389 Y31.3046
G01 X9.3474 Y31.3167
G01 X9.3553 Y31.3291
G01 X9.3957 Y31.3965
G01 X9.4029 Y31.4093
G01 X9.4095 Y31.4224
G01 X9.4431 Y31.4934
G01 X9.4518 Y31.5137
G01 X9.4808 Y31.5945
G01 X9.4854 Y31.6085
G01 X9.4894 Y31.6227
G01 X9.5084 Y31.6988
G01 X9.5117 Y31.7132
G01 X9.5142 Y31.7277
G01 X9.5257 Y31.8054
G01 X9.5275 Y31.8200
G01 X9.5286 Y31.8347
G01 X9.5324 Y31.9131
G01 X9.5328 Y31.9278
G01 X9.5324 Y31.9425
G01 X9.5286 Y32.0209
G01 X9.5275 Y32.0356
G01 X9.5257 Y32.0502
G01 X9.5142 Y32.1279
G01 X9.5117 Y32.1424
G01 X9.5084 Y32.1568
G01 X9.4894 Y32.2329
G01 X9.4854 Y32.2471
G01 X9.4808 Y32.2611
G01 X9.4544 Y32.3350
G01 X9.4491 Y32.3488
G01 X9.4431 Y32.3622
G01 X9.4095 Y32.4332
G01 X9.4029 Y32.4463
G01 X9.3957 Y32.4591
G01 X9.3553 Y32.5265
G01 X9.3474 Y32.5389
G01 X9.3389 Y32.5510
G01 X9.2922 Y32.6140
G01 X9.2831 Y32.6256
G01 X9.2735 Y32.6368
G01 X9.2208 Y32.6950
G01 X9.2106 Y32.7056
G01 X9.2000 Y32.7158
G01 X9.1418 Y32.7685
G01 X9.1306 Y32.7781
G01 X9.1190 Y32.7872
G01 X9.0560 Y32.8339
G01 X9.0439 Y32.8424
G01 X9.0315 Y32.8503
G01 X8.9641 Y32.8907
G01 X8.9448 Y32.9013
G01 X8.8672 Y32.9381
G01 X8.8538 Y32.9441
G01 X8.8400 Y32.9494
G01 X8.7661 Y32.9758
G01 X8.7521 Y32.9804
G01 X8.7379 Y32.9844
G01 X8.6618 Y33.0034
G01 X8.6474 Y33.0067
G01 X8.6329 Y33.0092
G01 X8.5552 Y33.0207
G01 X8.5333 Y33.0231
G01 X8.4475 Y33.0274
G01 X8.4328 Y33.0278
G01 X8.4181 Y33.0274
G01 X8.3397 Y33.0236
G01 X8.3177 Y33.0217
G01 X8.2327 Y33.0092
G01 X8.2182 Y33.0067
G01 X8.2038 Y33.0034
G01 X8.1277 Y32.9844
G01 X8.1135 Y32.9804
G01 X8.0995 Y32.9758
G01 X8.0256 Y32.9494
G01 X8.0118 Y32.9441
G01 X7.9984 Y32.9381
G01 X7.9274 Y32.9045
G01 X7.9143 Y32.8979
G01 X7.9015 Y32.8907
G01 X7.8341 Y32.8503
G01 X7.8217 Y32.8424
G01 X7.8096 Y32.8339
G01 X7.7466 Y32.7872
G01 X7.7350 Y32.7781
G01 X7.7238 Y32.7685
G01 X7.6656 Y32.7158
G01 X7.6550 Y32.7056
G01 X7.6448 Y32.6950
G01 X7.5921 Y32.6368
G01 X7.5825 Y32.6256
G01 X7.5734 Y32.6140
G01 X7.5268 Y32.5512
G01 X6.4929 Y33.5850
G01 X6.4929 Y40.5692
G01 X11.0392 Y45.1154
G01 X11.0526 Y45.1110
G01 X11.0668 Y45.1071
G01 X11.1620 Y45.0832
G01 X11.1764 Y45.0800
G01 X11.1909 Y45.0775
G01 X11.2880 Y45.0631
G01 X11.3026 Y45.0613
G01 X11.3173 Y45.0602
G01 X11.4153 Y45.0554
G01 X11.4300 Y45.0550
G01 X11.4447 Y45.0554
G01 X11.5427 Y45.0602
G01 X11.5574 Y45.0613
G01 X11.5720 Y45.0631
G01 X11.6691 Y45.0775
G01 X11.6836 Y45.0800
G01 X11.6980 Y45.0832
G01 X11.7932 Y45.1071
G01 X11.8074 Y45.1110
G01 X11.8214 Y45.1156
G01 X11.9138 Y45.1487
G01 X11.9275 Y45.1540
G01 X11.9409 Y45.1599
G01 X12.0297 Y45.2019
G01 X12.0428 Y45.2085
G01 X12.0556 Y45.2158
G01 X12.1398 Y45.2662
G01 X12.1522 Y45.2741
G01 X12.1643 Y45.2826
G01 X12.2431 Y45.3410
G01 X12.2547 Y45.3501
G01 X12.2659 Y45.3597
G01 X12.3386 Y45.4256
G01 X12.3492 Y45.4358
G01 X12.3594 Y45.4464
G01 X12.4253 Y45.5191
G01 X12.4349 Y45.5303
G01 X12.4440 Y45.5419
G01 X12.5024 Y45.6207
G01 X12.5149 Y45.6389
G01 X12.5692 Y45.7294
G01 X12.5765 Y45.7422
G01 X12.5831 Y45.7553
G01 X12.6251 Y45.8441
G01 X12.6310 Y45.8575
G01 X12.6363 Y45.8712
G01 X12.6694 Y45.9636
G01 X12.6740 Y45.9776
G01 X12.6779 Y45.9918
G01 X12.7018 Y46.0870
G01 X12.7050 Y46.1014
G01 X12.7075 Y46.1159
G01 X12.7219 Y46.2130
G01 X12.7237 Y46.2276
G01 X12.7248 Y46.2423
G01 X12.7296 Y46.3403
G01 X12.7300 Y46.3550
G01 X12.7296 Y46.3697
G01 X12.7248 Y46.4677
G01 X12.7237 Y46.4824
G01 X12.7219 Y46.4970
G01 X12.7075 Y46.5941
G01 X12.7050 Y46.6086
G01 X12.7018 Y46.6230
G01 X12.6779 Y46.7182
G01 X12.6740 Y46.7324
G01 X12.6694 Y46.7464
G01 X12.6363 Y46.8388
G01 X12.6310 Y46.8525
G01 X12.6251 Y46.8659
G01 X12.5831 Y46.9547
G01 X12.5765 Y46.9678
G01 X12.5692 Y46.9806
G01 X12.5188 Y47.0648
G01 X12.5109 Y47.0772
G01 X12.5024 Y47.0893
G01 X12.4440 Y47.1681
G01 X12.4349 Y47.1797
G01 X12.4253 Y47.1909
G01 X12.3594 Y47.2636
G01 X12.3492 Y47.2742
G01 X12.3386 Y47.2844
G01 X12.2659 Y47.3503
G01 X12.2547 Y47.3599
G01 X12.2431 Y47.3690
G01 X12.1643 Y47.4274
G01 X12.1522 Y47.4359
G01 X12.1398 Y47.4438
G01 X12.0556 Y47.4942
G01 X12.0428 Y47.5015
G01 X12.0302 Y47.5079
G01 X12.0301 Y50.5734
G01 X22.1033 Y60.6465
G01 X22.1332 Y60.6790
G01 X22.1428 Y60.6902
G01 X22.1519 Y60.7018
G01 X22.1779 Y60.7375
G01 X22.1858 Y60.7499
G01 X22.2046 Y60.7815
G01 X22.2148 Y60.8011
G01 X22.2334 Y60.8412
G01 X22.2486 Y60.8827
G01 X22.2553 Y60.9037
G01 X22.2660 Y60.9466
G01 X22.2700 Y60.9683
G01 X22.2762 Y61.0121
G01 X22.2772 Y61.0267
G01 X22.2790 Y61.0709
G01 X22.2790 Y61.7143
G01 X22.2902 Y61.7215
G01 X22.3023 Y61.7299
G01 X22.3654 Y61.7767
G01 X22.3770 Y61.7858
G01 X22.3881 Y61.7954
G01 X22.4463 Y61.8481
G01 X22.4570 Y61.8583
G01 X22.4672 Y61.8690
G01 X22.5199 Y61.9272
G01 X22.5295 Y61.9383
G01 X22.5386 Y61.9499
G01 X22.5854 Y62.0130
G01 X22.5938 Y62.0251
G01 X22.6017 Y62.0375
G01 X22.6458 Y62.1112
G01 X22.6560 Y62.1308
G01 X22.6896 Y62.2018
G01 X22.6955 Y62.2153
G01 X22.7008 Y62.2290
G01 X22.7273 Y62.3030
G01 X22.7319 Y62.3170
G01 X22.7358 Y62.3312
G01 X22.7549 Y62.4074
G01 X22.7582 Y62.4217
G01 X22.7607 Y62.4362
G01 X22.7722 Y62.5139
G01 X22.7746 Y62.5359
G01 X22.7789 Y62.6217
G01 X22.7793 Y62.6364
G01 X22.7793 Y69.4831
G01 X28.8022 Y75.5060
G01 X29.9413 Y75.5061
G01 X30.0271 Y75.5102
G01 X30.0418 Y75.5113
G01 X30.0564 Y75.5131
G01 X30.1413 Y75.5258
G01 X30.1629 Y75.5304
G01 X30.2391 Y75.5495
G01 X30.2533 Y75.5534
G01 X30.2673 Y75.5580
G01 X30.3413 Y75.5845
G01 X30.3550 Y75.5898
G01 X30.3685 Y75.5957
G01 X30.4395 Y75.6293
G01 X30.4526 Y75.6359
G01 X30.4654 Y75.6432
G01 X30.5328 Y75.6836
G01 X30.5452 Y75.6915
G01 X30.5573 Y75.6999
G01 X30.6204 Y75.7467
G01 X30.6320 Y75.7558
G01 X30.6431 Y75.7654
G01 X30.7013 Y75.8181
G01 X30.7171 Y75.8336
G01 X30.7749 Y75.8972
G01 X30.7845 Y75.9083
G01 X30.7936 Y75.9199
G01 X30.8404 Y75.9830
G01 X30.8488 Y75.9951
G01 X30.8567 Y76.0075
G01 X30.8971 Y76.0749
G01 X30.9044 Y76.0877
G01 X30.9110 Y76.1008
G01 X30.9446 Y76.1718
G01 X30.9505 Y76.1853
G01 X30.9558 Y76.1990
G01 X30.9823 Y76.2730
G01 X30.9869 Y76.2870
G01 X30.9908 Y76.3012
G01 X31.0099 Y76.3774
G01 X31.0132 Y76.3917
G01 X31.0157 Y76.4062
G01 X31.0272 Y76.4839
G01 X31.0290 Y76.4985
G01 X31.0301 Y76.5132
G01 X31.0339 Y76.5917
G01 X31.0343 Y76.6064
G01 X31.0339 Y76.6211
G01 X31.0301 Y76.6996
G01 X31.0282 Y76.7216
G01 X31.0157 Y76.8066
G01 X31.0132 Y76.8211
G01 X31.0099 Y76.8354
G01 X30.9908 Y76.9116
G01 X30.9869 Y76.9258
G01 X30.9823 Y76.9398
G01 X30.9558 Y77.0138
G01 X30.9505 Y77.0275
G01 X30.9446 Y77.0410
G01 X30.9110 Y77.1120
G01 X30.9044 Y77.1251
G01 X30.8971 Y77.1379
G01 X30.8567 Y77.2053
G01 X30.8488 Y77.2177
G01 X30.8404 Y77.2298
G01 X30.7936 Y77.2929
G01 X30.7845 Y77.3045
G01 X30.7749 Y77.3156
G01 X30.7222 Y77.3738
G01 X30.7067 Y77.3896
G01 X30.6431 Y77.4474
G01 X30.6320 Y77.4570
G01 X30.6204 Y77.4661
G01 X30.5573 Y77.5129
G01 X30.5452 Y77.5213
G01 X30.5328 Y77.5292
G01 X30.4654 Y77.5696
G01 X30.4461 Y77.5803
G01 X30.3685 Y77.6171
G01 X30.3550 Y77.6230
G01 X30.3413 Y77.6283
G01 X30.2673 Y77.6548
G01 X30.2533 Y77.6594
G01 X30.2391 Y77.6633
G01 X30.1629 Y77.6824
G01 X30.1486 Y77.6857
G01 X30.1341 Y77.6882
G01 X30.0564 Y77.6997
G01 X30.0418 Y77.7015
G01 X30.0271 Y77.7026
G01 X29.9486 Y77.7064
G01 X29.9339 Y77.7068
G01 X28.3390 Y77.7067
G01 X28.2532 Y77.7026
G01 X28.2385 Y77.7015
G01 X28.2239 Y77.6997
G01 X28.1462 Y77.6882
G01 X28.1317 Y77.6857
G01 X28.1174 Y77.6824
G01 X28.0412 Y77.6633
G01 X28.0270 Y77.6594
G01 X28.0130 Y77.6548
G01 X27.9390 Y77.6283
G01 X27.9253 Y77.6230
G01 X27.9118 Y77.6171
G01 X27.8408 Y77.5835
G01 X27.8277 Y77.5769
G01 X27.8149 Y77.5696
G01 X27.7412 Y77.5254
G01 X27.7230 Y77.5129
G01 X27.6599 Y77.4661
G01 X27.6483 Y77.4570
G01 X27.6372 Y77.4474
G01 X27.5790 Y77.3947
G01 X27.5683 Y77.3845
G01 X20.9008 Y70.7170
G01 X20.8906 Y70.7063
G01 X20.8379 Y70.6481
G01 X20.8283 Y70.6370
G01 X20.8192 Y70.6254
G01 X20.7681 Y70.5563
G01 X20.7561 Y70.5378
G01 X20.7157 Y70.4704
G01 X20.7084 Y70.4576
G01 X20.7018 Y70.4445
G01 X20.6682 Y70.3735
G01 X20.6623 Y70.3600
G01 X20.6570 Y70.3463
G01 X20.6305 Y70.2723
G01 X20.6259 Y70.2583
G01 X20.6220 Y70.2441
G01 X20.6029 Y70.1679
G01 X20.5996 Y70.1536
G01 X20.5971 Y70.1391
G01 X20.5856 Y70.0614
G01 X20.5838 Y70.0468
G01 X20.5827 Y70.0321
