(G-CODE GENERATED BY FLATCAM v8.994 - www.flatcam.org - Version Date: 2020/11/7)

(Name: cu_iso_combined_1_cnc)
(Type: G-code from Geometry)
(Units: MM)

(Created on Wednesday, 02 December 2020 at 20:45)

(This preprocessor is the default preprocessor used by FlatCAM.)
(It is made to work with MACH3 compatible motion controllers.)

(TOOL DIAMETER: 1.0 mm)
(Feedrate_XY: 100.0 mm/min)
(Feedrate_Z: 60.0 mm/min)
(Feedrate rapids 150.0 mm/min)

(Z_Cut: -0.15 mm)
(Z_Move: 2.0 mm)
(Z Start: None mm)
(Z End: 20.0 mm)
(X,Y End: None mm)
(Steps per circle: 64)
(Preprocessor Geometry: default)

(X range:    1.9635 ...   26.2189  mm)
(Y range:   70.2260 ...   93.2114  mm)

(Spindle Speed: 12000.0 RPM)
G21
G90
G94

G01 F100.00

M5
G00 Z20.0000
G00 X0.0000 Y0.0000
T2
M6    
(MSG, Change to Tool Dia = 1.0000)
M0
G00 Z20.0000

M03 S12000.0
G01 F100.00
G00 X17.7496 Y82.4118
G01 F60.00
G01 Z-0.1500
G01 F100.00
G01 X17.7496 Y81.1836
G01 X14.4728 Y77.9068
G01 X3.2639 Y77.9068
G01 X3.2394 Y77.9062
G01 X3.1609 Y77.9023
G01 X3.1364 Y77.9005
G01 X3.1121 Y77.8975
G01 X3.0223 Y77.8841
G01 X3.0102 Y77.8818
G01 X2.9863 Y77.8764
G01 X2.9101 Y77.8574
G01 X2.8864 Y77.8508
G01 X2.8631 Y77.8431
G01 X2.7892 Y77.8166
G01 X2.7663 Y77.8078
G01 X2.7438 Y77.7979
G01 X2.6728 Y77.7643
G01 X2.6509 Y77.7533
G01 X2.6295 Y77.7412
G01 X2.5622 Y77.7008
G01 X2.5414 Y77.6876
G01 X2.5214 Y77.6735
G01 X2.4583 Y77.6267
G01 X2.4389 Y77.6116
G01 X2.4204 Y77.5956
G01 X2.3622 Y77.5428
G01 X2.3444 Y77.5259
G01 X2.3275 Y77.5081
G01 X2.2747 Y77.4499
G01 X2.2587 Y77.4314
G01 X2.2436 Y77.4120
G01 X2.1968 Y77.3489
G01 X2.1827 Y77.3289
G01 X2.1760 Y77.3186
G01 X2.1291 Y77.2408
G01 X2.1170 Y77.2194
G01 X2.1060 Y77.1975
G01 X2.0724 Y77.1265
G01 X2.0625 Y77.1040
G01 X2.0537 Y77.0811
G01 X2.0272 Y77.0072
G01 X2.0195 Y76.9839
G01 X2.0129 Y76.9602
G01 X1.9939 Y76.8840
G01 X1.9885 Y76.8601
G01 X1.9843 Y76.8359
G01 X1.9728 Y76.7582
G01 X1.9698 Y76.7339
G01 X1.9680 Y76.7094
G01 X1.9641 Y76.6309
G01 X1.9635 Y76.6064
G01 X1.9641 Y76.5819
G01 X1.9680 Y76.5034
G01 X1.9698 Y76.4789
G01 X1.9711 Y76.4667
G01 X1.9843 Y76.3769
G01 X1.9885 Y76.3527
G01 X1.9939 Y76.3288
G01 X2.0129 Y76.2526
G01 X2.0195 Y76.2289
G01 X2.0272 Y76.2056
G01 X2.0537 Y76.1317
G01 X2.0625 Y76.1088
G01 X2.0724 Y76.0863
G01 X2.1060 Y76.0153
G01 X2.1170 Y75.9934
G01 X2.1291 Y75.9720
G01 X2.1695 Y75.9047
G01 X2.1827 Y75.8839
G01 X2.1968 Y75.8639
G01 X2.2436 Y75.8008
G01 X2.2587 Y75.7814
G01 X2.2747 Y75.7629
G01 X2.3275 Y75.7047
G01 X2.3444 Y75.6869
G01 X2.3622 Y75.6700
G01 X2.4204 Y75.6172
G01 X2.4389 Y75.6012
G01 X2.4583 Y75.5861
G01 X2.5214 Y75.5393
G01 X2.5414 Y75.5252
G01 X2.5622 Y75.5120
G01 X2.6295 Y75.4716
G01 X2.6509 Y75.4595
G01 X2.6728 Y75.4485
G01 X2.7438 Y75.4149
G01 X2.7663 Y75.4050
G01 X2.7892 Y75.3962
G01 X2.8631 Y75.3697
G01 X2.8864 Y75.3620
G01 X2.9101 Y75.3554
G01 X2.9863 Y75.3364
G01 X3.0102 Y75.3310
G01 X3.0344 Y75.3268
G01 X3.1121 Y75.3153
G01 X3.1364 Y75.3123
G01 X3.1609 Y75.3105
G01 X3.2516 Y75.3062
G01 X15.0237 Y75.3062
G01 X15.1144 Y75.3105
G01 X15.1389 Y75.3123
G01 X15.1632 Y75.3153
G01 X15.2409 Y75.3268
G01 X15.2651 Y75.3310
G01 X15.2890 Y75.3364
G01 X15.3652 Y75.3554
G01 X15.3889 Y75.3620
G01 X15.4122 Y75.3697
G01 X15.4861 Y75.3962
G01 X15.5090 Y75.4050
G01 X15.5315 Y75.4149
G01 X15.6025 Y75.4485
G01 X15.6244 Y75.4595
G01 X15.6458 Y75.4716
G01 X15.7131 Y75.5120
G01 X15.7339 Y75.5252
G01 X15.7539 Y75.5393
G01 X15.8170 Y75.5861
G01 X15.8364 Y75.6012
G01 X15.8549 Y75.6172
G01 X15.9131 Y75.6700
G01 X15.9309 Y75.6869
G01 X19.9695 Y79.7255
G01 X19.9864 Y79.7433
G01 X20.0392 Y79.8015
G01 X20.0552 Y79.8200
G01 X20.0703 Y79.8394
G01 X20.1171 Y79.9025
G01 X20.1312 Y79.9225
G01 X20.1379 Y79.9328
G01 X20.1909 Y80.0212
G01 X20.1969 Y80.0320
G01 X20.2079 Y80.0539
G01 X20.2415 Y80.1249
G01 X20.2514 Y80.1474
G01 X20.2602 Y80.1703
G01 X20.2867 Y80.2442
G01 X20.2944 Y80.2675
G01 X20.3010 Y80.2912
G01 X20.3200 Y80.3674
G01 X20.3254 Y80.3913
G01 X20.3296 Y80.4155
G01 X20.3411 Y80.4932
G01 X20.3428 Y80.5053
G01 X20.3452 Y80.5298
G01 X20.3498 Y80.6205
G01 X20.3504 Y80.6450
G01 X20.3504 Y82.4118
G01 X20.4464 Y82.4989
G01 X20.4642 Y82.5158
G01 X20.4811 Y82.5336
G01 X20.5800 Y82.6426
G01 X20.5960 Y82.6612
G01 X20.6111 Y82.6806
G01 X20.6988 Y82.7988
G01 X20.7129 Y82.8189
G01 X20.7261 Y82.8396
G01 X20.8017 Y82.9659
G01 X20.8138 Y82.9872
G01 X20.8249 Y83.0091
G01 X20.8878 Y83.1422
G01 X20.8978 Y83.1646
G01 X20.9066 Y83.1875
G01 X20.9562 Y83.3261
G01 X20.9639 Y83.3494
G01 X20.9704 Y83.3731
G01 X21.0062 Y83.5159
G01 X21.0116 Y83.5398
G01 X21.0158 Y83.5640
G01 X21.0374 Y83.7096
G01 X21.0404 Y83.7340
G01 X21.0422 Y83.7584
G01 X21.0494 Y83.9055
G01 X21.0500 Y83.9300
G01 X21.0494 Y83.9545
G01 X21.0422 Y84.1016
G01 X21.0404 Y84.1260
G01 X21.0374 Y84.1504
G01 X21.0158 Y84.2960
G01 X21.0116 Y84.3202
G01 X21.0062 Y84.3441
G01 X20.9704 Y84.4869
G01 X20.9639 Y84.5106
G01 X20.9562 Y84.5339
G01 X20.9066 Y84.6725
G01 X20.8978 Y84.6954
G01 X20.8878 Y84.7178
G01 X20.8249 Y84.8509
G01 X20.8138 Y84.8728
G01 X20.8017 Y84.8941
G01 X20.7261 Y85.0204
G01 X20.7129 Y85.0411
G01 X20.6988 Y85.0612
G01 X20.6111 Y85.1794
G01 X20.5960 Y85.1988
G01 X20.5800 Y85.2174
G01 X20.4811 Y85.3264
G01 X20.4642 Y85.3442
G01 X20.4393 Y85.3676
G01 X20.4393 Y89.6932
G01 X20.5353 Y89.7803
G01 X20.5531 Y89.7972
G01 X20.5700 Y89.8150
G01 X20.6689 Y89.9240
G01 X20.6849 Y89.9426
G01 X20.7000 Y89.9620
G01 X20.7877 Y90.0802
G01 X20.8018 Y90.1003
G01 X20.8150 Y90.1210
G01 X20.8906 Y90.2473
G01 X20.9027 Y90.2686
G01 X20.9138 Y90.2905
G01 X20.9767 Y90.4236
G01 X20.9867 Y90.4460
G01 X20.9955 Y90.4689
G01 X21.0451 Y90.6075
G01 X21.0528 Y90.6308
G01 X21.0593 Y90.6545
G01 X21.0951 Y90.7973
G01 X21.1005 Y90.8212
G01 X21.1047 Y90.8454
G01 X21.1263 Y90.9910
G01 X21.1293 Y91.0154
G01 X21.1311 Y91.0398
G01 X21.1383 Y91.1869
G01 X21.1389 Y91.2114
G01 X21.1383 Y91.2359
G01 X21.1311 Y91.3830
G01 X21.1293 Y91.4074
G01 X21.1263 Y91.4318
G01 X21.1047 Y91.5774
G01 X21.1005 Y91.6016
G01 X21.0951 Y91.6255
G01 X21.0593 Y91.7683
G01 X21.0528 Y91.7920
G01 X21.0451 Y91.8153
G01 X20.9955 Y91.9539
G01 X20.9867 Y91.9768
G01 X20.9767 Y91.9992
G01 X20.9138 Y92.1323
G01 X20.9027 Y92.1542
G01 X20.8906 Y92.1755
G01 X20.8150 Y92.3018
G01 X20.8018 Y92.3225
G01 X20.7877 Y92.3426
G01 X20.7000 Y92.4608
G01 X20.6849 Y92.4802
G01 X20.6689 Y92.4988
G01 X20.5700 Y92.6078
G01 X20.5531 Y92.6256
G01 X20.5353 Y92.6425
G01 X20.4263 Y92.7414
G01 X20.4077 Y92.7574
G01 X20.3883 Y92.7725
G01 X20.2701 Y92.8602
G01 X20.2500 Y92.8743
G01 X20.2293 Y92.8875
G01 X20.1030 Y92.9631
G01 X20.0817 Y92.9752
G01 X20.0598 Y92.9863
G01 X19.9267 Y93.0492
G01 X19.9043 Y93.0592
G01 X19.8814 Y93.0680
G01 X19.7428 Y93.1176
G01 X19.7195 Y93.1253
G01 X19.6958 Y93.1318
G01 X19.5530 Y93.1676
G01 X19.5291 Y93.1730
G01 X19.5170 Y93.1752
G01 X19.3593 Y93.1988
G01 X19.3349 Y93.2018
G01 X19.3105 Y93.2036
G01 X19.1634 Y93.2108
G01 X19.1389 Y93.2114
G01 X19.1144 Y93.2108
G01 X18.9673 Y93.2036
G01 X18.9429 Y93.2018
G01 X18.9185 Y93.1988
G01 X18.7729 Y93.1772
G01 X18.7487 Y93.1730
G01 X18.7248 Y93.1676
G01 X18.5820 Y93.1318
G01 X18.5583 Y93.1253
G01 X18.5350 Y93.1176
G01 X18.3964 Y93.0680
G01 X18.3735 Y93.0592
G01 X18.3511 Y93.0492
G01 X18.2180 Y92.9863
G01 X18.1961 Y92.9752
G01 X18.1748 Y92.9631
G01 X18.0485 Y92.8875
G01 X18.0278 Y92.8743
G01 X18.0077 Y92.8602
G01 X17.8895 Y92.7725
G01 X17.8701 Y92.7574
G01 X17.8515 Y92.7414
G01 X17.7425 Y92.6425
G01 X17.7247 Y92.6256
G01 X17.7078 Y92.6078
G01 X17.6089 Y92.4988
G01 X17.5929 Y92.4802
G01 X17.5778 Y92.4608
G01 X17.4901 Y92.3426
G01 X17.4760 Y92.3225
G01 X17.4628 Y92.3018
G01 X17.3872 Y92.1755
G01 X17.3751 Y92.1542
G01 X17.3640 Y92.1323
G01 X17.3011 Y91.9992
G01 X17.2911 Y91.9768
G01 X17.2823 Y91.9539
G01 X17.2327 Y91.8153
G01 X17.2250 Y91.7920
G01 X17.2185 Y91.7683
G01 X17.1827 Y91.6255
G01 X17.1799 Y91.6136
G01 X17.1751 Y91.5895
G01 X17.1515 Y91.4318
G01 X17.1485 Y91.4074
G01 X17.1467 Y91.3830
G01 X17.1395 Y91.2359
G01 X17.1389 Y91.2114
G01 X17.1395 Y91.1869
G01 X17.1467 Y91.0398
G01 X17.1485 Y91.0154
G01 X17.1515 Y90.9910
G01 X17.1731 Y90.8454
G01 X17.1773 Y90.8212
G01 X17.1827 Y90.7973
G01 X17.2185 Y90.6545
G01 X17.2250 Y90.6308
G01 X17.2327 Y90.6075
G01 X17.2823 Y90.4689
G01 X17.2911 Y90.4460
G01 X17.3011 Y90.4236
G01 X17.3640 Y90.2905
G01 X17.3751 Y90.2686
G01 X17.3872 Y90.2473
G01 X17.4628 Y90.1210
G01 X17.4760 Y90.1003
G01 X17.4901 Y90.0802
G01 X17.5778 Y89.9620
G01 X17.5929 Y89.9426
G01 X17.6089 Y89.9240
G01 X17.7078 Y89.8150
G01 X17.7247 Y89.7972
G01 X17.7425 Y89.7803
G01 X17.8385 Y89.6932
G01 X17.8385 Y85.5193
G01 X17.7908 Y85.4837
G01 X17.7718 Y85.4681
G01 X17.6446 Y85.3528
G01 X17.6358 Y85.3442
G01 X17.6189 Y85.3264
G01 X17.5200 Y85.2174
G01 X17.5119 Y85.2082
G01 X17.4963 Y85.1892
G01 X17.4012 Y85.0612
G01 X17.3871 Y85.0411
G01 X17.3739 Y85.0204
G01 X17.2983 Y84.8941
G01 X17.2862 Y84.8728
G01 X17.2751 Y84.8509
G01 X17.2071 Y84.7066
G01 X17.2022 Y84.6954
G01 X17.1934 Y84.6725
G01 X17.1438 Y84.5339
G01 X17.1361 Y84.5106
G01 X17.1296 Y84.4869
G01 X17.0938 Y84.3441
G01 X17.0884 Y84.3202
G01 X17.0842 Y84.2960
G01 X17.0626 Y84.1504
G01 X17.0596 Y84.1260
G01 X17.0578 Y84.1016
G01 X17.0506 Y83.9545
G01 X17.0500 Y83.9300
G01 X17.0506 Y83.9055
G01 X17.0586 Y83.7462
G01 X17.0596 Y83.7340
G01 X17.0626 Y83.7096
G01 X17.0842 Y83.5640
G01 X17.0884 Y83.5398
G01 X17.0938 Y83.5159
G01 X17.1296 Y83.3731
G01 X17.1361 Y83.3494
G01 X17.1438 Y83.3261
G01 X17.1934 Y83.1875
G01 X17.2022 Y83.1646
G01 X17.2122 Y83.1422
G01 X17.2805 Y82.9981
G01 X17.2862 Y82.9872
G01 X17.2983 Y82.9659
G01 X17.3739 Y82.8396
G01 X17.3871 Y82.8189
G01 X17.4012 Y82.7988
G01 X17.4963 Y82.6708
G01 X17.5119 Y82.6518
G01 X17.5200 Y82.6426
G01 X17.6189 Y82.5336
G01 X17.6358 Y82.5158
G01 X17.6536 Y82.4989
G01 X17.7496 Y82.4118
G00 Z2.0000
G00 X12.7585 Y89.6932
G01 F60.00
G01 Z-0.1500
G01 F100.00
G01 X12.7585 Y85.5193
G01 X12.7108 Y85.4837
G01 X12.6918 Y85.4681
G01 X12.5646 Y85.3528
G01 X12.5472 Y85.3354
G01 X12.5389 Y85.3264
G01 X12.4400 Y85.2174
G01 X12.4319 Y85.2082
G01 X12.4163 Y85.1892
G01 X12.3212 Y85.0612
G01 X12.3071 Y85.0411
G01 X12.2939 Y85.0204
G01 X12.2183 Y84.8941
G01 X12.2062 Y84.8728
G01 X12.1951 Y84.8509
G01 X12.1322 Y84.7178
G01 X12.1271 Y84.7066
G01 X12.1177 Y84.6840
G01 X12.0638 Y84.5339
G01 X12.0561 Y84.5106
G01 X12.0496 Y84.4869
G01 X12.0138 Y84.3441
G01 X12.0084 Y84.3202
G01 X12.0042 Y84.2960
G01 X11.9826 Y84.1504
G01 X11.9796 Y84.1260
G01 X11.9778 Y84.1016
G01 X11.9706 Y83.9545
G01 X11.9700 Y83.9300
G01 X11.9706 Y83.9055
G01 X11.9778 Y83.7584
G01 X11.9796 Y83.7340
G01 X11.9826 Y83.7096
G01 X12.0042 Y83.5640
G01 X12.0084 Y83.5398
G01 X12.0138 Y83.5159
G01 X12.0496 Y83.3731
G01 X12.0561 Y83.3494
G01 X12.0638 Y83.3261
G01 X12.1134 Y83.1875
G01 X12.1222 Y83.1646
G01 X12.1322 Y83.1422
G01 X12.1951 Y83.0091
G01 X12.2062 Y82.9872
G01 X12.2183 Y82.9659
G01 X12.2939 Y82.8396
G01 X12.3071 Y82.8189
G01 X12.3212 Y82.7988
G01 X12.4089 Y82.6806
G01 X12.4240 Y82.6612
G01 X12.4400 Y82.6426
G01 X12.5389 Y82.5336
G01 X12.5558 Y82.5158
G01 X12.5736 Y82.4989
G01 X12.6826 Y82.4000
G01 X12.7012 Y82.3840
G01 X12.7206 Y82.3689
G01 X12.8388 Y82.2812
G01 X12.8589 Y82.2671
G01 X12.8796 Y82.2539
G01 X13.0059 Y82.1783
G01 X13.0272 Y82.1662
G01 X13.0491 Y82.1551
G01 X13.1822 Y82.0922
G01 X13.2046 Y82.0822
G01 X13.2275 Y82.0734
G01 X13.3661 Y82.0238
G01 X13.3894 Y82.0161
G01 X13.4131 Y82.0096
G01 X13.5559 Y81.9738
G01 X13.5798 Y81.9684
G01 X13.6040 Y81.9642
G01 X13.7496 Y81.9426
G01 X13.7740 Y81.9396
G01 X13.7984 Y81.9378
G01 X13.9455 Y81.9306
G01 X13.9700 Y81.9300
G01 X13.9945 Y81.9306
G01 X14.1416 Y81.9378
G01 X14.1660 Y81.9396
G01 X14.1904 Y81.9426
G01 X14.3360 Y81.9642
G01 X14.3602 Y81.9684
G01 X14.3841 Y81.9738
G01 X14.5269 Y82.0096
G01 X14.5506 Y82.0161
G01 X14.5739 Y82.0238
G01 X14.7125 Y82.0734
G01 X14.7354 Y82.0822
G01 X14.7578 Y82.0922
G01 X14.8909 Y82.1551
G01 X14.9128 Y82.1662
G01 X14.9341 Y82.1783
G01 X15.0604 Y82.2539
G01 X15.0811 Y82.2671
G01 X15.1012 Y82.2812
G01 X15.2194 Y82.3689
G01 X15.2388 Y82.3840
G01 X15.2574 Y82.4000
G01 X15.3664 Y82.4989
G01 X15.3842 Y82.5158
G01 X15.4011 Y82.5336
G01 X15.5000 Y82.6426
G01 X15.5160 Y82.6612
G01 X15.5311 Y82.6806
G01 X15.6188 Y82.7988
G01 X15.6329 Y82.8189
G01 X15.6461 Y82.8396
G01 X15.7217 Y82.9659
G01 X15.7338 Y82.9872
G01 X15.7449 Y83.0091
G01 X15.8078 Y83.1422
G01 X15.8178 Y83.1646
G01 X15.8266 Y83.1875
G01 X15.8762 Y83.3261
G01 X15.8839 Y83.3494
G01 X15.8904 Y83.3731
G01 X15.9262 Y83.5159
G01 X15.9316 Y83.5398
G01 X15.9358 Y83.5640
G01 X15.9574 Y83.7096
G01 X15.9604 Y83.7340
G01 X15.9622 Y83.7584
G01 X15.9694 Y83.9055
G01 X15.9700 Y83.9300
G01 X15.9694 Y83.9545
G01 X15.9622 Y84.1016
G01 X15.9604 Y84.1260
G01 X15.9574 Y84.1504
G01 X15.9358 Y84.2960
G01 X15.9316 Y84.3202
G01 X15.9262 Y84.3441
G01 X15.8904 Y84.4869
G01 X15.8839 Y84.5106
G01 X15.8762 Y84.5339
G01 X15.8266 Y84.6725
G01 X15.8178 Y84.6954
G01 X15.8078 Y84.7178
G01 X15.7449 Y84.8509
G01 X15.7338 Y84.8728
G01 X15.7217 Y84.8941
G01 X15.6461 Y85.0204
G01 X15.6329 Y85.0411
G01 X15.6188 Y85.0612
G01 X15.5311 Y85.1794
G01 X15.5160 Y85.1988
G01 X15.5000 Y85.2174
G01 X15.4011 Y85.3264
G01 X15.3842 Y85.3442
G01 X15.3593 Y85.3676
G01 X15.3593 Y89.6932
G01 X15.4553 Y89.7803
G01 X15.4731 Y89.7972
G01 X15.4900 Y89.8150
G01 X15.5889 Y89.9240
G01 X15.6049 Y89.9426
G01 X15.6200 Y89.9620
G01 X15.7077 Y90.0802
G01 X15.7218 Y90.1003
G01 X15.7350 Y90.1210
G01 X15.8106 Y90.2473
G01 X15.8227 Y90.2686
G01 X15.8338 Y90.2905
G01 X15.8967 Y90.4236
G01 X15.9067 Y90.4460
G01 X15.9155 Y90.4689
G01 X15.9651 Y90.6075
G01 X15.9728 Y90.6308
G01 X15.9793 Y90.6545
G01 X16.0151 Y90.7973
G01 X16.0205 Y90.8212
G01 X16.0247 Y90.8454
G01 X16.0463 Y90.9910
G01 X16.0493 Y91.0154
G01 X16.0511 Y91.0398
G01 X16.0583 Y91.1869
G01 X16.0589 Y91.2114
G01 X16.0583 Y91.2359
G01 X16.0503 Y91.3952
G01 X16.0493 Y91.4074
G01 X16.0463 Y91.4318
G01 X16.0247 Y91.5774
G01 X16.0205 Y91.6016
G01 X16.0151 Y91.6255
G01 X15.9793 Y91.7683
G01 X15.9728 Y91.7920
G01 X15.9651 Y91.8153
G01 X15.9155 Y91.9539
G01 X15.9067 Y91.9768
G01 X15.8967 Y91.9992
G01 X15.8338 Y92.1323
G01 X15.8227 Y92.1542
G01 X15.8106 Y92.1755
G01 X15.7350 Y92.3018
G01 X15.7218 Y92.3225
G01 X15.7077 Y92.3426
G01 X15.6200 Y92.4608
G01 X15.6049 Y92.4802
G01 X15.5889 Y92.4988
G01 X15.4900 Y92.6078
G01 X15.4731 Y92.6256
G01 X15.4553 Y92.6425
G01 X15.3463 Y92.7414
G01 X15.3277 Y92.7574
G01 X15.3083 Y92.7725
G01 X15.1901 Y92.8602
G01 X15.1700 Y92.8743
G01 X15.1493 Y92.8875
G01 X15.0230 Y92.9631
G01 X15.0017 Y92.9752
G01 X14.9798 Y92.9863
G01 X14.8467 Y93.0492
G01 X14.8243 Y93.0592
G01 X14.8014 Y93.0680
G01 X14.6628 Y93.1176
G01 X14.6395 Y93.1253
G01 X14.6158 Y93.1318
G01 X14.4730 Y93.1676
G01 X14.4491 Y93.1730
G01 X14.4249 Y93.1772
G01 X14.2793 Y93.1988
G01 X14.2549 Y93.2018
G01 X14.2305 Y93.2036
G01 X14.0834 Y93.2108
G01 X14.0589 Y93.2114
G01 X14.0344 Y93.2108
G01 X13.8873 Y93.2036
G01 X13.8629 Y93.2018
G01 X13.8385 Y93.1988
G01 X13.6929 Y93.1772
G01 X13.6687 Y93.1730
G01 X13.6448 Y93.1676
G01 X13.5020 Y93.1318
G01 X13.4783 Y93.1253
G01 X13.4550 Y93.1176
G01 X13.3164 Y93.0680
G01 X13.2935 Y93.0592
G01 X13.2711 Y93.0492
G01 X13.1380 Y92.9863
G01 X13.1161 Y92.9752
G01 X13.0948 Y92.9631
G01 X12.9685 Y92.8875
G01 X12.9478 Y92.8743
G01 X12.9277 Y92.8602
G01 X12.8095 Y92.7725
G01 X12.7901 Y92.7574
G01 X12.7715 Y92.7414
G01 X12.6625 Y92.6425
G01 X12.6447 Y92.6256
G01 X12.6278 Y92.6078
G01 X12.5289 Y92.4988
G01 X12.5129 Y92.4802
G01 X12.4978 Y92.4608
G01 X12.4101 Y92.3426
G01 X12.3960 Y92.3225
G01 X12.3828 Y92.3018
G01 X12.3072 Y92.1755
G01 X12.2951 Y92.1542
G01 X12.2840 Y92.1323
G01 X12.2211 Y91.9992
G01 X12.2111 Y91.9768
G01 X12.2023 Y91.9539
G01 X12.1527 Y91.8153
G01 X12.1450 Y91.7920
G01 X12.1385 Y91.7683
G01 X12.1027 Y91.6255
G01 X12.0973 Y91.6016
G01 X12.0931 Y91.5774
G01 X12.0715 Y91.4318
G01 X12.0685 Y91.4074
G01 X12.0667 Y91.3830
G01 X12.0595 Y91.2359
G01 X12.0589 Y91.2114
G01 X12.0595 Y91.1869
G01 X12.0667 Y91.0398
G01 X12.0685 Y91.0154
G01 X12.0715 Y90.9910
G01 X12.0931 Y90.8454
G01 X12.0973 Y90.8212
G01 X12.1027 Y90.7973
G01 X12.1385 Y90.6545
G01 X12.1450 Y90.6308
G01 X12.1527 Y90.6075
G01 X12.2023 Y90.4689
G01 X12.2111 Y90.4460
G01 X12.2211 Y90.4236
G01 X12.2840 Y90.2905
G01 X12.2951 Y90.2686
G01 X12.3072 Y90.2473
G01 X12.3828 Y90.1210
G01 X12.3960 Y90.1003
G01 X12.4101 Y90.0802
G01 X12.4978 Y89.9620
G01 X12.5129 Y89.9426
G01 X12.5289 Y89.9240
G01 X12.6278 Y89.8150
G01 X12.6447 Y89.7972
G01 X12.6625 Y89.7803
G01 X12.7585 Y89.6932
G00 Z2.0000
G00 X7.6785 Y89.6932
G01 F60.00
G01 Z-0.1500
G01 F100.00
G01 X7.6785 Y85.5193
G01 X7.6308 Y85.4837
G01 X7.6118 Y85.4681
G01 X7.4846 Y85.3528
G01 X7.4758 Y85.3442
G01 X7.4589 Y85.3264
G01 X7.3600 Y85.2174
G01 X7.3519 Y85.2082
G01 X7.3363 Y85.1892
G01 X7.2412 Y85.0612
G01 X7.2271 Y85.0411
G01 X7.2139 Y85.0204
G01 X7.1383 Y84.8941
G01 X7.1262 Y84.8728
G01 X7.1151 Y84.8509
G01 X7.0522 Y84.7178
G01 X7.0422 Y84.6954
G01 X7.0377 Y84.6840
G01 X6.9838 Y84.5339
G01 X6.9761 Y84.5106
G01 X6.9696 Y84.4869
G01 X6.9338 Y84.3441
G01 X6.9284 Y84.3202
G01 X6.9242 Y84.2960
G01 X6.9026 Y84.1504
G01 X6.8996 Y84.1260
G01 X6.8978 Y84.1016
G01 X6.8906 Y83.9545
G01 X6.8900 Y83.9300
G01 X6.8906 Y83.9055
G01 X6.8978 Y83.7584
G01 X6.8996 Y83.7340
G01 X6.9026 Y83.7096
G01 X6.9242 Y83.5640
G01 X6.9284 Y83.5398
G01 X6.9338 Y83.5159
G01 X6.9696 Y83.3731
G01 X6.9761 Y83.3494
G01 X6.9838 Y83.3261
G01 X7.0334 Y83.1875
G01 X7.0422 Y83.1646
G01 X7.0522 Y83.1422
G01 X7.1151 Y83.0091
G01 X7.1262 Y82.9872
G01 X7.1383 Y82.9659
G01 X7.2139 Y82.8396
G01 X7.2271 Y82.8189
G01 X7.2412 Y82.7988
G01 X7.3289 Y82.6806
G01 X7.3440 Y82.6612
G01 X7.3600 Y82.6426
G01 X7.4589 Y82.5336
G01 X7.4758 Y82.5158
G01 X7.4936 Y82.4989
G01 X7.6026 Y82.4000
G01 X7.6212 Y82.3840
G01 X7.6406 Y82.3689
G01 X7.7588 Y82.2812
G01 X7.7789 Y82.2671
G01 X7.7996 Y82.2539
G01 X7.9259 Y82.1783
G01 X7.9472 Y82.1662
G01 X7.9691 Y82.1551
G01 X8.1022 Y82.0922
G01 X8.1246 Y82.0822
G01 X8.1475 Y82.0734
G01 X8.2861 Y82.0238
G01 X8.3094 Y82.0161
G01 X8.3331 Y82.0096
G01 X8.4759 Y81.9738
G01 X8.4998 Y81.9684
G01 X8.5240 Y81.9642
G01 X8.6696 Y81.9426
G01 X8.6940 Y81.9396
G01 X8.7184 Y81.9378
G01 X8.8655 Y81.9306
G01 X8.8900 Y81.9300
G01 X8.9145 Y81.9306
G01 X9.0616 Y81.9378
G01 X9.0860 Y81.9396
G01 X9.1104 Y81.9426
G01 X9.2560 Y81.9642
G01 X9.2802 Y81.9684
G01 X9.3041 Y81.9738
G01 X9.4469 Y82.0096
G01 X9.4706 Y82.0161
G01 X9.4939 Y82.0238
G01 X9.6325 Y82.0734
G01 X9.6554 Y82.0822
G01 X9.6778 Y82.0922
G01 X9.8109 Y82.1551
G01 X9.8328 Y82.1662
G01 X9.8541 Y82.1783
G01 X9.9804 Y82.2539
G01 X10.0011 Y82.2671
G01 X10.0212 Y82.2812
G01 X10.1394 Y82.3689
G01 X10.1588 Y82.3840
G01 X10.1774 Y82.4000
G01 X10.2864 Y82.4989
G01 X10.3042 Y82.5158
G01 X10.3211 Y82.5336
G01 X10.4200 Y82.6426
G01 X10.4360 Y82.6612
G01 X10.4511 Y82.6806
G01 X10.5388 Y82.7988
G01 X10.5529 Y82.8189
G01 X10.5661 Y82.8396
G01 X10.6417 Y82.9659
G01 X10.6538 Y82.9872
G01 X10.6649 Y83.0091
G01 X10.7278 Y83.1422
G01 X10.7378 Y83.1646
G01 X10.7466 Y83.1875
G01 X10.7962 Y83.3261
G01 X10.8039 Y83.3494
G01 X10.8104 Y83.3731
G01 X10.8462 Y83.5159
G01 X10.8516 Y83.5398
G01 X10.8558 Y83.5640
G01 X10.8774 Y83.7096
G01 X10.8804 Y83.7340
G01 X10.8822 Y83.7584
G01 X10.8894 Y83.9055
G01 X10.8900 Y83.9300
G01 X10.8894 Y83.9545
G01 X10.8822 Y84.1016
G01 X10.8804 Y84.1260
G01 X10.8774 Y84.1504
G01 X10.8558 Y84.2960
G01 X10.8516 Y84.3202
G01 X10.8462 Y84.3441
G01 X10.8104 Y84.4869
G01 X10.8039 Y84.5106
G01 X10.7962 Y84.5339
G01 X10.7466 Y84.6725
G01 X10.7378 Y84.6954
G01 X10.7278 Y84.7178
G01 X10.6649 Y84.8509
G01 X10.6538 Y84.8728
G01 X10.6417 Y84.8941
G01 X10.5661 Y85.0204
G01 X10.5529 Y85.0411
G01 X10.5388 Y85.0612
G01 X10.4511 Y85.1794
G01 X10.4360 Y85.1988
G01 X10.4200 Y85.2174
G01 X10.3211 Y85.3264
G01 X10.3042 Y85.3442
G01 X10.2793 Y85.3676
G01 X10.2793 Y89.6932
G01 X10.3753 Y89.7803
G01 X10.3931 Y89.7972
G01 X10.4100 Y89.8150
G01 X10.5089 Y89.9240
G01 X10.5249 Y89.9426
G01 X10.5400 Y89.9620
G01 X10.6277 Y90.0802
G01 X10.6418 Y90.1003
G01 X10.6550 Y90.1210
G01 X10.7306 Y90.2473
G01 X10.7427 Y90.2686
G01 X10.7538 Y90.2905
G01 X10.8167 Y90.4236
G01 X10.8267 Y90.4460
G01 X10.8355 Y90.4689
G01 X10.8851 Y90.6075
G01 X10.8928 Y90.6308
G01 X10.8993 Y90.6545
G01 X10.9351 Y90.7973
G01 X10.9405 Y90.8212
G01 X10.9447 Y90.8454
G01 X10.9663 Y90.9910
G01 X10.9693 Y91.0154
G01 X10.9711 Y91.0398
G01 X10.9783 Y91.1869
G01 X10.9789 Y91.2114
G01 X10.9783 Y91.2359
G01 X10.9703 Y91.3952
G01 X10.9679 Y91.4196
G01 X10.9663 Y91.4318
G01 X10.9447 Y91.5774
G01 X10.9405 Y91.6016
G01 X10.9351 Y91.6255
G01 X10.8993 Y91.7683
G01 X10.8928 Y91.7920
G01 X10.8851 Y91.8153
G01 X10.8355 Y91.9539
G01 X10.8267 Y91.9768
G01 X10.8167 Y91.9992
G01 X10.7538 Y92.1323
G01 X10.7427 Y92.1542
G01 X10.7306 Y92.1755
G01 X10.6550 Y92.3018
G01 X10.6418 Y92.3225
G01 X10.6277 Y92.3426
G01 X10.5400 Y92.4608
G01 X10.5249 Y92.4802
G01 X10.5089 Y92.4988
G01 X10.4100 Y92.6078
G01 X10.3931 Y92.6256
G01 X10.3753 Y92.6425
G01 X10.2663 Y92.7414
G01 X10.2477 Y92.7574
G01 X10.2283 Y92.7725
G01 X10.1101 Y92.8602
G01 X10.0900 Y92.8743
G01 X10.0693 Y92.8875
G01 X9.9430 Y92.9631
G01 X9.9217 Y92.9752
G01 X9.8998 Y92.9863
G01 X9.7667 Y93.0492
G01 X9.7443 Y93.0592
G01 X9.7214 Y93.0680
G01 X9.5828 Y93.1176
G01 X9.5595 Y93.1253
G01 X9.5358 Y93.1318
G01 X9.3930 Y93.1676
G01 X9.3691 Y93.1730
G01 X9.3449 Y93.1772
G01 X9.1993 Y93.1988
G01 X9.1749 Y93.2018
G01 X9.1505 Y93.2036
G01 X9.0034 Y93.2108
G01 X8.9789 Y93.2114
G01 X8.9544 Y93.2108
G01 X8.8073 Y93.2036
G01 X8.7829 Y93.2018
G01 X8.7585 Y93.1988
G01 X8.6129 Y93.1772
G01 X8.5887 Y93.1730
G01 X8.5648 Y93.1676
G01 X8.4220 Y93.1318
G01 X8.3983 Y93.1253
G01 X8.3750 Y93.1176
G01 X8.2364 Y93.0680
G01 X8.2135 Y93.0592
G01 X8.1911 Y93.0492
G01 X8.0580 Y92.9863
G01 X8.0361 Y92.9752
G01 X8.0148 Y92.9631
G01 X7.8885 Y92.8875
G01 X7.8678 Y92.8743
G01 X7.8477 Y92.8602
G01 X7.7295 Y92.7725
G01 X7.7101 Y92.7574
G01 X7.6915 Y92.7414
G01 X7.5825 Y92.6425
G01 X7.5647 Y92.6256
G01 X7.5478 Y92.6078
G01 X7.4489 Y92.4988
G01 X7.4329 Y92.4802
G01 X7.4178 Y92.4608
G01 X7.3301 Y92.3426
G01 X7.3160 Y92.3225
G01 X7.3028 Y92.3018
G01 X7.2272 Y92.1755
G01 X7.2151 Y92.1542
G01 X7.2040 Y92.1323
G01 X7.1411 Y91.9992
G01 X7.1311 Y91.9768
G01 X7.1223 Y91.9539
G01 X7.0727 Y91.8153
G01 X7.0650 Y91.7920
G01 X7.0585 Y91.7683
G01 X7.0227 Y91.6255
G01 X7.0173 Y91.6016
G01 X7.0131 Y91.5774
G01 X6.9915 Y91.4318
G01 X6.9885 Y91.4074
G01 X6.9867 Y91.3830
G01 X6.9795 Y91.2359
G01 X6.9789 Y91.2114
G01 X6.9795 Y91.1869
G01 X6.9867 Y91.0398
G01 X6.9885 Y91.0154
G01 X6.9915 Y90.9910
G01 X7.0131 Y90.8454
G01 X7.0173 Y90.8212
G01 X7.0227 Y90.7973
G01 X7.0585 Y90.6545
G01 X7.0650 Y90.6308
G01 X7.0727 Y90.6075
G01 X7.1223 Y90.4689
G01 X7.1311 Y90.4460
G01 X7.1411 Y90.4236
G01 X7.2040 Y90.2905
G01 X7.2151 Y90.2686
G01 X7.2272 Y90.2473
G01 X7.3028 Y90.1210
G01 X7.3160 Y90.1003
G01 X7.3301 Y90.0802
G01 X7.4178 Y89.9620
G01 X7.4329 Y89.9426
G01 X7.4489 Y89.9240
G01 X7.5478 Y89.8150
G01 X7.5647 Y89.7972
G01 X7.5825 Y89.7803
G01 X7.6785 Y89.6932
G00 Z2.0000
G00 X26.2189 Y92.7114
G01 F60.00
G01 Z-0.1500
G01 F100.00
G01 X26.2183 Y92.7359
G01 X26.2165 Y92.7604
G01 X26.2151 Y92.7726
G01 X26.2115 Y92.7969
G01 X26.2068 Y92.8210
G01 X26.2008 Y92.8448
G01 X26.1937 Y92.8682
G01 X26.1854 Y92.8913
G01 X26.1760 Y92.9140
G01 X26.1655 Y92.9362
G01 X26.1539 Y92.9578
G01 X26.1413 Y92.9789
G01 X26.1277 Y92.9993
G01 X26.1131 Y93.0190
G01 X26.0975 Y93.0380
G01 X26.0810 Y93.0562
G01 X26.0637 Y93.0735
G01 X26.0455 Y93.0900
G01 X26.0265 Y93.1056
G01 X26.0167 Y93.1130
G01 X25.9967 Y93.1271
G01 X25.9760 Y93.1403
G01 X25.9546 Y93.1524
G01 X25.9327 Y93.1634
G01 X25.9102 Y93.1733
G01 X25.8873 Y93.1822
G01 X25.8640 Y93.1899
G01 X25.8404 Y93.1964
G01 X25.8164 Y93.2018
G01 X25.7923 Y93.2060
G01 X25.7679 Y93.2090
G01 X25.7434 Y93.2108
G01 X25.7189 Y93.2114
G01 X22.7189 Y93.2114
G01 X22.7066 Y93.2112
G01 X22.6821 Y93.2100
G01 X22.6577 Y93.2076
G01 X22.6455 Y93.2060
G01 X22.6214 Y93.2018
G01 X22.5974 Y93.1964
G01 X22.5738 Y93.1899
G01 X22.5621 Y93.1862
G01 X22.5505 Y93.1822
G01 X22.5276 Y93.1733
G01 X22.5051 Y93.1634
G01 X22.4941 Y93.1580
G01 X22.4725 Y93.1464
G01 X22.4514 Y93.1338
G01 X22.4310 Y93.1202
G01 X22.4113 Y93.1056
G01 X22.4017 Y93.0979
G01 X22.3831 Y93.0819
G01 X22.3741 Y93.0735
G01 X22.3653 Y93.0650
G01 X22.3484 Y93.0472
G01 X22.3324 Y93.0286
G01 X22.3247 Y93.0190
G01 X22.3101 Y92.9993
G01 X22.2965 Y92.9789
G01 X22.2839 Y92.9578
G01 X22.2779 Y92.9471
G01 X22.2669 Y92.9252
G01 X22.2570 Y92.9027
G01 X22.2524 Y92.8913
G01 X22.2441 Y92.8682
G01 X22.2404 Y92.8565
G01 X22.2339 Y92.8329
G01 X22.2285 Y92.8089
G01 X22.2263 Y92.7969
G01 X22.2227 Y92.7726
G01 X22.2203 Y92.7482
G01 X22.2191 Y92.7237
G01 X22.2189 Y89.7114
G01 X22.2195 Y89.6869
G01 X22.2213 Y89.6624
G01 X22.2243 Y89.6380
G01 X22.2285 Y89.6139
G01 X22.2310 Y89.6018
G01 X22.2370 Y89.5780
G01 X22.2404 Y89.5663
G01 X22.2481 Y89.5430
G01 X22.2570 Y89.5201
G01 X22.2669 Y89.4976
G01 X22.2779 Y89.4757
G01 X22.2900 Y89.4543
G01 X22.2965 Y89.4439
G01 X22.3101 Y89.4235
G01 X22.3247 Y89.4038
G01 X22.3324 Y89.3942
G01 X22.3484 Y89.3756
G01 X22.3653 Y89.3578
G01 X22.3831 Y89.3409
G01 X22.3923 Y89.3328
G01 X22.4113 Y89.3172
G01 X22.4310 Y89.3026
G01 X22.4514 Y89.2890
G01 X22.4725 Y89.2764
G01 X22.4941 Y89.2648
G01 X22.5163 Y89.2543
G01 X22.5390 Y89.2449
G01 X22.5621 Y89.2366
G01 X22.5855 Y89.2295
G01 X22.6093 Y89.2235
G01 X22.6334 Y89.2188
G01 X22.6577 Y89.2152
G01 X22.6699 Y89.2138
G01 X22.6944 Y89.2120
G01 X22.7066 Y89.2116
G01 X22.9185 Y89.2114
G01 X22.9185 Y85.9300
G01 X22.6300 Y85.9300
G01 X22.6055 Y85.9294
G01 X22.5810 Y85.9276
G01 X22.5566 Y85.9246
G01 X22.5325 Y85.9204
G01 X22.5085 Y85.9150
G01 X22.4849 Y85.9085
G01 X22.4616 Y85.9008
G01 X22.4501 Y85.8965
G01 X22.4274 Y85.8871
G01 X22.4052 Y85.8766
G01 X22.3836 Y85.8650
G01 X22.3625 Y85.8524
G01 X22.3421 Y85.8388
G01 X22.3322 Y85.8316
G01 X22.3128 Y85.8165
G01 X22.3034 Y85.8086
G01 X22.2852 Y85.7921
G01 X22.2679 Y85.7748
G01 X22.2514 Y85.7566
G01 X22.2358 Y85.7376
G01 X22.2212 Y85.7179
G01 X22.2076 Y85.6975
G01 X22.1950 Y85.6764
G01 X22.1834 Y85.6548
G01 X22.1780 Y85.6438
G01 X22.1681 Y85.6213
G01 X22.1635 Y85.6099
G01 X22.1552 Y85.5868
G01 X22.1481 Y85.5634
G01 X22.1421 Y85.5395
G01 X22.1374 Y85.5155
G01 X22.1338 Y85.4912
G01 X22.1314 Y85.4668
G01 X22.1302 Y85.4423
G01 X22.1300 Y85.4300
G01 X22.1300 Y82.4300
G01 X22.1306 Y82.4055
G01 X22.1314 Y82.3932
G01 X22.1338 Y82.3688
G01 X22.1374 Y82.3445
G01 X22.1421 Y82.3204
G01 X22.1481 Y82.2966
G01 X22.1515 Y82.2849
G01 X22.1592 Y82.2616
G01 X22.1681 Y82.2387
G01 X22.1780 Y82.2162
G01 X22.1890 Y82.1943
G01 X22.1950 Y82.1836
G01 X22.2076 Y82.1625
G01 X22.2212 Y82.1421
G01 X22.2358 Y82.1224
G01 X22.2514 Y82.1034
G01 X22.2595 Y82.0942
G01 X22.2764 Y82.0764
G01 X22.2852 Y82.0679
G01 X22.3034 Y82.0514
G01 X22.3224 Y82.0358
G01 X22.3421 Y82.0212
G01 X22.3522 Y82.0143
G01 X22.3729 Y82.0011
G01 X22.3943 Y81.9890
G01 X22.4162 Y81.9780
G01 X22.4274 Y81.9729
G01 X22.4501 Y81.9635
G01 X22.4732 Y81.9552
G01 X22.4966 Y81.9481
G01 X22.5204 Y81.9421
G01 X22.5445 Y81.9374
G01 X22.5688 Y81.9338
G01 X22.5810 Y81.9324
G01 X22.6055 Y81.9306
G01 X22.6177 Y81.9301
G01 X22.8296 Y81.9300
G01 X22.8296 Y79.9136
G01 X15.7428 Y72.8268
G01 X3.2639 Y72.8268
G01 X3.2394 Y72.8262
G01 X3.1609 Y72.8223
G01 X3.1364 Y72.8205
G01 X3.1121 Y72.8175
G01 X3.0223 Y72.8041
G01 X3.0102 Y72.8018
G01 X2.9863 Y72.7964
G01 X2.9101 Y72.7774
G01 X2.8864 Y72.7708
G01 X2.8747 Y72.7671
G01 X2.7892 Y72.7366
G01 X2.7663 Y72.7278
G01 X2.7438 Y72.7179
G01 X2.6728 Y72.6843
G01 X2.6509 Y72.6733
G01 X2.6295 Y72.6612
G01 X2.5622 Y72.6208
G01 X2.5414 Y72.6076
G01 X2.5214 Y72.5935
G01 X2.4583 Y72.5467
G01 X2.4389 Y72.5316
G01 X2.4204 Y72.5156
G01 X2.3622 Y72.4628
G01 X2.3444 Y72.4459
G01 X2.3275 Y72.4281
G01 X2.2747 Y72.3699
G01 X2.2587 Y72.3514
G01 X2.2436 Y72.3320
G01 X2.1968 Y72.2689
G01 X2.1827 Y72.2489
G01 X2.1695 Y72.2281
G01 X2.1291 Y72.1608
G01 X2.1170 Y72.1394
G01 X2.1060 Y72.1175
G01 X2.0724 Y72.0465
G01 X2.0625 Y72.0240
G01 X2.0537 Y72.0011
G01 X2.0232 Y71.9156
G01 X2.0195 Y71.9039
G01 X2.0129 Y71.8802
G01 X1.9939 Y71.8040
G01 X1.9885 Y71.7801
G01 X1.9843 Y71.7559
G01 X1.9728 Y71.6782
G01 X1.9698 Y71.6539
G01 X1.9680 Y71.6294
G01 X1.9641 Y71.5509
G01 X1.9635 Y71.5264
G01 X1.9641 Y71.5019
G01 X1.9687 Y71.4112
G01 X1.9698 Y71.3989
G01 X1.9728 Y71.3746
G01 X1.9843 Y71.2969
G01 X1.9885 Y71.2727
G01 X1.9910 Y71.2607
G01 X2.0129 Y71.1726
G01 X2.0195 Y71.1489
G01 X2.0272 Y71.1256
G01 X2.0537 Y71.0517
G01 X2.0625 Y71.0288
G01 X2.0724 Y71.0063
G01 X2.1060 Y70.9353
G01 X2.1170 Y70.9134
G01 X2.1291 Y70.8920
G01 X2.1695 Y70.8247
G01 X2.1827 Y70.8039
G01 X2.1968 Y70.7839
G01 X2.2436 Y70.7208
G01 X2.2587 Y70.7014
G01 X2.2747 Y70.6829
G01 X2.3275 Y70.6247
G01 X2.3444 Y70.6069
G01 X2.3622 Y70.5900
G01 X2.4204 Y70.5372
G01 X2.4389 Y70.5212
G01 X2.4583 Y70.5061
G01 X2.5214 Y70.4593
G01 X2.5414 Y70.4452
G01 X2.5622 Y70.4320
G01 X2.6295 Y70.3916
G01 X2.6509 Y70.3795
G01 X2.6728 Y70.3685
G01 X2.7438 Y70.3349
G01 X2.7663 Y70.3250
G01 X2.7892 Y70.3162
G01 X2.8631 Y70.2897
G01 X2.8864 Y70.2820
G01 X2.9101 Y70.2754
G01 X2.9863 Y70.2564
G01 X3.0102 Y70.2510
G01 X3.0344 Y70.2468
G01 X3.1121 Y70.2353
G01 X3.1364 Y70.2323
G01 X3.1609 Y70.2305
G01 X3.2394 Y70.2266
G01 X3.2639 Y70.2260
G01 X16.2937 Y70.2262
G01 X16.3844 Y70.2305
G01 X16.4089 Y70.2323
G01 X16.4332 Y70.2353
G01 X16.5109 Y70.2468
G01 X16.5351 Y70.2510
G01 X16.5590 Y70.2564
G01 X16.6352 Y70.2754
G01 X16.6589 Y70.2820
G01 X16.6822 Y70.2897
G01 X16.7561 Y70.3162
G01 X16.7790 Y70.3250
G01 X16.8015 Y70.3349
G01 X16.8725 Y70.3685
G01 X16.8944 Y70.3795
G01 X16.9158 Y70.3916
G01 X16.9831 Y70.4320
G01 X17.0039 Y70.4452
G01 X17.0239 Y70.4593
G01 X17.0870 Y70.5061
G01 X17.1064 Y70.5212
G01 X17.1249 Y70.5372
G01 X17.1831 Y70.5900
G01 X17.2009 Y70.6069
G01 X25.0495 Y78.4555
G01 X25.0664 Y78.4733
G01 X25.1192 Y78.5315
G01 X25.1352 Y78.5500
G01 X25.1503 Y78.5694
G01 X25.1971 Y78.6325
G01 X25.2112 Y78.6525
G01 X25.2244 Y78.6733
G01 X25.2648 Y78.7406
G01 X25.2769 Y78.7620
G01 X25.2879 Y78.7839
G01 X25.3215 Y78.8549
G01 X25.3314 Y78.8774
G01 X25.3402 Y78.9003
G01 X25.3667 Y78.9742
G01 X25.3744 Y78.9975
G01 X25.3810 Y79.0212
G01 X25.4000 Y79.0974
G01 X25.4054 Y79.1213
G01 X25.4096 Y79.1455
G01 X25.4211 Y79.2232
G01 X25.4241 Y79.2475
G01 X25.4259 Y79.2720
G01 X25.4302 Y79.3627
G01 X25.4304 Y81.9300
G01 X25.6423 Y81.9301
G01 X25.6668 Y81.9314
G01 X25.6790 Y81.9324
G01 X25.7034 Y81.9354
G01 X25.7155 Y81.9374
G01 X25.7396 Y81.9421
G01 X25.7634 Y81.9481
G01 X25.7868 Y81.9552
G01 X25.8099 Y81.9635
G01 X25.8213 Y81.9681
G01 X25.8438 Y81.9780
G01 X25.8657 Y81.9890
G01 X25.8871 Y82.0011
G01 X25.9078 Y82.0143
G01 X25.9278 Y82.0284
G01 X25.9376 Y82.0358
G01 X25.9566 Y82.0514
G01 X25.9748 Y82.0679
G01 X25.9921 Y82.0852
G01 X26.0086 Y82.1034
G01 X26.0165 Y82.1128
G01 X26.0316 Y82.1321
G01 X26.0457 Y82.1522
G01 X26.0589 Y82.1729
G01 X26.0710 Y82.1943
G01 X26.0820 Y82.2162
G01 X26.0871 Y82.2274
G01 X26.0965 Y82.2501
G01 X26.1048 Y82.2732
G01 X26.1119 Y82.2966
G01 X26.1150 Y82.3085
G01 X26.1204 Y82.3325
G01 X26.1226 Y82.3445
G01 X26.1262 Y82.3688
G01 X26.1286 Y82.3932
G01 X26.1294 Y82.4055
G01 X26.1300 Y82.4300
G01 X26.1300 Y85.4300
G01 X26.1298 Y85.4423
G01 X26.1286 Y85.4668
G01 X26.1262 Y85.4912
G01 X26.1226 Y85.5155
G01 X26.1179 Y85.5395
G01 X26.1119 Y85.5634
G01 X26.1048 Y85.5868
G01 X26.0965 Y85.6099
G01 X26.0871 Y85.6326
G01 X26.0766 Y85.6548
G01 X26.0650 Y85.6764
G01 X26.0524 Y85.6975
G01 X26.0388 Y85.7179
G01 X26.0242 Y85.7376
G01 X26.0086 Y85.7566
G01 X25.9921 Y85.7748
G01 X25.9748 Y85.7921
G01 X25.9566 Y85.8086
G01 X25.9376 Y85.8242
G01 X25.9179 Y85.8388
G01 X25.8975 Y85.8524
G01 X25.8764 Y85.8650
G01 X25.8548 Y85.8766
G01 X25.8326 Y85.8871
G01 X25.8099 Y85.8965
G01 X25.7868 Y85.9048
G01 X25.7634 Y85.9119
G01 X25.7396 Y85.9178
G01 X25.7155 Y85.9226
G01 X25.6912 Y85.9262
G01 X25.6668 Y85.9286
G01 X25.6545 Y85.9294
G01 X25.6300 Y85.9300
G01 X25.5193 Y85.9300
G01 X25.5193 Y89.2114
G01 X25.7312 Y89.2116
G01 X25.7557 Y89.2128
G01 X25.7801 Y89.2152
G01 X25.7923 Y89.2168
G01 X25.8164 Y89.2210
G01 X25.8404 Y89.2264
G01 X25.8640 Y89.2329
G01 X25.8873 Y89.2406
G01 X25.9102 Y89.2495
G01 X25.9327 Y89.2594
G01 X25.9546 Y89.2704
G01 X25.9760 Y89.2825
G01 X25.9967 Y89.2957
G01 X26.0167 Y89.3098
G01 X26.0361 Y89.3249
G01 X26.0547 Y89.3409
G01 X26.0725 Y89.3578
G01 X26.0894 Y89.3756
G01 X26.1054 Y89.3942
G01 X26.1205 Y89.4136
G01 X26.1277 Y89.4235
G01 X26.1413 Y89.4439
G01 X26.1539 Y89.4650
G01 X26.1655 Y89.4866
G01 X26.1760 Y89.5088
G01 X26.1854 Y89.5315
G01 X26.1937 Y89.5546
G01 X26.2008 Y89.5780
G01 X26.2039 Y89.5899
G01 X26.2093 Y89.6139
G01 X26.2135 Y89.6380
G01 X26.2165 Y89.6624
G01 X26.2183 Y89.6869
G01 X26.2189 Y89.7114
G01 X26.2189 Y92.7114
G00 Z2.0000
M05
G00 Z2.0000
G00 Z20.00


