(G-CODE GENERATED BY FLATCAM v8.994 - www.flatcam.org - Version Date: 2020/11/7)

(Name: cut_cutout_cnc)
(Type: G-code from Geometry)
(Units: MM)

(Created on Wednesday, 02 December 2020 at 20:38)

(This preprocessor is the default preprocessor used by FlatCAM.)
(It is made to work with MACH3 compatible motion controllers.)

(TOOL DIAMETER: 1.0 mm)
(Feedrate_XY: 100.0 mm/min)
(Feedrate_Z: 60.0 mm/min)
(Feedrate rapids 1500.0 mm/min)

(Z_Cut: -1.8 mm)
(DepthPerCut: 0.6 mm <=>3 passes)
(Z_Move: 2.0 mm)
(Z Start: None mm)
(Z End: 20.0 mm)
(X,Y End: None mm)
(Steps per circle: 64)
(Preprocessor Geometry: default)

(X range:   -0.6500 ...   33.6700  mm)
(Y range:   -0.6500 ...   95.9000  mm)

(Spindle Speed: 12000.0 RPM)
G21
G90
G94

G01 F100.00

M5
G00 Z20.0000
G00 X0.0000 Y0.0000
T1
M6    
(MSG, Change to Tool Dia = 1.0000)
M0
G00 Z20.0000

M03 S12000.0
G01 F100.00
G00 X14.1100 Y-0.6500
G01 F60.00
G01 Z-0.6000
G01 F100.00
G01 X-0.0500 Y-0.6500
G01 X-0.1088 Y-0.6471
G01 X-0.1671 Y-0.6385
G01 X-0.2242 Y-0.6242
G01 X-0.2796 Y-0.6044
G01 X-0.3329 Y-0.5792
G01 X-0.3834 Y-0.5489
G01 X-0.4307 Y-0.5138
G01 X-0.4743 Y-0.4743
G01 X-0.5138 Y-0.4307
G01 X-0.5489 Y-0.3834
G01 X-0.5792 Y-0.3329
G01 X-0.6044 Y-0.2796
G01 X-0.6242 Y-0.2242
G01 X-0.6385 Y-0.1671
G01 X-0.6471 Y-0.1088
G01 X-0.6500 Y-0.0500
G01 X-0.6500 Y45.2250
G00 X-0.6500 Y45.2250
G01 F60.00
G01 Z-1.2000
G01 F100.00
G01 X-0.6500 Y-0.0500
G01 X-0.6471 Y-0.1088
G01 X-0.6385 Y-0.1671
G01 X-0.6242 Y-0.2242
G01 X-0.6044 Y-0.2796
G01 X-0.5792 Y-0.3329
G01 X-0.5489 Y-0.3834
G01 X-0.5138 Y-0.4307
G01 X-0.4743 Y-0.4743
G01 X-0.4307 Y-0.5138
G01 X-0.3834 Y-0.5489
G01 X-0.3329 Y-0.5792
G01 X-0.2796 Y-0.6044
G01 X-0.2242 Y-0.6242
G01 X-0.1671 Y-0.6385
G01 X-0.1088 Y-0.6471
G01 X-0.0500 Y-0.6500
G01 X14.1100 Y-0.6500
G00 X14.1100 Y-0.6500
G01 F60.00
G01 Z-1.8000
G01 F100.00
G01 X-0.0500 Y-0.6500
G01 X-0.1088 Y-0.6471
G01 X-0.1671 Y-0.6385
G01 X-0.2242 Y-0.6242
G01 X-0.2796 Y-0.6044
G01 X-0.3329 Y-0.5792
G01 X-0.3834 Y-0.5489
G01 X-0.4307 Y-0.5138
G01 X-0.4743 Y-0.4743
G01 X-0.5138 Y-0.4307
G01 X-0.5489 Y-0.3834
G01 X-0.5792 Y-0.3329
G01 X-0.6044 Y-0.2796
G01 X-0.6242 Y-0.2242
G01 X-0.6385 Y-0.1671
G01 X-0.6471 Y-0.1088
G01 X-0.6500 Y-0.0500
G01 X-0.6500 Y45.2250
G00 Z2.0000
G00 X-0.6500 Y50.2250
G01 F60.00
G01 Z-0.6000
G01 F100.00
G01 X-0.6500 Y95.3000
G01 X-0.6471 Y95.3588
G01 X-0.6385 Y95.4171
G01 X-0.6242 Y95.4742
G01 X-0.6044 Y95.5296
G01 X-0.5792 Y95.5829
G01 X-0.5489 Y95.6334
G01 X-0.5138 Y95.6807
G01 X-0.4743 Y95.7243
G01 X-0.4307 Y95.7638
G01 X-0.3834 Y95.7989
G01 X-0.3329 Y95.8292
G01 X-0.2796 Y95.8544
G01 X-0.2242 Y95.8742
G01 X-0.1671 Y95.8885
G01 X-0.1088 Y95.8971
G01 X-0.0500 Y95.9000
G01 X14.1100 Y95.9000
G00 X14.1100 Y95.9000
G01 F60.00
G01 Z-1.2000
G01 F100.00
G01 X-0.0500 Y95.9000
G01 X-0.1088 Y95.8971
G01 X-0.1671 Y95.8885
G01 X-0.2242 Y95.8742
G01 X-0.2796 Y95.8544
G01 X-0.3329 Y95.8292
G01 X-0.3834 Y95.7989
G01 X-0.4307 Y95.7638
G01 X-0.4743 Y95.7243
G01 X-0.5138 Y95.6807
G01 X-0.5489 Y95.6334
G01 X-0.5792 Y95.5829
G01 X-0.6044 Y95.5296
G01 X-0.6242 Y95.4742
G01 X-0.6385 Y95.4171
G01 X-0.6471 Y95.3588
G01 X-0.6500 Y95.3000
G01 X-0.6500 Y50.2250
G00 X-0.6500 Y50.2250
G01 F60.00
G01 Z-1.8000
G01 F100.00
G01 X-0.6500 Y95.3000
G01 X-0.6471 Y95.3588
G01 X-0.6385 Y95.4171
G01 X-0.6242 Y95.4742
G01 X-0.6044 Y95.5296
G01 X-0.5792 Y95.5829
G01 X-0.5489 Y95.6334
G01 X-0.5138 Y95.6807
G01 X-0.4743 Y95.7243
G01 X-0.4307 Y95.7638
G01 X-0.3834 Y95.7989
G01 X-0.3329 Y95.8292
G01 X-0.2796 Y95.8544
G01 X-0.2242 Y95.8742
G01 X-0.1671 Y95.8885
G01 X-0.1088 Y95.8971
G01 X-0.0500 Y95.9000
G01 X14.1100 Y95.9000
G00 Z2.0000
G00 X19.1100 Y95.9000
G01 F60.00
G01 Z-0.6000
G01 F100.00
G01 X33.0700 Y95.9000
G01 X33.1288 Y95.8971
G01 X33.1871 Y95.8885
G01 X33.2442 Y95.8742
G01 X33.2996 Y95.8544
G01 X33.3529 Y95.8292
G01 X33.4034 Y95.7989
G01 X33.4507 Y95.7638
G01 X33.4943 Y95.7243
G01 X33.5338 Y95.6807
G01 X33.5689 Y95.6334
G01 X33.5992 Y95.5829
G01 X33.6244 Y95.5296
G01 X33.6442 Y95.4742
G01 X33.6585 Y95.4171
G01 X33.6671 Y95.3588
G01 X33.6700 Y95.3000
G01 X33.6700 Y50.2250
G00 X33.6700 Y50.2250
G01 F60.00
G01 Z-1.2000
G01 F100.00
G01 X33.6700 Y95.3000
G01 X33.6671 Y95.3588
G01 X33.6585 Y95.4171
G01 X33.6442 Y95.4742
G01 X33.6244 Y95.5296
G01 X33.5992 Y95.5829
G01 X33.5689 Y95.6334
G01 X33.5338 Y95.6807
G01 X33.4943 Y95.7243
G01 X33.4507 Y95.7638
G01 X33.4034 Y95.7989
G01 X33.3529 Y95.8292
G01 X33.2996 Y95.8544
G01 X33.2442 Y95.8742
G01 X33.1871 Y95.8885
G01 X33.1288 Y95.8971
G01 X33.0700 Y95.9000
G01 X19.1100 Y95.9000
G00 X19.1100 Y95.9000
G01 F60.00
G01 Z-1.8000
G01 F100.00
G01 X33.0700 Y95.9000
G01 X33.1288 Y95.8971
G01 X33.1871 Y95.8885
G01 X33.2442 Y95.8742
G01 X33.2996 Y95.8544
G01 X33.3529 Y95.8292
G01 X33.4034 Y95.7989
G01 X33.4507 Y95.7638
G01 X33.4943 Y95.7243
G01 X33.5338 Y95.6807
G01 X33.5689 Y95.6334
G01 X33.5992 Y95.5829
G01 X33.6244 Y95.5296
G01 X33.6442 Y95.4742
G01 X33.6585 Y95.4171
G01 X33.6671 Y95.3588
G01 X33.6700 Y95.3000
G01 X33.6700 Y50.2250
G00 Z2.0000
G00 X33.6700 Y45.2250
G01 F60.00
G01 Z-0.6000
G01 F100.00
G01 X33.6700 Y-0.0500
G01 X33.6671 Y-0.1088
G01 X33.6585 Y-0.1671
G01 X33.6442 Y-0.2242
G01 X33.6244 Y-0.2796
G01 X33.5992 Y-0.3329
G01 X33.5689 Y-0.3834
G01 X33.5338 Y-0.4307
G01 X33.4943 Y-0.4743
G01 X33.4507 Y-0.5138
G01 X33.4034 Y-0.5489
G01 X33.3529 Y-0.5792
G01 X33.2996 Y-0.6044
G01 X33.2442 Y-0.6242
G01 X33.1871 Y-0.6385
G01 X33.1288 Y-0.6471
G01 X33.0700 Y-0.6500
G01 X19.1100 Y-0.6500
G00 X19.1100 Y-0.6500
G01 F60.00
G01 Z-1.2000
G01 F100.00
G01 X33.0700 Y-0.6500
G01 X33.1288 Y-0.6471
G01 X33.1871 Y-0.6385
G01 X33.2442 Y-0.6242
G01 X33.2996 Y-0.6044
G01 X33.3529 Y-0.5792
G01 X33.4034 Y-0.5489
G01 X33.4507 Y-0.5138
G01 X33.4943 Y-0.4743
G01 X33.5338 Y-0.4307
G01 X33.5689 Y-0.3834
G01 X33.5992 Y-0.3329
G01 X33.6244 Y-0.2796
G01 X33.6442 Y-0.2242
G01 X33.6585 Y-0.1671
G01 X33.6671 Y-0.1088
G01 X33.6700 Y-0.0500
G01 X33.6700 Y45.2250
G00 X33.6700 Y45.2250
G01 F60.00
G01 Z-1.8000
G01 F100.00
G01 X33.6700 Y-0.0500
G01 X33.6671 Y-0.1088
G01 X33.6585 Y-0.1671
G01 X33.6442 Y-0.2242
G01 X33.6244 Y-0.2796
G01 X33.5992 Y-0.3329
G01 X33.5689 Y-0.3834
G01 X33.5338 Y-0.4307
G01 X33.4943 Y-0.4743
G01 X33.4507 Y-0.5138
G01 X33.4034 Y-0.5489
G01 X33.3529 Y-0.5792
G01 X33.2996 Y-0.6044
G01 X33.2442 Y-0.6242
G01 X33.1871 Y-0.6385
G01 X33.1288 Y-0.6471
G01 X33.0700 Y-0.6500
G01 X19.1100 Y-0.6500
G00 Z2.0000
M05
G00 Z2.0000
G00 Z20.00


