(G-CODE GENERATED BY FLATCAM v8.994 - www.flatcam.org - Version Date: 2020/11/7)

(Name: drill_cnc)
(Type: G-code from Geometry)
(Units: MM)

(Created on Wednesday, 02 December 2020 at 20:37)

(This preprocessor is the default preprocessor used by FlatCAM.)
(It is made to work with MACH3 compatible motion controllers.)


(TOOLS DIAMETER: )
(Tool: 1 -> Dia: 0.762)
(Tool: 2 -> Dia: 0.8)
(Tool: 3 -> Dia: 0.9)
(Tool: 4 -> Dia: 1.52)

(FEEDRATE Z: )
(Tool: 1 -> Feedrate: 60.0)
(Tool: 2 -> Feedrate: 60.0)
(Tool: 3 -> Feedrate: 60.0)
(Tool: 4 -> Feedrate: 60.0)

(FEEDRATE RAPIDS: )
(Tool: 1 -> Feedrate Rapids: 150.0)
(Tool: 2 -> Feedrate Rapids: 150.0)
(Tool: 3 -> Feedrate Rapids: 150.0)
(Tool: 4 -> Feedrate Rapids: 150.0)

(Z_CUT: )
(Tool: 1 -> Z_Cut: -1.8)
(Tool: 2 -> Z_Cut: -1.8)
(Tool: 3 -> Z_Cut: -2.0)
(Tool: 4 -> Z_Cut: -2.0)

(Tools Offset: )
(Tool: 3 -> Offset Z: 0.0)
(Tool: 4 -> Offset Z: 0.0)

(Z_MOVE: )
(Tool: 1 -> Z_Move: 2)
(Tool: 2 -> Z_Move: 2)
(Tool: 3 -> Z_Move: 2)
(Tool: 4 -> Z_Move: 2)

(Z Toolchange: 20.0 mm)
(X,Y Toolchange: 0.0000, 0.0000 mm)
(Z Start: None mm)
(Z End: 20.0 mm)
(X,Y End: None mm)
(Steps per circle: 64)
(Preprocessor Excellon: default)

(X range:    2.8830 ...   31.9340  mm)
(Y range:    3.5880 ...   91.9710  mm)

(Spindle Speed: 12000 RPM)
G21
G90
G94

G01 F60.00

M5
G00 Z20.0000
T3
G00 X0.0000 Y0.0000                
M6
(MSG, Change to Tool Dia = 0.9000 ||| Total drills for tool T3 = 12)
M0
G00 Z20.0000

G01 F60.00
M03 S12000
G00 X19.0500 Y19.0500
G01 Z-2.0000
G01 Z0
G00 Z2.0000
G00 X19.0500 Y16.5500
G01 Z-2.0000
G01 Z0
G00 Z2.0000
G00 X19.0500 Y14.0500
G01 Z-2.0000
G01 Z0
G00 Z2.0000
G00 X19.0500 Y11.5500
G01 Z-2.0000
G01 Z0
G00 Z2.0000
G00 X13.9700 Y83.9300
G01 Z-2.0000
G01 Z0
G00 Z2.0000
G00 X8.8900 Y83.9300
G01 Z-2.0000
G01 Z0
G00 Z2.0000
G00 X8.9790 Y91.2110
G01 Z-2.0000
G01 Z0
G00 Z2.0000
G00 X14.0590 Y91.2110
G01 Z-2.0000
G01 Z0
G00 Z2.0000
G00 X19.1390 Y91.2110
G01 Z-2.0000
G01 Z0
G00 Z2.0000
G00 X24.2190 Y91.2110
G01 Z-2.0000
G01 Z0
G00 Z2.0000
G00 X24.1300 Y83.9300
G01 Z-2.0000
G01 Z0
G00 Z2.0000
G00 X19.0500 Y83.9300
G01 Z-2.0000
G01 Z0
G00 Z2.0000
M05
G00 Z20.00


