(G-CODE GENERATED BY FLATCAM v8.994 - www.flatcam.org - Version Date: 2020/11/7)

(Name: drill_cnc)
(Type: G-code from Geometry)
(Units: MM)

(Created on Wednesday, 02 December 2020 at 20:36)

(This preprocessor is the default preprocessor used by FlatCAM.)
(It is made to work with MACH3 compatible motion controllers.)


(TOOLS DIAMETER: )
(Tool: 1 -> Dia: 0.762)
(Tool: 2 -> Dia: 0.8)
(Tool: 3 -> Dia: 0.9)
(Tool: 4 -> Dia: 1.52)

(FEEDRATE Z: )
(Tool: 1 -> Feedrate: 60.0)
(Tool: 2 -> Feedrate: 60.0)
(Tool: 3 -> Feedrate: 60.0)
(Tool: 4 -> Feedrate: 60.0)

(FEEDRATE RAPIDS: )
(Tool: 1 -> Feedrate Rapids: 150.0)
(Tool: 2 -> Feedrate Rapids: 150.0)
(Tool: 3 -> Feedrate Rapids: 150.0)
(Tool: 4 -> Feedrate Rapids: 150.0)

(Z_CUT: )
(Tool: 1 -> Z_Cut: -2.0)
(Tool: 2 -> Z_Cut: -2.0)
(Tool: 3 -> Z_Cut: -1.8)
(Tool: 4 -> Z_Cut: -1.8)

(Tools Offset: )
(Tool: 1 -> Offset Z: 0.0)
(Tool: 2 -> Offset Z: 0.0)

(Z_MOVE: )
(Tool: 1 -> Z_Move: 2)
(Tool: 2 -> Z_Move: 2)
(Tool: 3 -> Z_Move: 2)
(Tool: 4 -> Z_Move: 2)

(Z Toolchange: 20.0 mm)
(X,Y Toolchange: 0.0000, 0.0000 mm)
(Z Start: None mm)
(Z End: 20.0 mm)
(X,Y End: None mm)
(Steps per circle: 64)
(Preprocessor Excellon: default)

(X range:    2.8830 ...   31.9340  mm)
(Y range:    3.5880 ...   91.9710  mm)

(Spindle Speed: 12000 RPM)
G21
G90
G94

G01 F60.00

M5
G00 Z20.0000
T1
G00 X0.0000 Y0.0000                
M6
(MSG, Change to Tool Dia = 0.7620 ||| Total drills for tool T1 = 57)
M0
G00 Z20.0000

G01 F60.00
M03 S12000
G00 X24.2190 Y62.6360
G01 Z-2.0000
G01 Z0
G00 Z2.0000
G00 X21.6790 Y62.6360
G01 Z-2.0000
G01 Z0
G00 Z2.0000
G00 X19.1390 Y62.6360
G01 Z-2.0000
G01 Z0
G00 Z2.0000
G00 X16.5990 Y62.6360
G01 Z-2.0000
G01 Z0
G00 Z2.0000
G00 X14.0590 Y62.6360
G01 Z-2.0000
G01 Z0
G00 Z2.0000
G00 X11.5190 Y62.6360
G01 Z-2.0000
G01 Z0
G00 Z2.0000
G00 X8.9790 Y62.6360
G01 Z-2.0000
G01 Z0
G00 Z2.0000
G00 X3.2640 Y71.5260
G01 Z-2.0000
G01 Z0
G00 Z2.0000
G00 X3.2640 Y76.6060
G01 Z-2.0000
G01 Z0
G00 Z2.0000
G00 X29.9340 Y76.6060
G01 Z-2.0000
G01 Z0
G00 Z2.0000
G00 X29.9340 Y71.5260
G01 Z-2.0000
G01 Z0
G00 Z2.0000
G00 X29.2990 Y57.5560
G01 Z-2.0000
G01 Z0
G00 Z2.0000
G00 X29.2990 Y55.0160
G01 Z-2.0000
G01 Z0
G00 Z2.0000
G00 X29.2990 Y52.4760
G01 Z-2.0000
G01 Z0
G00 Z2.0000
G00 X29.2990 Y49.9360
G01 Z-2.0000
G01 Z0
G00 Z2.0000
G00 X31.5340 Y44.4500
G01 Z-2.0000
G01 Z0
G00 Z2.0000
G00 X24.7650 Y44.4500
G01 Z-2.0000
G01 Z0
G00 Z2.0000
G00 X22.8600 Y42.5450
G01 Z-2.0000
G01 Z0
G00 Z2.0000
G00 X23.6730 Y39.5480
G01 Z-2.0000
G01 Z0
G00 Z2.0000
G00 X23.6730 Y37.0080
G01 Z-2.0000
G01 Z0
G00 Z2.0000
G00 X23.6730 Y34.4680
G01 Z-2.0000
G01 Z0
G00 Z2.0000
G00 X23.6730 Y31.9280
G01 Z-2.0000
G01 Z0
G00 Z2.0000
G00 X23.6730 Y29.3880
G01 Z-2.0000
G01 Z0
G00 Z2.0000
G00 X23.6730 Y26.8480
G01 Z-2.0000
G01 Z0
G00 Z2.0000
G00 X23.6730 Y24.3080
G01 Z-2.0000
G01 Z0
G00 Z2.0000
G00 X23.6730 Y21.7680
G01 Z-2.0000
G01 Z0
G00 Z2.0000
G00 X23.6730 Y19.2280
G01 Z-2.0000
G01 Z0
G00 Z2.0000
G00 X23.6730 Y16.6880
G01 Z-2.0000
G01 Z0
G00 Z2.0000
G00 X23.6730 Y14.1480
G01 Z-2.0000
G01 Z0
G00 Z2.0000
G00 X23.6730 Y11.6080
G01 Z-2.0000
G01 Z0
G00 Z2.0000
G00 X23.6730 Y9.0680
G01 Z-2.0000
G01 Z0
G00 Z2.0000
G00 X23.6730 Y6.5280
G01 Z-2.0000
G01 Z0
G00 Z2.0000
G00 X23.6730 Y3.9880
G01 Z-2.0000
G01 Z0
G00 Z2.0000
G00 X8.4330 Y3.9880
G01 Z-2.0000
G01 Z0
G00 Z2.0000
G00 X8.4330 Y6.5280
G01 Z-2.0000
G01 Z0
G00 Z2.0000
G00 X8.4330 Y9.0680
G01 Z-2.0000
G01 Z0
G00 Z2.0000
G00 X8.4330 Y11.6080
G01 Z-2.0000
G01 Z0
G00 Z2.0000
G00 X8.4330 Y14.1480
G01 Z-2.0000
G01 Z0
G00 Z2.0000
G00 X8.4330 Y16.6880
G01 Z-2.0000
G01 Z0
G00 Z2.0000
G00 X8.4330 Y19.2280
G01 Z-2.0000
G01 Z0
G00 Z2.0000
G00 X8.4330 Y21.7680
G01 Z-2.0000
G01 Z0
G00 Z2.0000
G00 X8.4330 Y24.3080
G01 Z-2.0000
G01 Z0
G00 Z2.0000
G00 X8.4330 Y26.8480
G01 Z-2.0000
G01 Z0
G00 Z2.0000
G00 X8.4330 Y29.3880
G01 Z-2.0000
G01 Z0
G00 Z2.0000
G00 X8.4330 Y31.9280
G01 Z-2.0000
G01 Z0
G00 Z2.0000
G00 X8.4330 Y34.4680
G01 Z-2.0000
G01 Z0
G00 Z2.0000
G00 X8.4330 Y37.0080
G01 Z-2.0000
G01 Z0
G00 Z2.0000
G00 X8.4330 Y39.5480
G01 Z-2.0000
G01 Z0
G00 Z2.0000
G00 X11.4300 Y42.5450
G01 Z-2.0000
G01 Z0
G00 Z2.0000
G00 X11.4300 Y46.3550
G01 Z-2.0000
G01 Z0
G00 Z2.0000
G00 X20.3200 Y46.3550
G01 Z-2.0000
G01 Z0
G00 Z2.0000
G00 X22.8600 Y50.1650
G01 Z-2.0000
G01 Z0
G00 Z2.0000
G00 X26.7590 Y49.9360
G01 Z-2.0000
G01 Z0
G00 Z2.0000
G00 X26.7590 Y52.4760
G01 Z-2.0000
G01 Z0
G00 Z2.0000
G00 X26.7590 Y55.0160
G01 Z-2.0000
G01 Z0
G00 Z2.0000
G00 X22.8600 Y55.2450
G01 Z-2.0000
G01 Z0
G00 Z2.0000
G00 X26.7590 Y57.5560
G01 Z-2.0000
G01 Z0
G00 Z2.0000
M05
G00 Z20.00


