(G-CODE GENERATED BY FLATCAM v8.994 - www.flatcam.org - Version Date: 2020/11/7)

(Name: copper_10_cnc)
(Type: G-code from Geometry)
(Units: MM)

(Created on Saturday, 21 November 2020 at 18:08)

(This preprocessor is the default preprocessor used by FlatCAM.)
(It is made to work with MACH3 compatible motion controllers.)

(TOOL DIAMETER: 1.0 mm)
(Feedrate_XY: 100.0 mm/min)
(Feedrate_Z: 60.0 mm/min)
(Feedrate rapids 150.0 mm/min)

(Z_Cut: -0.15 mm)
(Z_Move: 2.0 mm)
(Z Start: None mm)
(Z End: 20.0 mm)
(X,Y End: None mm)
(Steps per circle: 64)
(Preprocessor Geometry: default)

(X range:    1.6995 ...  108.2189  mm)
(Y range:    9.0395 ...   93.2114  mm)

(Spindle Speed: 12000.0 RPM)
G21
G90
G94

G01 F100.00

M5
G00 Z20.0000
G00 X0.0000 Y0.0000
T2
M6    
(MSG, Change to Tool Dia = 1.0000)
M0
G00 Z20.0000

M03 S12000.0
G01 F100.00
G00 X6.2800 Y14.1195
G01 F60.00
G01 Z-0.1500
G01 F100.00
G01 X6.2806 Y14.0955
G01 X6.2824 Y14.0710
G01 X6.2854 Y14.0466
G01 X6.2896 Y14.0225
G01 X6.2950 Y13.9985
G01 X6.3015 Y13.9749
G01 X6.3092 Y13.9516
G01 X6.3181 Y13.9287
G01 X6.3280 Y13.9062
G01 X6.3390 Y13.8843
G01 X6.3511 Y13.8629
G01 X6.3643 Y13.8422
G01 X6.3784 Y13.8222
G01 X6.3935 Y13.8028
G01 X6.4095 Y13.7842
G01 X6.4264 Y13.7664
G01 X6.4442 Y13.7495
G01 X6.4628 Y13.7335
G01 X6.4822 Y13.7184
G01 X6.5022 Y13.7043
G01 X6.5229 Y13.6911
G01 X6.5443 Y13.6790
G01 X6.5662 Y13.6680
G01 X6.5887 Y13.6581
G01 X6.6116 Y13.6492
G01 X6.6349 Y13.6415
G01 X6.6585 Y13.6350
G01 X6.6825 Y13.6296
G01 X6.7066 Y13.6254
G01 X6.7310 Y13.6224
G01 X6.7555 Y13.6206
G01 X6.7795 Y13.6200
G01 X6.7795 Y12.1200
G01 X6.7801 Y12.0955
G01 X6.7849 Y11.9974
G01 X6.7867 Y11.9729
G01 X6.7897 Y11.9486
G01 X6.8041 Y11.8514
G01 X6.8083 Y11.8273
G01 X6.8137 Y11.8033
G01 X6.8376 Y11.7081
G01 X6.8441 Y11.6844
G01 X6.8518 Y11.6611
G01 X6.8849 Y11.5687
G01 X6.8937 Y11.5458
G01 X6.9037 Y11.5233
G01 X6.9456 Y11.4346
G01 X6.9567 Y11.4127
G01 X6.9688 Y11.3913
G01 X7.0193 Y11.3071
G01 X7.0324 Y11.2864
G01 X7.0393 Y11.2762
G01 X7.1050 Y11.1874
G01 X7.1201 Y11.1681
G01 X7.1361 Y11.1495
G01 X7.2021 Y11.0768
G01 X7.2190 Y11.0590
G01 X8.7990 Y9.4790
G01 X8.8168 Y9.4621
G01 X8.8895 Y9.3961
G01 X8.9081 Y9.3801
G01 X8.9177 Y9.3724
G01 X9.0063 Y9.3065
G01 X9.0264 Y9.2924
G01 X9.0471 Y9.2793
G01 X9.1313 Y9.2288
G01 X9.1527 Y9.2167
G01 X9.1746 Y9.2056
G01 X9.2633 Y9.1637
G01 X9.2858 Y9.1537
G01 X9.3087 Y9.1449
G01 X9.4011 Y9.1118
G01 X9.4244 Y9.1041
G01 X9.4481 Y9.0976
G01 X9.5553 Y9.0709
G01 X9.5673 Y9.0683
G01 X9.5914 Y9.0641
G01 X9.6886 Y9.0497
G01 X9.7129 Y9.0467
G01 X9.7374 Y9.0449
G01 X9.8355 Y9.0401
G01 X9.8600 Y9.0395
G01 X28.2900 Y9.0395
G01 X28.3145 Y9.0401
G01 X28.4126 Y9.0449
G01 X28.4371 Y9.0467
G01 X28.4614 Y9.0497
G01 X28.5586 Y9.0641
G01 X28.5827 Y9.0683
G01 X28.5947 Y9.0709
G01 X28.7138 Y9.1007
G01 X28.7373 Y9.1078
G01 X28.7489 Y9.1118
G01 X28.8413 Y9.1449
G01 X28.8642 Y9.1537
G01 X28.8867 Y9.1637
G01 X28.9754 Y9.2056
G01 X28.9973 Y9.2167
G01 X29.0187 Y9.2288
G01 X29.1029 Y9.2793
G01 X29.1236 Y9.2924
G01 X29.1437 Y9.3065
G01 X29.2226 Y9.3650
G01 X29.2419 Y9.3801
G01 X29.2513 Y9.3880
G01 X29.3332 Y9.4621
G01 X29.3510 Y9.4790
G01 X30.9310 Y11.0590
G01 X30.9479 Y11.0768
G01 X31.0139 Y11.1495
G01 X31.0299 Y11.1681
G01 X31.0450 Y11.1874
G01 X31.1035 Y11.2663
G01 X31.1176 Y11.2864
G01 X31.1307 Y11.3071
G01 X31.1812 Y11.3913
G01 X31.1933 Y11.4127
G01 X31.2044 Y11.4346
G01 X31.2463 Y11.5233
G01 X31.2563 Y11.5458
G01 X31.2651 Y11.5687
G01 X31.2982 Y11.6611
G01 X31.3059 Y11.6844
G01 X31.3124 Y11.7081
G01 X31.3363 Y11.8033
G01 X31.3417 Y11.8273
G01 X31.3459 Y11.8514
G01 X31.3603 Y11.9486
G01 X31.3633 Y11.9729
G01 X31.3651 Y11.9974
G01 X31.3699 Y12.0955
G01 X31.3705 Y12.1200
G01 X31.3705 Y13.6200
G01 X31.3945 Y13.6206
G01 X31.4190 Y13.6224
G01 X31.4312 Y13.6238
G01 X31.4555 Y13.6274
G01 X31.4796 Y13.6321
G01 X31.5034 Y13.6381
G01 X31.5268 Y13.6452
G01 X31.5384 Y13.6492
G01 X31.5613 Y13.6581
G01 X31.5838 Y13.6680
G01 X31.6057 Y13.6790
G01 X31.6164 Y13.6850
G01 X31.6375 Y13.6976
G01 X31.6579 Y13.7112
G01 X31.6678 Y13.7184
G01 X31.6872 Y13.7335
G01 X31.7058 Y13.7495
G01 X31.7236 Y13.7664
G01 X31.7321 Y13.7752
G01 X31.7486 Y13.7934
G01 X31.7565 Y13.8028
G01 X31.7716 Y13.8222
G01 X31.7857 Y13.8422
G01 X31.7989 Y13.8629
G01 X31.8110 Y13.8843
G01 X31.8220 Y13.9062
G01 X31.8271 Y13.9174
G01 X31.8365 Y13.9401
G01 X31.8408 Y13.9516
G01 X31.8485 Y13.9749
G01 X31.8519 Y13.9866
G01 X31.8579 Y14.0104
G01 X31.8626 Y14.0345
G01 X31.8662 Y14.0588
G01 X31.8686 Y14.0832
G01 X31.8698 Y14.1077
G01 X31.8700 Y14.1200
G01 X31.8700 Y17.1200
G01 X31.8694 Y17.1445
G01 X31.8676 Y17.1690
G01 X31.8646 Y17.1934
G01 X31.8604 Y17.2175
G01 X31.8550 Y17.2415
G01 X31.8485 Y17.2651
G01 X31.8408 Y17.2884
G01 X31.8319 Y17.3113
G01 X31.8271 Y17.3226
G01 X31.8166 Y17.3448
G01 X31.8050 Y17.3664
G01 X31.7924 Y17.3875
G01 X31.7857 Y17.3978
G01 X31.7716 Y17.4178
G01 X31.7565 Y17.4372
G01 X31.7405 Y17.4558
G01 X31.7236 Y17.4736
G01 X31.7148 Y17.4821
G01 X31.6966 Y17.4986
G01 X31.6776 Y17.5142
G01 X31.6579 Y17.5288
G01 X31.6375 Y17.5424
G01 X31.6164 Y17.5550
G01 X31.5948 Y17.5666
G01 X31.5726 Y17.5771
G01 X31.5499 Y17.5865
G01 X31.5268 Y17.5948
G01 X31.5034 Y17.6019
G01 X31.4796 Y17.6079
G01 X31.4555 Y17.6126
G01 X31.4434 Y17.6146
G01 X31.4190 Y17.6176
G01 X31.3945 Y17.6194
G01 X31.3700 Y17.6200
G01 X28.3700 Y17.6200
G01 X28.3455 Y17.6194
G01 X28.3210 Y17.6176
G01 X28.2966 Y17.6146
G01 X28.2845 Y17.6126
G01 X28.2604 Y17.6079
G01 X28.2485 Y17.6050
G01 X28.2249 Y17.5985
G01 X28.2016 Y17.5908
G01 X28.1787 Y17.5819
G01 X28.1674 Y17.5771
G01 X28.1562 Y17.5720
G01 X28.1343 Y17.5610
G01 X28.1129 Y17.5489
G01 X28.0922 Y17.5357
G01 X28.0722 Y17.5216
G01 X28.0624 Y17.5142
G01 X28.0434 Y17.4986
G01 X28.0252 Y17.4821
G01 X28.0079 Y17.4648
G01 X27.9914 Y17.4466
G01 X27.9835 Y17.4372
G01 X27.9684 Y17.4178
G01 X27.9543 Y17.3978
G01 X27.9476 Y17.3875
G01 X27.9350 Y17.3664
G01 X27.9234 Y17.3448
G01 X27.9129 Y17.3226
G01 X27.9035 Y17.2999
G01 X27.8952 Y17.2768
G01 X27.8915 Y17.2651
G01 X27.8881 Y17.2534
G01 X27.8821 Y17.2296
G01 X27.8774 Y17.2055
G01 X27.8738 Y17.1812
G01 X27.8714 Y17.1568
G01 X27.8702 Y17.1323
G01 X27.8700 Y17.1200
G01 X27.8700 Y14.1200
G01 X27.8706 Y14.0955
G01 X27.8724 Y14.0710
G01 X27.8754 Y14.0466
G01 X27.8796 Y14.0225
G01 X27.8850 Y13.9985
G01 X27.8915 Y13.9749
G01 X27.8992 Y13.9516
G01 X27.9081 Y13.9287
G01 X27.9180 Y13.9062
G01 X27.9290 Y13.8843
G01 X27.9411 Y13.8629
G01 X27.9543 Y13.8422
G01 X27.9684 Y13.8222
G01 X27.9835 Y13.8028
G01 X27.9995 Y13.7842
G01 X28.0164 Y13.7664
G01 X28.0342 Y13.7495
G01 X28.0528 Y13.7335
G01 X28.0722 Y13.7184
G01 X28.0922 Y13.7043
G01 X28.1129 Y13.6911
G01 X28.1343 Y13.6790
G01 X28.1562 Y13.6680
G01 X28.1787 Y13.6581
G01 X28.2016 Y13.6492
G01 X28.2249 Y13.6415
G01 X28.2485 Y13.6350
G01 X28.2725 Y13.6296
G01 X28.2966 Y13.6254
G01 X28.3210 Y13.6224
G01 X28.3455 Y13.6206
G01 X28.3695 Y13.6200
G01 X28.3695 Y12.7415
G01 X27.6685 Y12.0405
G01 X10.4815 Y12.0405
G01 X9.7805 Y12.7415
G01 X9.7805 Y13.6200
G01 X9.8045 Y13.6206
G01 X9.8290 Y13.6224
G01 X9.8534 Y13.6254
G01 X9.8775 Y13.6296
G01 X9.9015 Y13.6350
G01 X9.9251 Y13.6415
G01 X9.9484 Y13.6492
G01 X9.9713 Y13.6581
G01 X9.9938 Y13.6680
G01 X10.0157 Y13.6790
G01 X10.0371 Y13.6911
G01 X10.0578 Y13.7043
G01 X10.0778 Y13.7184
G01 X10.0972 Y13.7335
G01 X10.1158 Y13.7495
G01 X10.1248 Y13.7579
G01 X10.1421 Y13.7752
G01 X10.1586 Y13.7934
G01 X10.1742 Y13.8124
G01 X10.1888 Y13.8321
G01 X10.2024 Y13.8525
G01 X10.2089 Y13.8629
G01 X10.2210 Y13.8843
G01 X10.2320 Y13.9062
G01 X10.2419 Y13.9287
G01 X10.2508 Y13.9516
G01 X10.2585 Y13.9749
G01 X10.2650 Y13.9985
G01 X10.2704 Y14.0225
G01 X10.2746 Y14.0466
G01 X10.2776 Y14.0710
G01 X10.2786 Y14.0832
G01 X10.2798 Y14.1077
G01 X10.2800 Y14.1200
G01 X10.2800 Y17.1200
G01 X10.2794 Y17.1445
G01 X10.2776 Y17.1690
G01 X10.2746 Y17.1934
G01 X10.2704 Y17.2175
G01 X10.2650 Y17.2415
G01 X10.2585 Y17.2651
G01 X10.2508 Y17.2884
G01 X10.2419 Y17.3113
G01 X10.2371 Y17.3226
G01 X10.2266 Y17.3448
G01 X10.2150 Y17.3664
G01 X10.2024 Y17.3875
G01 X10.1957 Y17.3978
G01 X10.1816 Y17.4178
G01 X10.1665 Y17.4372
G01 X10.1505 Y17.4558
G01 X10.1336 Y17.4736
G01 X10.1158 Y17.4905
G01 X10.1066 Y17.4986
G01 X10.0876 Y17.5142
G01 X10.0679 Y17.5288
G01 X10.0475 Y17.5424
G01 X10.0264 Y17.5550
G01 X10.0048 Y17.5666
G01 X9.9826 Y17.5771
G01 X9.9599 Y17.5865
G01 X9.9368 Y17.5948
G01 X9.9134 Y17.6019
G01 X9.8896 Y17.6079
G01 X9.8655 Y17.6126
G01 X9.8534 Y17.6146
G01 X9.8290 Y17.6176
G01 X9.8045 Y17.6194
G01 X9.7800 Y17.6200
G01 X6.7800 Y17.6200
G01 X6.7677 Y17.6198
G01 X6.7432 Y17.6186
G01 X6.7188 Y17.6162
G01 X6.6945 Y17.6126
G01 X6.6704 Y17.6079
G01 X6.6585 Y17.6050
G01 X6.6349 Y17.5985
G01 X6.6116 Y17.5908
G01 X6.5887 Y17.5819
G01 X6.5662 Y17.5720
G01 X6.5443 Y17.5610
G01 X6.5229 Y17.5489
G01 X6.5022 Y17.5357
G01 X6.4822 Y17.5216
G01 X6.4724 Y17.5142
G01 X6.4534 Y17.4986
G01 X6.4352 Y17.4821
G01 X6.4179 Y17.4648
G01 X6.4014 Y17.4466
G01 X6.3858 Y17.4276
G01 X6.3712 Y17.4079
G01 X6.3576 Y17.3875
G01 X6.3511 Y17.3771
G01 X6.3390 Y17.3557
G01 X6.3280 Y17.3338
G01 X6.3181 Y17.3113
G01 X6.3092 Y17.2884
G01 X6.3015 Y17.2651
G01 X6.2950 Y17.2415
G01 X6.2896 Y17.2175
G01 X6.2854 Y17.1934
G01 X6.2824 Y17.1690
G01 X6.2806 Y17.1445
G01 X6.2800 Y17.1205
G01 X5.4015 Y17.1205
G01 X4.7005 Y17.8215
G01 X4.7005 Y42.4005
G01 X9.4395 Y47.1395
G01 X13.2585 Y47.1395
G01 X19.4590 Y40.9390
G01 X19.4768 Y40.9221
G01 X19.5495 Y40.8561
G01 X19.5681 Y40.8401
G01 X19.5874 Y40.8250
G01 X19.6663 Y40.7665
G01 X19.6864 Y40.7524
G01 X19.7071 Y40.7393
G01 X19.7913 Y40.6888
G01 X19.8127 Y40.6767
G01 X19.8346 Y40.6656
G01 X19.9233 Y40.6237
G01 X19.9458 Y40.6137
G01 X19.9687 Y40.6049
G01 X20.0611 Y40.5718
G01 X20.0844 Y40.5641
G01 X20.1081 Y40.5576
G01 X20.2033 Y40.5337
G01 X20.2273 Y40.5283
G01 X20.2514 Y40.5241
G01 X20.3486 Y40.5097
G01 X20.3607 Y40.5081
G01 X20.3852 Y40.5057
G01 X20.4955 Y40.5001
G01 X20.5200 Y40.4995
G01 X22.1635 Y40.4995
G01 X22.1752 Y40.4879
G01 X22.1934 Y40.4714
G01 X22.2124 Y40.4558
G01 X22.2321 Y40.4412
G01 X22.2525 Y40.4276
G01 X22.2736 Y40.4150
G01 X22.2952 Y40.4034
G01 X22.3062 Y40.3980
G01 X22.3174 Y40.3929
G01 X22.3401 Y40.3835
G01 X22.3632 Y40.3752
G01 X22.3866 Y40.3681
G01 X22.4104 Y40.3621
G01 X22.4345 Y40.3574
G01 X22.4588 Y40.3538
G01 X22.4832 Y40.3514
G01 X22.4955 Y40.3506
G01 X22.5200 Y40.3500
G01 X24.5200 Y40.3500
G01 X24.5445 Y40.3506
G01 X24.5568 Y40.3514
G01 X24.5690 Y40.3524
G01 X24.5934 Y40.3554
G01 X24.6175 Y40.3596
G01 X24.6296 Y40.3621
G01 X24.6534 Y40.3681
G01 X24.6768 Y40.3752
G01 X24.6999 Y40.3835
G01 X24.7226 Y40.3929
G01 X24.7448 Y40.4034
G01 X24.7557 Y40.4090
G01 X24.7664 Y40.4150
G01 X24.7875 Y40.4276
G01 X24.8079 Y40.4412
G01 X24.8178 Y40.4484
G01 X24.8372 Y40.4635
G01 X24.8466 Y40.4714
G01 X24.8558 Y40.4795
G01 X24.8736 Y40.4964
G01 X24.8905 Y40.5142
G01 X24.8986 Y40.5234
G01 X24.9142 Y40.5424
G01 X24.9288 Y40.5621
G01 X24.9357 Y40.5722
G01 X24.9489 Y40.5929
G01 X24.9550 Y40.6036
G01 X24.9666 Y40.6252
G01 X24.9720 Y40.6362
G01 X24.9819 Y40.6587
G01 X24.9908 Y40.6816
G01 X24.9985 Y40.7049
G01 X25.0019 Y40.7166
G01 X25.0079 Y40.7404
G01 X25.0126 Y40.7645
G01 X25.0146 Y40.7766
G01 X25.0162 Y40.7888
G01 X25.0186 Y40.8132
G01 X25.0198 Y40.8377
G01 X25.0200 Y40.8500
G01 X25.0200 Y41.9782
G01 X25.0205 Y42.0000
G01 X25.0200 Y42.0218
G01 X25.0200 Y43.1500
G01 X25.0194 Y43.1745
G01 X25.0176 Y43.1990
G01 X25.0146 Y43.2234
G01 X25.0104 Y43.2475
G01 X25.0050 Y43.2715
G01 X24.9985 Y43.2951
G01 X24.9908 Y43.3184
G01 X24.9819 Y43.3413
G01 X24.9771 Y43.3526
G01 X24.9666 Y43.3748
G01 X24.9550 Y43.3964
G01 X24.9424 Y43.4175
G01 X24.9288 Y43.4379
G01 X24.9142 Y43.4576
G01 X24.8986 Y43.4766
G01 X24.8821 Y43.4948
G01 X24.8648 Y43.5121
G01 X24.8466 Y43.5286
G01 X24.8372 Y43.5365
G01 X24.8178 Y43.5516
G01 X24.7978 Y43.5657
G01 X24.7875 Y43.5724
G01 X24.7664 Y43.5850
G01 X24.7448 Y43.5966
G01 X24.7226 Y43.6071
G01 X24.7113 Y43.6119
G01 X24.6884 Y43.6208
G01 X24.6651 Y43.6285
G01 X24.6534 Y43.6319
G01 X24.6296 Y43.6379
G01 X24.6055 Y43.6426
G01 X24.5934 Y43.6446
G01 X24.5690 Y43.6476
G01 X24.5445 Y43.6494
G01 X24.5200 Y43.6500
G01 X22.5200 Y43.6500
G01 X22.4955 Y43.6494
G01 X22.4710 Y43.6476
G01 X22.4466 Y43.6446
G01 X22.4225 Y43.6404
G01 X22.3985 Y43.6350
G01 X22.3749 Y43.6285
G01 X22.3516 Y43.6208
G01 X22.3287 Y43.6119
G01 X22.3062 Y43.6020
G01 X22.2843 Y43.5910
G01 X22.2629 Y43.5789
G01 X22.2422 Y43.5657
G01 X22.2222 Y43.5516
G01 X22.2028 Y43.5365
G01 X22.1842 Y43.5205
G01 X22.1635 Y43.5005
G01 X21.1415 Y43.5005
G01 X14.9322 Y49.7096
G01 X14.8505 Y49.7839
G01 X14.8319 Y49.7999
G01 X14.8126 Y49.8150
G01 X14.7337 Y49.8735
G01 X14.7136 Y49.8876
G01 X14.6929 Y49.9007
G01 X14.6087 Y49.9512
G01 X14.5873 Y49.9633
G01 X14.5654 Y49.9744
G01 X14.4767 Y50.0163
G01 X14.4542 Y50.0263
G01 X14.4313 Y50.0351
G01 X14.3389 Y50.0682
G01 X14.3156 Y50.0759
G01 X14.2919 Y50.0824
G01 X14.1847 Y50.1091
G01 X14.1607 Y50.1139
G01 X14.1486 Y50.1159
G01 X14.0514 Y50.1303
G01 X14.0271 Y50.1333
G01 X14.0026 Y50.1351
G01 X13.9045 Y50.1399
G01 X13.8800 Y50.1405
G01 X8.8057 Y50.1403
G01 X8.6831 Y50.1343
G01 X8.6587 Y50.1319
G01 X8.6466 Y50.1303
G01 X8.5494 Y50.1159
G01 X8.5253 Y50.1117
G01 X8.5013 Y50.1063
G01 X8.4061 Y50.0824
G01 X8.3824 Y50.0759
G01 X8.3591 Y50.0682
G01 X8.2667 Y50.0351
G01 X8.2438 Y50.0263
G01 X8.2213 Y50.0163
G01 X8.1326 Y49.9744
G01 X8.1107 Y49.9633
G01 X8.0893 Y49.9512
G01 X8.0051 Y49.9007
G01 X7.9844 Y49.8876
G01 X7.9643 Y49.8735
G01 X7.8854 Y49.8150
G01 X7.8661 Y49.7999
G01 X7.8475 Y49.7839
G01 X7.7748 Y49.7179
G01 X7.7570 Y49.7010
G01 X2.1304 Y44.0742
G01 X2.0561 Y43.9925
G01 X2.0401 Y43.9739
G01 X2.0250 Y43.9546
G01 X1.9665 Y43.8757
G01 X1.9524 Y43.8556
G01 X1.9393 Y43.8349
G01 X1.8888 Y43.7507
G01 X1.8767 Y43.7293
G01 X1.8656 Y43.7074
G01 X1.8237 Y43.6187
G01 X1.8137 Y43.5962
G01 X1.8049 Y43.5733
G01 X1.7718 Y43.4809
G01 X1.7641 Y43.4576
G01 X1.7576 Y43.4339
G01 X1.7309 Y43.3267
G01 X1.7261 Y43.3027
G01 X1.7241 Y43.2906
G01 X1.7097 Y43.1934
G01 X1.7067 Y43.1691
G01 X1.7049 Y43.1446
G01 X1.7001 Y43.0465
G01 X1.6995 Y43.0220
G01 X1.6995 Y17.2000
G01 X1.7001 Y17.1755
G01 X1.7049 Y17.0774
G01 X1.7067 Y17.0529
G01 X1.7097 Y17.0286
G01 X1.7241 Y16.9314
G01 X1.7283 Y16.9073
G01 X1.7337 Y16.8833
G01 X1.7576 Y16.7881
G01 X1.7641 Y16.7644
G01 X1.7718 Y16.7411
G01 X1.8049 Y16.6487
G01 X1.8137 Y16.6258
G01 X1.8237 Y16.6033
G01 X1.8656 Y16.5146
G01 X1.8767 Y16.4927
G01 X1.8888 Y16.4713
G01 X1.9393 Y16.3871
G01 X1.9524 Y16.3664
G01 X1.9665 Y16.3463
G01 X2.0250 Y16.2674
G01 X2.0324 Y16.2577
G01 X2.0480 Y16.2387
G01 X2.1221 Y16.1568
G01 X2.1390 Y16.1390
G01 X3.7190 Y14.5590
G01 X3.7368 Y14.5421
G01 X3.8095 Y14.4761
G01 X3.8281 Y14.4601
G01 X3.8474 Y14.4450
G01 X3.9263 Y14.3865
G01 X3.9362 Y14.3793
G01 X3.9567 Y14.3657
G01 X4.0619 Y14.3026
G01 X4.0727 Y14.2967
G01 X4.0946 Y14.2856
G01 X4.1833 Y14.2437
G01 X4.2058 Y14.2337
G01 X4.2287 Y14.2249
G01 X4.3211 Y14.1918
G01 X4.3444 Y14.1841
G01 X4.3681 Y14.1776
G01 X4.4633 Y14.1537
G01 X4.4873 Y14.1483
G01 X4.5114 Y14.1441
G01 X4.6086 Y14.1297
G01 X4.6329 Y14.1267
G01 X4.6574 Y14.1249
G01 X4.7555 Y14.1201
G01 X4.7800 Y14.1195
G01 X6.2800 Y14.1195
G00 Z2.0000
G00 X13.2323 Y17.6143
G01 F60.00
G01 Z-0.1500
G01 F100.00
G01 X13.1762 Y17.6114
G01 X13.1518 Y17.6090
G01 X12.9819 Y17.5838
G01 X12.9578 Y17.5790
G01 X12.9459 Y17.5762
G01 X12.7912 Y17.5373
G01 X12.7794 Y17.5339
G01 X12.7561 Y17.5262
G01 X12.6175 Y17.4766
G01 X12.5946 Y17.4678
G01 X12.5722 Y17.4578
G01 X12.4281 Y17.3895
G01 X12.4065 Y17.3779
G01 X12.3959 Y17.3717
G01 X12.2696 Y17.2961
G01 X12.2489 Y17.2829
G01 X12.2288 Y17.2688
G01 X12.1106 Y17.1811
G01 X12.0912 Y17.1660
G01 X12.0726 Y17.1500
G01 X11.9636 Y17.0511
G01 X11.9458 Y17.0342
G01 X11.9289 Y17.0164
G01 X11.8219 Y16.8982
G01 X11.8140 Y16.8888
G01 X11.7989 Y16.8694
G01 X11.7112 Y16.7512
G01 X11.6971 Y16.7311
G01 X11.6839 Y16.7104
G01 X11.6083 Y16.5841
G01 X11.5962 Y16.5628
G01 X11.5851 Y16.5409
G01 X11.5222 Y16.4078
G01 X11.5122 Y16.3854
G01 X11.5034 Y16.3625
G01 X11.4538 Y16.2239
G01 X11.4461 Y16.2006
G01 X11.4396 Y16.1769
G01 X11.4038 Y16.0341
G01 X11.3984 Y16.0102
G01 X11.3942 Y15.9860
G01 X11.3726 Y15.8404
G01 X11.3696 Y15.8160
G01 X11.3678 Y15.7916
G01 X11.3606 Y15.6445
G01 X11.3600 Y15.6200
G01 X11.3606 Y15.5955
G01 X11.3686 Y15.4362
G01 X11.3696 Y15.4240
G01 X11.3726 Y15.3996
G01 X11.3942 Y15.2540
G01 X11.3984 Y15.2298
G01 X11.4038 Y15.2059
G01 X11.4396 Y15.0631
G01 X11.4461 Y15.0394
G01 X11.4538 Y15.0161
G01 X11.5034 Y14.8775
G01 X11.5122 Y14.8546
G01 X11.5222 Y14.8322
G01 X11.5851 Y14.6991
G01 X11.5962 Y14.6772
G01 X11.6083 Y14.6559
G01 X11.6839 Y14.5296
G01 X11.6971 Y14.5089
G01 X11.7112 Y14.4888
G01 X11.7989 Y14.3706
G01 X11.8140 Y14.3512
G01 X11.8300 Y14.3326
G01 X11.9289 Y14.2236
G01 X11.9458 Y14.2058
G01 X11.9636 Y14.1889
G01 X12.0726 Y14.0900
G01 X12.0912 Y14.0740
G01 X12.1106 Y14.0589
G01 X12.2288 Y13.9712
G01 X12.2489 Y13.9571
G01 X12.2696 Y13.9439
G01 X12.3959 Y13.8683
G01 X12.4172 Y13.8562
G01 X12.4391 Y13.8451
G01 X12.5722 Y13.7822
G01 X12.5946 Y13.7722
G01 X12.6175 Y13.7634
G01 X12.7561 Y13.7138
G01 X12.7794 Y13.7061
G01 X12.8031 Y13.6996
G01 X12.9459 Y13.6638
G01 X12.9698 Y13.6584
G01 X12.9940 Y13.6542
G01 X13.1396 Y13.6326
G01 X13.1640 Y13.6296
G01 X13.1884 Y13.6278
G01 X13.3355 Y13.6206
G01 X13.3600 Y13.6200
G01 X13.3845 Y13.6206
G01 X13.5438 Y13.6286
G01 X13.5560 Y13.6296
G01 X13.5804 Y13.6326
G01 X13.7260 Y13.6542
G01 X13.7502 Y13.6584
G01 X13.7741 Y13.6638
G01 X13.9169 Y13.6996
G01 X13.9406 Y13.7061
G01 X13.9639 Y13.7138
G01 X14.1025 Y13.7634
G01 X14.1254 Y13.7722
G01 X14.1478 Y13.7822
G01 X14.2809 Y13.8451
G01 X14.3028 Y13.8562
G01 X14.3241 Y13.8683
G01 X14.4504 Y13.9439
G01 X14.4711 Y13.9571
G01 X14.4912 Y13.9712
G01 X14.6094 Y14.0589
G01 X14.6288 Y14.0740
G01 X14.6474 Y14.0900
G01 X14.7564 Y14.1889
G01 X14.7742 Y14.2058
G01 X14.7911 Y14.2236
G01 X14.8900 Y14.3326
G01 X14.9060 Y14.3512
G01 X14.9211 Y14.3706
G01 X15.0088 Y14.4888
G01 X15.0229 Y14.5089
G01 X15.0361 Y14.5296
G01 X15.1117 Y14.6559
G01 X15.1238 Y14.6772
G01 X15.1349 Y14.6991
G01 X15.2029 Y14.8434
G01 X15.2123 Y14.8660
G01 X15.2166 Y14.8775
G01 X15.2662 Y15.0161
G01 X15.2739 Y15.0394
G01 X15.2804 Y15.0631
G01 X15.3190 Y15.2178
G01 X15.3216 Y15.2298
G01 X15.3258 Y15.2540
G01 X15.3490 Y15.4118
G01 X15.3514 Y15.4362
G01 X15.3543 Y15.4923
G01 X25.4115 Y25.5495
G01 X27.8010 Y25.5495
G01 X27.8205 Y25.5397
G01 X27.9270 Y25.4894
G01 X27.9494 Y25.4794
G01 X27.9723 Y25.4706
G01 X28.0832 Y25.4309
G01 X28.1065 Y25.4232
G01 X28.1302 Y25.4167
G01 X28.2444 Y25.3880
G01 X28.2683 Y25.3827
G01 X28.2925 Y25.3785
G01 X28.4090 Y25.3612
G01 X28.4334 Y25.3582
G01 X28.4578 Y25.3564
G01 X28.5755 Y25.3506
G01 X28.6000 Y25.3500
G01 X28.6245 Y25.3506
G01 X28.7422 Y25.3564
G01 X28.7666 Y25.3582
G01 X28.7910 Y25.3612
G01 X28.9075 Y25.3785
G01 X28.9317 Y25.3827
G01 X28.9556 Y25.3880
G01 X29.0698 Y25.4167
G01 X29.0935 Y25.4232
G01 X29.1168 Y25.4309
G01 X29.2277 Y25.4706
G01 X29.2392 Y25.4748
G01 X29.2618 Y25.4842
G01 X29.3795 Y25.5397
G01 X29.4014 Y25.5507
G01 X29.4227 Y25.5628
G01 X29.5237 Y25.6234
G01 X29.5445 Y25.6365
G01 X29.5645 Y25.6506
G01 X29.6591 Y25.7208
G01 X29.6689 Y25.7282
G01 X29.6879 Y25.7438
G01 X29.7843 Y25.8310
G01 X29.8021 Y25.8479
G01 X29.8190 Y25.8657
G01 X29.8981 Y25.9529
G01 X29.9141 Y25.9715
G01 X29.9292 Y25.9909
G01 X29.9994 Y26.0855
G01 X30.0135 Y26.1055
G01 X30.0266 Y26.1263
G01 X30.0872 Y26.2273
G01 X30.0933 Y26.2379
G01 X30.1049 Y26.2595
G01 X30.1658 Y26.3882
G01 X30.1706 Y26.3994
G01 X30.1794 Y26.4223
G01 X30.2191 Y26.5332
G01 X30.2268 Y26.5565
G01 X30.2333 Y26.5802
G01 X30.2648 Y26.7063
G01 X30.2696 Y26.7304
G01 X30.2715 Y26.7425
G01 X30.2888 Y26.8590
G01 X30.2918 Y26.8834
G01 X30.2936 Y26.9078
G01 X30.2994 Y27.0255
G01 X30.3000 Y27.0500
G01 X30.2994 Y27.0745
G01 X30.2936 Y27.1922
G01 X30.2918 Y27.2166
G01 X30.2888 Y27.2410
G01 X30.2715 Y27.3575
G01 X30.2673 Y27.3817
G01 X30.2620 Y27.4056
G01 X30.2333 Y27.5198
G01 X30.2268 Y27.5435
G01 X30.2191 Y27.5668
G01 X30.1794 Y27.6777
G01 X30.1706 Y27.7006
G01 X30.1606 Y27.7230
G01 X30.1103 Y27.8295
G01 X30.0993 Y27.8514
G01 X30.0872 Y27.8727
G01 X30.0202 Y27.9842
G01 X30.0135 Y27.9945
G01 X29.9994 Y28.0145
G01 X29.9292 Y28.1091
G01 X29.9141 Y28.1285
G01 X29.8981 Y28.1471
G01 X29.8190 Y28.2343
G01 X29.8021 Y28.2521
G01 X29.7843 Y28.2690
G01 X29.6971 Y28.3481
G01 X29.6785 Y28.3641
G01 X29.6591 Y28.3792
G01 X29.5645 Y28.4494
G01 X29.5445 Y28.4635
G01 X29.5342 Y28.4702
G01 X29.4227 Y28.5372
G01 X29.4014 Y28.5493
G01 X29.3795 Y28.5603
G01 X29.2730 Y28.6106
G01 X29.2506 Y28.6206
G01 X29.2277 Y28.6294
G01 X29.1168 Y28.6691
G01 X29.0935 Y28.6768
G01 X29.0698 Y28.6833
G01 X28.9556 Y28.7120
G01 X28.9317 Y28.7173
G01 X28.9075 Y28.7215
G01 X28.7910 Y28.7388
G01 X28.7666 Y28.7418
G01 X28.7422 Y28.7436
G01 X28.6245 Y28.7494
G01 X28.6000 Y28.7500
G01 X28.5755 Y28.7494
G01 X28.4578 Y28.7436
G01 X28.4334 Y28.7418
G01 X28.4090 Y28.7388
G01 X28.2925 Y28.7215
G01 X28.2683 Y28.7173
G01 X28.2444 Y28.7120
G01 X28.1302 Y28.6833
G01 X28.1065 Y28.6768
G01 X28.0832 Y28.6691
G01 X27.9723 Y28.6294
G01 X27.9494 Y28.6206
G01 X27.9270 Y28.6106
G01 X27.8205 Y28.5603
G01 X27.8010 Y28.5505
G01 X24.7900 Y28.5505
G01 X24.7655 Y28.5499
G01 X24.6674 Y28.5451
G01 X24.6429 Y28.5433
G01 X24.6186 Y28.5403
G01 X24.5214 Y28.5259
G01 X24.4973 Y28.5217
G01 X24.4733 Y28.5163
G01 X24.3781 Y28.4924
G01 X24.3544 Y28.4859
G01 X24.3311 Y28.4782
G01 X24.2387 Y28.4451
G01 X24.2158 Y28.4363
G01 X24.1933 Y28.4263
G01 X24.1046 Y28.3844
G01 X24.0827 Y28.3733
G01 X24.0719 Y28.3674
G01 X23.9667 Y28.3043
G01 X23.9462 Y28.2907
G01 X23.9363 Y28.2835
G01 X23.8574 Y28.2250
G01 X23.8381 Y28.2099
G01 X23.8195 Y28.1939
G01 X23.7468 Y28.1279
G01 X23.7290 Y28.1110
G01 X13.2323 Y17.6143
G00 Z2.0000
G00 X6.7795 Y27.8490
G01 F60.00
G01 Z-0.1500
G01 F100.00
G01 X6.7697 Y27.8295
G01 X6.7194 Y27.7230
G01 X6.7094 Y27.7006
G01 X6.7006 Y27.6777
G01 X6.6609 Y27.5668
G01 X6.6532 Y27.5435
G01 X6.6467 Y27.5198
G01 X6.6180 Y27.4056
G01 X6.6127 Y27.3817
G01 X6.6085 Y27.3575
G01 X6.5912 Y27.2410
G01 X6.5882 Y27.2166
G01 X6.5864 Y27.1922
G01 X6.5806 Y27.0745
G01 X6.5800 Y27.0500
G01 X6.5806 Y27.0255
G01 X6.5864 Y26.9078
G01 X6.5882 Y26.8834
G01 X6.5912 Y26.8590
G01 X6.6085 Y26.7425
G01 X6.6127 Y26.7183
G01 X6.6180 Y26.6944
G01 X6.6467 Y26.5802
G01 X6.6532 Y26.5565
G01 X6.6609 Y26.5332
G01 X6.7006 Y26.4223
G01 X6.7094 Y26.3994
G01 X6.7194 Y26.3770
G01 X6.7697 Y26.2705
G01 X6.7807 Y26.2486
G01 X6.7928 Y26.2273
G01 X6.8534 Y26.1263
G01 X6.8665 Y26.1055
G01 X6.8806 Y26.0855
G01 X6.9508 Y25.9909
G01 X6.9659 Y25.9715
G01 X6.9819 Y25.9529
G01 X7.0610 Y25.8657
G01 X7.0779 Y25.8479
G01 X7.0957 Y25.8310
G01 X7.1829 Y25.7519
G01 X7.2015 Y25.7359
G01 X7.2209 Y25.7208
G01 X7.3155 Y25.6506
G01 X7.3355 Y25.6365
G01 X7.3563 Y25.6234
G01 X7.4573 Y25.5628
G01 X7.4786 Y25.5507
G01 X7.5005 Y25.5397
G01 X7.6070 Y25.4894
G01 X7.6294 Y25.4794
G01 X7.6523 Y25.4706
G01 X7.7632 Y25.4309
G01 X7.7865 Y25.4232
G01 X7.8102 Y25.4167
G01 X7.9244 Y25.3880
G01 X7.9483 Y25.3827
G01 X7.9725 Y25.3785
G01 X8.0890 Y25.3612
G01 X8.1134 Y25.3582
G01 X8.1378 Y25.3564
G01 X8.2555 Y25.3506
G01 X8.2800 Y25.3500
G01 X8.3045 Y25.3506
G01 X8.4222 Y25.3564
G01 X8.4466 Y25.3582
G01 X8.4710 Y25.3612
G01 X8.5875 Y25.3785
G01 X8.6117 Y25.3827
G01 X8.6356 Y25.3880
G01 X8.7498 Y25.4167
G01 X8.7735 Y25.4232
G01 X8.7968 Y25.4309
G01 X8.9077 Y25.4706
G01 X8.9306 Y25.4794
G01 X8.9530 Y25.4894
G01 X9.0595 Y25.5397
G01 X9.0814 Y25.5507
G01 X9.1027 Y25.5628
G01 X9.2037 Y25.6234
G01 X9.2245 Y25.6365
G01 X9.2445 Y25.6506
G01 X9.3391 Y25.7208
G01 X9.3585 Y25.7359
G01 X9.3771 Y25.7519
G01 X9.4643 Y25.8310
G01 X9.4821 Y25.8479
G01 X9.4990 Y25.8657
G01 X9.5781 Y25.9529
G01 X9.5941 Y25.9715
G01 X9.6092 Y25.9909
G01 X9.6794 Y26.0855
G01 X9.6935 Y26.1055
G01 X9.7066 Y26.1263
G01 X9.7733 Y26.2379
G01 X9.7849 Y26.2595
G01 X9.7903 Y26.2705
G01 X9.8406 Y26.3770
G01 X9.8506 Y26.3994
G01 X9.8594 Y26.4223
G01 X9.8991 Y26.5332
G01 X9.9068 Y26.5565
G01 X9.9133 Y26.5802
G01 X9.9420 Y26.6944
G01 X9.9473 Y26.7183
G01 X9.9515 Y26.7425
G01 X9.9688 Y26.8590
G01 X9.9718 Y26.8834
G01 X9.9736 Y26.9078
G01 X9.9794 Y27.0255
G01 X9.9800 Y27.0500
G01 X9.9794 Y27.0745
G01 X9.9736 Y27.1922
G01 X9.9718 Y27.2166
G01 X9.9688 Y27.2410
G01 X9.9515 Y27.3575
G01 X9.9473 Y27.3817
G01 X9.9420 Y27.4056
G01 X9.9133 Y27.5198
G01 X9.9068 Y27.5435
G01 X9.8991 Y27.5668
G01 X9.8594 Y27.6777
G01 X9.8506 Y27.7006
G01 X9.8406 Y27.7230
G01 X9.7903 Y27.8295
G01 X9.7805 Y27.8490
G01 X9.7805 Y33.1695
G01 X30.5185 Y33.1695
G01 X40.0578 Y23.6304
G01 X40.1395 Y23.5561
G01 X40.1581 Y23.5401
G01 X40.1774 Y23.5250
G01 X40.2563 Y23.4665
G01 X40.2764 Y23.4524
G01 X40.2971 Y23.4393
G01 X40.3813 Y23.3888
G01 X40.4027 Y23.3767
G01 X40.4246 Y23.3657
G01 X40.5133 Y23.3237
G01 X40.5358 Y23.3137
G01 X40.5587 Y23.3049
G01 X40.6511 Y23.2718
G01 X40.6744 Y23.2641
G01 X40.6981 Y23.2576
G01 X40.8053 Y23.2309
G01 X40.8173 Y23.2283
G01 X40.8414 Y23.2241
G01 X40.9386 Y23.2097
G01 X40.9629 Y23.2067
G01 X40.9874 Y23.2049
G01 X41.0855 Y23.2001
G01 X41.1100 Y23.1995
G01 X54.5885 Y23.1995
G01 X56.8790 Y20.9090
G01 X56.8968 Y20.8921
G01 X56.9695 Y20.8261
G01 X56.9881 Y20.8101
G01 X57.0074 Y20.7950
G01 X57.0863 Y20.7365
G01 X57.1064 Y20.7224
G01 X57.1271 Y20.7093
G01 X57.2113 Y20.6588
G01 X57.2327 Y20.6467
G01 X57.2546 Y20.6356
G01 X57.3545 Y20.5886
G01 X57.3772 Y20.5792
G01 X57.3887 Y20.5749
G01 X57.4811 Y20.5418
G01 X57.5044 Y20.5341
G01 X57.5281 Y20.5276
G01 X57.6233 Y20.5037
G01 X57.6473 Y20.4983
G01 X57.6714 Y20.4941
G01 X57.7686 Y20.4797
G01 X57.7929 Y20.4767
G01 X57.8174 Y20.4749
G01 X57.9277 Y20.4697
G01 X78.2600 Y20.4695
G01 X78.2845 Y20.4701
G01 X78.3948 Y20.4757
G01 X78.4193 Y20.4781
G01 X78.4314 Y20.4797
G01 X78.5286 Y20.4941
G01 X78.5527 Y20.4983
G01 X78.5767 Y20.5037
G01 X78.6719 Y20.5276
G01 X78.6956 Y20.5341
G01 X78.7073 Y20.5378
G01 X78.8113 Y20.5749
G01 X78.8342 Y20.5837
G01 X78.8567 Y20.5937
G01 X78.9454 Y20.6356
G01 X78.9673 Y20.6467
G01 X78.9887 Y20.6588
G01 X79.0729 Y20.7093
G01 X79.0936 Y20.7224
G01 X79.1137 Y20.7365
G01 X79.1926 Y20.7950
G01 X79.2119 Y20.8101
G01 X79.2305 Y20.8261
G01 X79.3032 Y20.8921
G01 X79.3210 Y20.9090
G01 X79.3379 Y20.9268
G01 X79.4039 Y20.9995
G01 X79.4199 Y21.0181
G01 X79.4350 Y21.0374
G01 X79.4935 Y21.1163
G01 X79.5076 Y21.1364
G01 X79.5207 Y21.1571
G01 X79.5712 Y21.2413
G01 X79.5833 Y21.2627
G01 X79.5944 Y21.2846
G01 X79.6363 Y21.3733
G01 X79.6414 Y21.3845
G01 X79.6508 Y21.4072
G01 X79.6882 Y21.5111
G01 X79.6959 Y21.5344
G01 X79.7024 Y21.5581
G01 X79.7263 Y21.6533
G01 X79.7317 Y21.6773
G01 X79.7359 Y21.7014
G01 X79.7503 Y21.7986
G01 X79.7533 Y21.8229
G01 X79.7543 Y21.8352
G01 X79.7599 Y21.9455
G01 X79.7605 Y21.9700
G01 X79.7599 Y21.9945
G01 X79.7551 Y22.0926
G01 X79.7533 Y22.1171
G01 X79.7503 Y22.1414
G01 X79.7359 Y22.2386
G01 X79.7317 Y22.2627
G01 X79.7263 Y22.2867
G01 X79.7024 Y22.3819
G01 X79.6959 Y22.4056
G01 X79.6882 Y22.4289
G01 X79.6551 Y22.5213
G01 X79.6463 Y22.5442
G01 X79.6363 Y22.5667
G01 X79.5944 Y22.6554
G01 X79.5833 Y22.6773
G01 X79.5712 Y22.6987
G01 X79.5207 Y22.7829
G01 X79.5076 Y22.8036
G01 X79.4935 Y22.8237
G01 X79.4350 Y22.9026
G01 X79.4199 Y22.9219
G01 X79.4039 Y22.9405
G01 X79.3379 Y23.0132
G01 X79.3210 Y23.0310
G01 X79.3032 Y23.0479
G01 X79.2305 Y23.1139
G01 X79.2119 Y23.1299
G01 X79.1926 Y23.1450
G01 X79.1137 Y23.2035
G01 X79.0936 Y23.2176
G01 X79.0729 Y23.2307
G01 X78.9887 Y23.2812
G01 X78.9673 Y23.2933
G01 X78.9454 Y23.3044
G01 X78.8567 Y23.3463
G01 X78.8342 Y23.3563
G01 X78.8113 Y23.3651
G01 X78.7189 Y23.3982
G01 X78.6956 Y23.4059
G01 X78.6719 Y23.4124
G01 X78.5767 Y23.4363
G01 X78.5527 Y23.4417
G01 X78.5286 Y23.4459
G01 X78.4314 Y23.4603
G01 X78.4071 Y23.4633
G01 X78.3948 Y23.4643
G01 X78.2845 Y23.4699
G01 X78.2600 Y23.4705
G01 X58.5615 Y23.4705
G01 X56.2710 Y25.7610
G01 X56.2532 Y25.7779
G01 X56.1713 Y25.8520
G01 X56.1619 Y25.8599
G01 X56.1426 Y25.8750
G01 X56.0637 Y25.9335
G01 X56.0436 Y25.9476
G01 X56.0229 Y25.9608
G01 X55.9387 Y26.0112
G01 X55.9173 Y26.0233
G01 X55.8954 Y26.0344
G01 X55.8066 Y26.0763
G01 X55.7842 Y26.0863
G01 X55.7613 Y26.0951
G01 X55.6689 Y26.1282
G01 X55.6456 Y26.1359
G01 X55.6219 Y26.1424
G01 X55.5267 Y26.1663
G01 X55.5027 Y26.1717
G01 X55.4785 Y26.1759
G01 X55.3693 Y26.1919
G01 X55.3571 Y26.1933
G01 X55.3326 Y26.1951
G01 X55.2345 Y26.1999
G01 X55.2100 Y26.2005
G01 X41.7315 Y26.2005
G01 X32.1922 Y35.7396
G01 X32.1013 Y35.8220
G01 X32.0823 Y35.8376
G01 X32.0726 Y35.8450
G01 X31.9937 Y35.9035
G01 X31.9736 Y35.9176
G01 X31.9529 Y35.9307
G01 X31.8687 Y35.9812
G01 X31.8473 Y35.9933
G01 X31.8254 Y36.0044
G01 X31.7367 Y36.0463
G01 X31.7142 Y36.0563
G01 X31.6913 Y36.0651
G01 X31.5989 Y36.0982
G01 X31.5756 Y36.1059
G01 X31.5519 Y36.1124
G01 X31.4567 Y36.1363
G01 X31.4327 Y36.1417
G01 X31.4086 Y36.1459
G01 X31.3114 Y36.1603
G01 X31.2871 Y36.1633
G01 X31.2626 Y36.1651
G01 X31.1645 Y36.1699
G01 X31.1400 Y36.1705
G01 X9.7805 Y36.1705
G01 X9.7805 Y36.8702
G01 X9.7891 Y36.9053
G01 X9.7939 Y36.9293
G01 X9.8119 Y37.0507
G01 X9.8133 Y37.0629
G01 X9.8151 Y37.0874
G01 X9.8199 Y37.1855
G01 X9.8205 Y37.2100
G01 X9.8205 Y41.3166
G01 X9.8396 Y41.3573
G01 X9.8490 Y41.3800
G01 X9.8913 Y41.4977
G01 X9.8952 Y41.5093
G01 X9.9024 Y41.5328
G01 X9.9329 Y41.6542
G01 X9.9383 Y41.6781
G01 X9.9425 Y41.7023
G01 X9.9607 Y41.8261
G01 X9.9631 Y41.8505
G01 X9.9639 Y41.8627
G01 X9.9694 Y41.9755
G01 X9.9700 Y42.0000
G01 X9.9694 Y42.0245
G01 X9.9639 Y42.1373
G01 X9.9621 Y42.1617
G01 X9.9591 Y42.1861
G01 X9.9405 Y42.3098
G01 X9.9383 Y42.3219
G01 X9.9329 Y42.3458
G01 X9.9055 Y42.4553
G01 X9.8990 Y42.4790
G01 X9.8913 Y42.5023
G01 X9.8532 Y42.6085
G01 X9.8444 Y42.6314
G01 X9.8345 Y42.6539
G01 X9.7862 Y42.7559
G01 X9.7752 Y42.7778
G01 X9.7631 Y42.7992
G01 X9.7051 Y42.8960
G01 X9.6919 Y42.9167
G01 X9.6778 Y42.9368
G01 X9.6106 Y43.0274
G01 X9.5955 Y43.0467
G01 X9.5794 Y43.0653
G01 X9.4953 Y43.1579
G01 X9.4779 Y43.1753
G01 X9.4690 Y43.1836
G01 X9.3853 Y43.2594
G01 X9.3667 Y43.2755
G01 X9.3474 Y43.2906
G01 X9.2568 Y43.3578
G01 X9.2367 Y43.3719
G01 X9.2160 Y43.3851
G01 X9.1192 Y43.4431
G01 X9.0978 Y43.4552
G01 X9.0759 Y43.4662
G01 X8.9739 Y43.5145
G01 X8.9514 Y43.5244
G01 X8.9285 Y43.5332
G01 X8.8107 Y43.5752
G01 X8.7872 Y43.5824
G01 X8.7753 Y43.5855
G01 X8.6658 Y43.6129
G01 X8.6419 Y43.6183
G01 X8.6177 Y43.6225
G01 X8.5061 Y43.6391
G01 X8.4817 Y43.6421
G01 X8.4695 Y43.6431
G01 X8.3445 Y43.6494
G01 X8.3200 Y43.6500
G01 X8.2955 Y43.6494
G01 X8.1827 Y43.6439
G01 X8.1583 Y43.6421
G01 X8.1339 Y43.6391
G01 X8.0223 Y43.6225
G01 X7.9981 Y43.6183
G01 X7.9742 Y43.6129
G01 X7.8647 Y43.5855
G01 X7.8410 Y43.5790
G01 X7.8177 Y43.5713
G01 X7.7115 Y43.5332
G01 X7.6886 Y43.5244
G01 X7.6661 Y43.5145
G01 X7.5641 Y43.4662
G01 X7.5422 Y43.4552
G01 X7.5208 Y43.4431
G01 X7.4240 Y43.3851
G01 X7.4033 Y43.3719
G01 X7.3832 Y43.3578
G01 X7.2926 Y43.2906
G01 X7.2733 Y43.2755
G01 X7.2547 Y43.2594
G01 X7.1710 Y43.1836
G01 X7.1533 Y43.1667
G01 X7.1364 Y43.1490
G01 X7.0606 Y43.0653
G01 X7.0445 Y43.0467
G01 X7.0294 Y43.0274
G01 X6.9622 Y42.9368
G01 X6.9481 Y42.9167
G01 X6.9349 Y42.8960
G01 X6.8769 Y42.7992
G01 X6.8648 Y42.7778
G01 X6.8538 Y42.7559
G01 X6.8055 Y42.6539
G01 X6.7956 Y42.6314
G01 X6.7868 Y42.6085
G01 X6.7487 Y42.5023
G01 X6.7410 Y42.4790
G01 X6.7345 Y42.4553
G01 X6.7071 Y42.3458
G01 X6.7017 Y42.3219
G01 X6.6975 Y42.2977
G01 X6.6809 Y42.1861
G01 X6.6779 Y42.1617
G01 X6.6761 Y42.1373
G01 X6.6706 Y42.0245
G01 X6.6700 Y42.0000
G01 X6.6706 Y41.9755
G01 X6.6761 Y41.8627
G01 X6.6779 Y41.8383
G01 X6.6809 Y41.8139
G01 X6.6995 Y41.6902
G01 X6.7017 Y41.6781
G01 X6.7071 Y41.6542
G01 X6.7345 Y41.5447
G01 X6.7410 Y41.5210
G01 X6.7448 Y41.5093
G01 X6.7910 Y41.3800
G01 X6.8004 Y41.3573
G01 X6.8195 Y41.3166
G01 X6.8195 Y37.5098
G01 X6.8109 Y37.4747
G01 X6.8061 Y37.4507
G01 X6.7881 Y37.3293
G01 X6.7857 Y37.3048
G01 X6.7849 Y37.2926
G01 X6.7801 Y37.1945
G01 X6.7795 Y37.1700
G01 X6.7795 Y27.8490
G00 Z2.0000
G00 X33.4495 Y14.3001
G01 F60.00
G01 Z-0.1500
G01 F100.00
G01 X33.4497 Y13.4864
G01 X33.4549 Y13.3761
G01 X33.4567 Y13.3516
G01 X33.4597 Y13.3272
G01 X33.4741 Y13.2301
G01 X33.4783 Y13.2059
G01 X33.4837 Y13.1820
G01 X33.5076 Y13.0868
G01 X33.5141 Y13.0631
G01 X33.5218 Y13.0398
G01 X33.5549 Y12.9474
G01 X33.5637 Y12.9245
G01 X33.5737 Y12.9020
G01 X33.6156 Y12.8133
G01 X33.6267 Y12.7913
G01 X33.6388 Y12.7700
G01 X33.6893 Y12.6858
G01 X33.7024 Y12.6650
G01 X33.7165 Y12.6450
G01 X33.7750 Y12.5661
G01 X33.7901 Y12.5468
G01 X33.8061 Y12.5282
G01 X33.8721 Y12.4554
G01 X33.8890 Y12.4377
G01 X36.8477 Y9.4790
G01 X36.8654 Y9.4621
G01 X36.9382 Y9.3961
G01 X36.9568 Y9.3801
G01 X36.9761 Y9.3650
G01 X37.0550 Y9.3065
G01 X37.0750 Y9.2924
G01 X37.0853 Y9.2857
G01 X37.1800 Y9.2288
G01 X37.2013 Y9.2167
G01 X37.2233 Y9.2056
G01 X37.3232 Y9.1586
G01 X37.3345 Y9.1537
G01 X37.3574 Y9.1449
G01 X37.4498 Y9.1118
G01 X37.4731 Y9.1041
G01 X37.4968 Y9.0976
G01 X37.5920 Y9.0737
G01 X37.6159 Y9.0683
G01 X37.6401 Y9.0641
G01 X37.7372 Y9.0497
G01 X37.7616 Y9.0467
G01 X37.7861 Y9.0449
G01 X37.8841 Y9.0401
G01 X37.9087 Y9.0395
G01 X71.6960 Y9.0395
G01 X71.7205 Y9.0401
G01 X71.8186 Y9.0449
G01 X71.8431 Y9.0467
G01 X71.8674 Y9.0497
G01 X71.9646 Y9.0641
G01 X71.9887 Y9.0683
G01 X72.0127 Y9.0737
G01 X72.1079 Y9.0976
G01 X72.1316 Y9.1041
G01 X72.1549 Y9.1118
G01 X72.2473 Y9.1449
G01 X72.2702 Y9.1537
G01 X72.2927 Y9.1637
G01 X72.3924 Y9.2110
G01 X72.4033 Y9.2167
G01 X72.4247 Y9.2288
G01 X72.5089 Y9.2793
G01 X72.5296 Y9.2924
G01 X72.5497 Y9.3065
G01 X72.6286 Y9.3650
G01 X72.6479 Y9.3801
G01 X72.6573 Y9.3880
G01 X72.7392 Y9.4621
G01 X72.7570 Y9.4790
G01 X76.1275 Y12.8495
G01 X78.2600 Y12.8495
G01 X78.2845 Y12.8501
G01 X78.3826 Y12.8549
G01 X78.4071 Y12.8567
G01 X78.4314 Y12.8597
G01 X78.5286 Y12.8741
G01 X78.5527 Y12.8783
G01 X78.5767 Y12.8837
G01 X78.6719 Y12.9076
G01 X78.6956 Y12.9141
G01 X78.7189 Y12.9218
G01 X78.8113 Y12.9549
G01 X78.8342 Y12.9637
G01 X78.8567 Y12.9737
G01 X78.9454 Y13.0156
G01 X78.9673 Y13.0267
G01 X78.9887 Y13.0388
G01 X79.0729 Y13.0893
G01 X79.0937 Y13.1024
G01 X79.1115 Y13.1056
G01 X79.1355 Y13.1110
G01 X79.1591 Y13.1175
G01 X79.1824 Y13.1252
G01 X79.2053 Y13.1341
G01 X79.2278 Y13.1440
G01 X79.2497 Y13.1550
G01 X79.2711 Y13.1671
G01 X79.2918 Y13.1803
G01 X79.3118 Y13.1944
G01 X79.3312 Y13.2095
G01 X79.3406 Y13.2174
G01 X79.3588 Y13.2339
G01 X79.3761 Y13.2512
G01 X79.3926 Y13.2694
G01 X79.4005 Y13.2788
G01 X79.4156 Y13.2982
G01 X79.4297 Y13.3182
G01 X79.4429 Y13.3389
G01 X79.4550 Y13.3603
G01 X79.4606 Y13.3712
G01 X79.4711 Y13.3934
G01 X79.4805 Y13.4161
G01 X79.4888 Y13.4392
G01 X79.4959 Y13.4626
G01 X79.5019 Y13.4864
G01 X79.5076 Y13.5163
G01 X79.5207 Y13.5371
G01 X79.5712 Y13.6213
G01 X79.5833 Y13.6427
G01 X79.5944 Y13.6646
G01 X79.6414 Y13.7645
G01 X79.6463 Y13.7758
G01 X79.6551 Y13.7987
G01 X79.6922 Y13.9027
G01 X79.6993 Y13.9262
G01 X79.7024 Y13.9381
G01 X79.7263 Y14.0333
G01 X79.7317 Y14.0573
G01 X79.7359 Y14.0814
G01 X79.7503 Y14.1786
G01 X79.7533 Y14.2029
G01 X79.7551 Y14.2274
G01 X79.7599 Y14.3255
G01 X79.7605 Y14.3500
G01 X79.7599 Y14.3745
G01 X79.7551 Y14.4726
G01 X79.7533 Y14.4971
G01 X79.7503 Y14.5214
G01 X79.7359 Y14.6186
G01 X79.7317 Y14.6427
G01 X79.7263 Y14.6667
G01 X79.7024 Y14.7619
G01 X79.6959 Y14.7856
G01 X79.6922 Y14.7973
G01 X79.6551 Y14.9013
G01 X79.6508 Y14.9128
G01 X79.6414 Y14.9355
G01 X79.5944 Y15.0354
G01 X79.5833 Y15.0573
G01 X79.5712 Y15.0787
G01 X79.5207 Y15.1629
G01 X79.5076 Y15.1837
G01 X79.5019 Y15.2136
G01 X79.4959 Y15.2374
G01 X79.4888 Y15.2608
G01 X79.4805 Y15.2839
G01 X79.4759 Y15.2953
G01 X79.4660 Y15.3178
G01 X79.4606 Y15.3288
G01 X79.4490 Y15.3504
G01 X79.4429 Y15.3611
G01 X79.4297 Y15.3818
G01 X79.4156 Y15.4018
G01 X79.4005 Y15.4212
G01 X79.3845 Y15.4398
G01 X79.3761 Y15.4488
G01 X79.3588 Y15.4661
G01 X79.3406 Y15.4826
G01 X79.3216 Y15.4982
G01 X79.3019 Y15.5128
G01 X79.2918 Y15.5197
G01 X79.2711 Y15.5329
G01 X79.2497 Y15.5450
G01 X79.2278 Y15.5560
G01 X79.2053 Y15.5659
G01 X79.1824 Y15.5748
G01 X79.1708 Y15.5788
G01 X79.1591 Y15.5825
G01 X79.1355 Y15.5890
G01 X79.1115 Y15.5944
G01 X79.0937 Y15.5976
G01 X79.0729 Y15.6107
G01 X78.9887 Y15.6612
G01 X78.9673 Y15.6733
G01 X78.9454 Y15.6844
G01 X78.8567 Y15.7263
G01 X78.8342 Y15.7363
G01 X78.8113 Y15.7451
G01 X78.7189 Y15.7782
G01 X78.6956 Y15.7859
G01 X78.6719 Y15.7924
G01 X78.5767 Y15.8163
G01 X78.5527 Y15.8217
G01 X78.5286 Y15.8259
G01 X78.4314 Y15.8403
G01 X78.4071 Y15.8433
G01 X78.3826 Y15.8451
G01 X78.2845 Y15.8499
G01 X78.2600 Y15.8505
G01 X75.4937 Y15.8503
G01 X75.3712 Y15.8443
G01 X75.3467 Y15.8419
G01 X75.3346 Y15.8403
G01 X75.2374 Y15.8259
G01 X75.2133 Y15.8217
G01 X75.1893 Y15.8163
G01 X75.0822 Y15.7893
G01 X75.0704 Y15.7859
G01 X75.0471 Y15.7782
G01 X74.9547 Y15.7451
G01 X74.9318 Y15.7363
G01 X74.9093 Y15.7263
G01 X74.8206 Y15.6844
G01 X74.7987 Y15.6733
G01 X74.7773 Y15.6612
G01 X74.6931 Y15.6107
G01 X74.6724 Y15.5976
G01 X74.6523 Y15.5835
G01 X74.5734 Y15.5250
G01 X74.5637 Y15.5176
G01 X74.5447 Y15.5020
G01 X74.4538 Y15.4196
G01 X71.0745 Y12.0405
G01 X38.5302 Y12.0405
G01 X36.4505 Y14.1202
G01 X36.4505 Y14.3001
G01 X36.4881 Y14.3418
G01 X36.5037 Y14.3608
G01 X36.5988 Y14.4888
G01 X36.6060 Y14.4987
G01 X36.6196 Y14.5191
G01 X36.7017 Y14.6559
G01 X36.7138 Y14.6772
G01 X36.7249 Y14.6991
G01 X36.7878 Y14.8322
G01 X36.7978 Y14.8546
G01 X36.8023 Y14.8660
G01 X36.8562 Y15.0161
G01 X36.8639 Y15.0394
G01 X36.8704 Y15.0631
G01 X36.9062 Y15.2059
G01 X36.9116 Y15.2298
G01 X36.9158 Y15.2540
G01 X36.9374 Y15.3996
G01 X36.9390 Y15.4118
G01 X36.9414 Y15.4362
G01 X36.9494 Y15.5955
G01 X36.9500 Y15.6200
G01 X36.9494 Y15.6445
G01 X36.9422 Y15.7916
G01 X36.9404 Y15.8160
G01 X36.9374 Y15.8404
G01 X36.9158 Y15.9860
G01 X36.9116 Y16.0102
G01 X36.9062 Y16.0341
G01 X36.8704 Y16.1769
G01 X36.8639 Y16.2006
G01 X36.8562 Y16.2239
G01 X36.8066 Y16.3625
G01 X36.7978 Y16.3854
G01 X36.7878 Y16.4078
G01 X36.7249 Y16.5409
G01 X36.7138 Y16.5628
G01 X36.7017 Y16.5841
G01 X36.6196 Y16.7209
G01 X36.6060 Y16.7413
G01 X36.5988 Y16.7512
G01 X36.5111 Y16.8694
G01 X36.4960 Y16.8888
G01 X36.4800 Y16.9074
G01 X36.3811 Y17.0164
G01 X36.3642 Y17.0342
G01 X36.3464 Y17.0511
G01 X36.2374 Y17.1500
G01 X36.2188 Y17.1660
G01 X36.1994 Y17.1811
G01 X36.0812 Y17.2688
G01 X36.0611 Y17.2829
G01 X36.0404 Y17.2961
G01 X35.9141 Y17.3717
G01 X35.8928 Y17.3838
G01 X35.8709 Y17.3949
G01 X35.7378 Y17.4578
G01 X35.7154 Y17.4678
G01 X35.6925 Y17.4766
G01 X35.5539 Y17.5262
G01 X35.5306 Y17.5339
G01 X35.5069 Y17.5404
G01 X35.3641 Y17.5762
G01 X35.3402 Y17.5816
G01 X35.3160 Y17.5858
G01 X35.1704 Y17.6074
G01 X35.1460 Y17.6104
G01 X35.1216 Y17.6122
G01 X34.9745 Y17.6194
G01 X34.9500 Y17.6200
G01 X34.9255 Y17.6194
G01 X34.7784 Y17.6122
G01 X34.7540 Y17.6104
G01 X34.7296 Y17.6074
G01 X34.5840 Y17.5858
G01 X34.5598 Y17.5816
G01 X34.5359 Y17.5762
G01 X34.3931 Y17.5404
G01 X34.3694 Y17.5339
G01 X34.3461 Y17.5262
G01 X34.2075 Y17.4766
G01 X34.1846 Y17.4678
G01 X34.1622 Y17.4578
G01 X34.0291 Y17.3949
G01 X34.0072 Y17.3838
G01 X33.9859 Y17.3717
G01 X33.8596 Y17.2961
G01 X33.8389 Y17.2829
G01 X33.8188 Y17.2688
G01 X33.7006 Y17.1811
G01 X33.6812 Y17.1660
G01 X33.6626 Y17.1500
G01 X33.5536 Y17.0511
G01 X33.5358 Y17.0342
G01 X33.5189 Y17.0164
G01 X33.4200 Y16.9074
G01 X33.4040 Y16.8888
G01 X33.3889 Y16.8694
G01 X33.3012 Y16.7512
G01 X33.2871 Y16.7311
G01 X33.2739 Y16.7104
G01 X33.1983 Y16.5841
G01 X33.1862 Y16.5628
G01 X33.1751 Y16.5409
G01 X33.1071 Y16.3966
G01 X33.0977 Y16.3740
G01 X33.0934 Y16.3625
G01 X33.0438 Y16.2239
G01 X33.0361 Y16.2006
G01 X33.0296 Y16.1769
G01 X32.9938 Y16.0341
G01 X32.9884 Y16.0102
G01 X32.9842 Y15.9860
G01 X32.9626 Y15.8404
G01 X32.9596 Y15.8160
G01 X32.9578 Y15.7916
G01 X32.9506 Y15.6445
G01 X32.9500 Y15.6200
G01 X32.9506 Y15.5955
G01 X32.9578 Y15.4484
G01 X32.9596 Y15.4240
G01 X32.9626 Y15.3996
G01 X32.9862 Y15.2419
G01 X32.9910 Y15.2178
G01 X32.9938 Y15.2059
G01 X33.0296 Y15.0631
G01 X33.0361 Y15.0394
G01 X33.0438 Y15.0161
G01 X33.0934 Y14.8775
G01 X33.1022 Y14.8546
G01 X33.1122 Y14.8322
G01 X33.1805 Y14.6881
G01 X33.1921 Y14.6665
G01 X33.1983 Y14.6559
G01 X33.2739 Y14.5296
G01 X33.2871 Y14.5089
G01 X33.2940 Y14.4987
G01 X33.3963 Y14.3608
G01 X33.4119 Y14.3418
G01 X33.4495 Y14.3001
G00 Z2.0000
G00 X38.5295 Y16.9399
G01 F60.00
G01 Z-0.1500
G01 F100.00
G01 X38.4919 Y16.8982
G01 X38.4763 Y16.8792
G01 X38.3740 Y16.7413
G01 X38.3671 Y16.7311
G01 X38.3539 Y16.7104
G01 X38.2783 Y16.5841
G01 X38.2662 Y16.5628
G01 X38.2605 Y16.5519
G01 X38.1922 Y16.4078
G01 X38.1822 Y16.3854
G01 X38.1734 Y16.3625
G01 X38.1238 Y16.2239
G01 X38.1161 Y16.2006
G01 X38.1096 Y16.1769
G01 X38.0738 Y16.0341
G01 X38.0710 Y16.0222
G01 X38.0662 Y15.9981
G01 X38.0426 Y15.8404
G01 X38.0396 Y15.8160
G01 X38.0378 Y15.7916
G01 X38.0306 Y15.6445
G01 X38.0300 Y15.6200
G01 X38.0306 Y15.5955
G01 X38.0378 Y15.4484
G01 X38.0396 Y15.4240
G01 X38.0426 Y15.3996
G01 X38.0642 Y15.2540
G01 X38.0684 Y15.2298
G01 X38.0738 Y15.2059
G01 X38.1096 Y15.0631
G01 X38.1161 Y15.0394
G01 X38.1238 Y15.0161
G01 X38.1777 Y14.8660
G01 X38.1871 Y14.8434
G01 X38.1922 Y14.8322
G01 X38.2551 Y14.6991
G01 X38.2662 Y14.6772
G01 X38.2783 Y14.6559
G01 X38.3539 Y14.5296
G01 X38.3671 Y14.5089
G01 X38.3812 Y14.4888
G01 X38.4689 Y14.3706
G01 X38.4840 Y14.3512
G01 X38.5000 Y14.3326
G01 X38.5989 Y14.2236
G01 X38.6158 Y14.2058
G01 X38.6336 Y14.1889
G01 X38.7426 Y14.0900
G01 X38.7612 Y14.0740
G01 X38.7806 Y14.0589
G01 X38.8988 Y13.9712
G01 X38.9189 Y13.9571
G01 X38.9396 Y13.9439
G01 X39.0659 Y13.8683
G01 X39.0872 Y13.8562
G01 X39.1091 Y13.8451
G01 X39.2422 Y13.7822
G01 X39.2646 Y13.7722
G01 X39.2875 Y13.7634
G01 X39.4261 Y13.7138
G01 X39.4494 Y13.7061
G01 X39.4731 Y13.6996
G01 X39.6159 Y13.6638
G01 X39.6398 Y13.6584
G01 X39.6640 Y13.6542
G01 X39.8096 Y13.6326
G01 X39.8340 Y13.6296
G01 X39.8584 Y13.6278
G01 X40.0055 Y13.6206
G01 X40.0300 Y13.6200
G01 X40.0545 Y13.6206
G01 X40.2016 Y13.6278
G01 X40.2260 Y13.6296
G01 X40.2504 Y13.6326
G01 X40.3960 Y13.6542
G01 X40.4202 Y13.6584
G01 X40.4441 Y13.6638
G01 X40.5869 Y13.6996
G01 X40.6106 Y13.7061
G01 X40.6339 Y13.7138
G01 X40.7725 Y13.7634
G01 X40.7954 Y13.7722
G01 X40.8178 Y13.7822
G01 X40.9509 Y13.8451
G01 X40.9728 Y13.8562
G01 X40.9941 Y13.8683
G01 X41.1204 Y13.9439
G01 X41.1411 Y13.9571
G01 X41.1612 Y13.9712
G01 X41.2794 Y14.0589
G01 X41.2988 Y14.0740
G01 X41.3174 Y14.0900
G01 X41.4264 Y14.1889
G01 X41.4442 Y14.2058
G01 X41.4611 Y14.2236
G01 X41.5600 Y14.3326
G01 X41.5681 Y14.3418
G01 X41.5837 Y14.3608
G01 X41.6788 Y14.4888
G01 X41.6929 Y14.5089
G01 X41.7061 Y14.5296
G01 X41.7817 Y14.6559
G01 X41.7938 Y14.6772
G01 X41.8049 Y14.6991
G01 X41.8678 Y14.8322
G01 X41.8778 Y14.8546
G01 X41.8866 Y14.8775
G01 X41.9362 Y15.0161
G01 X41.9439 Y15.0394
G01 X41.9504 Y15.0631
G01 X41.9862 Y15.2059
G01 X41.9916 Y15.2298
G01 X41.9958 Y15.2540
G01 X42.0174 Y15.3996
G01 X42.0204 Y15.4240
G01 X42.0222 Y15.4484
G01 X42.0294 Y15.5955
G01 X42.0300 Y15.6200
G01 X42.0294 Y15.6445
G01 X42.0222 Y15.7916
G01 X42.0204 Y15.8160
G01 X42.0174 Y15.8404
G01 X41.9958 Y15.9860
G01 X41.9916 Y16.0102
G01 X41.9862 Y16.0341
G01 X41.9504 Y16.1769
G01 X41.9439 Y16.2006
G01 X41.9362 Y16.2239
G01 X41.8866 Y16.3625
G01 X41.8778 Y16.3854
G01 X41.8678 Y16.4078
G01 X41.8049 Y16.5409
G01 X41.7938 Y16.5628
G01 X41.7817 Y16.5841
G01 X41.7061 Y16.7104
G01 X41.6996 Y16.7209
G01 X41.6890 Y16.7369
G01 X44.1515 Y19.1995
G01 X48.2985 Y19.1995
G01 X50.5890 Y16.9090
G01 X50.6068 Y16.8921
G01 X50.6887 Y16.8180
G01 X50.6981 Y16.8101
G01 X50.7174 Y16.7950
G01 X50.7963 Y16.7365
G01 X50.8164 Y16.7224
G01 X50.8371 Y16.7092
G01 X50.9213 Y16.6588
G01 X50.9427 Y16.6467
G01 X50.9646 Y16.6356
G01 X51.0534 Y16.5937
G01 X51.0758 Y16.5837
G01 X51.0987 Y16.5749
G01 X51.1911 Y16.5418
G01 X51.2144 Y16.5341
G01 X51.2381 Y16.5276
G01 X51.3333 Y16.5037
G01 X51.3573 Y16.4983
G01 X51.3693 Y16.4961
G01 X51.4786 Y16.4797
G01 X51.5029 Y16.4767
G01 X51.5274 Y16.4749
G01 X51.6255 Y16.4701
G01 X51.6500 Y16.4695
G01 X60.9745 Y16.4695
G01 X64.1550 Y13.2890
G01 X64.1728 Y13.2721
G01 X64.2455 Y13.2061
G01 X64.2641 Y13.1901
G01 X64.2834 Y13.1750
G01 X64.3623 Y13.1165
G01 X64.3824 Y13.1024
G01 X64.4031 Y13.0893
G01 X64.4873 Y13.0388
G01 X64.5087 Y13.0267
G01 X64.5306 Y13.0156
G01 X64.6193 Y12.9737
G01 X64.6418 Y12.9637
G01 X64.6647 Y12.9549
G01 X64.7571 Y12.9218
G01 X64.7804 Y12.9141
G01 X64.8041 Y12.9076
G01 X64.8993 Y12.8837
G01 X64.9233 Y12.8783
G01 X64.9474 Y12.8741
G01 X65.0446 Y12.8597
G01 X65.0689 Y12.8567
G01 X65.0934 Y12.8549
G01 X65.1915 Y12.8501
G01 X65.2160 Y12.8495
G01 X67.9700 Y12.8495
G01 X67.9945 Y12.8501
G01 X68.0926 Y12.8549
G01 X68.1171 Y12.8567
G01 X68.1414 Y12.8597
G01 X68.2386 Y12.8741
G01 X68.2627 Y12.8783
G01 X68.2867 Y12.8837
G01 X68.3819 Y12.9076
G01 X68.4056 Y12.9141
G01 X68.4289 Y12.9218
G01 X68.5213 Y12.9549
G01 X68.5442 Y12.9637
G01 X68.5667 Y12.9737
G01 X68.6554 Y13.0156
G01 X68.6773 Y13.0267
G01 X68.6987 Y13.0388
G01 X68.7829 Y13.0893
G01 X68.8037 Y13.1024
G01 X68.8215 Y13.1056
G01 X68.8455 Y13.1110
G01 X68.8574 Y13.1141
G01 X68.8808 Y13.1212
G01 X68.9039 Y13.1295
G01 X68.9153 Y13.1341
G01 X68.9378 Y13.1440
G01 X68.9488 Y13.1494
G01 X68.9704 Y13.1610
G01 X68.9915 Y13.1736
G01 X69.0119 Y13.1872
G01 X69.0316 Y13.2018
G01 X69.0506 Y13.2174
G01 X69.0688 Y13.2339
G01 X69.0861 Y13.2512
G01 X69.1026 Y13.2694
G01 X69.1105 Y13.2788
G01 X69.1256 Y13.2982
G01 X69.1397 Y13.3182
G01 X69.1529 Y13.3389
G01 X69.1590 Y13.3496
G01 X69.1706 Y13.3712
G01 X69.1760 Y13.3822
G01 X69.1859 Y13.4047
G01 X69.1948 Y13.4276
G01 X69.1988 Y13.4392
G01 X69.2025 Y13.4509
G01 X69.2090 Y13.4745
G01 X69.2144 Y13.4985
G01 X69.2176 Y13.5163
G01 X69.2307 Y13.5371
G01 X69.2812 Y13.6213
G01 X69.2933 Y13.6427
G01 X69.3044 Y13.6646
G01 X69.3463 Y13.7533
G01 X69.3563 Y13.7758
G01 X69.3608 Y13.7872
G01 X69.3982 Y13.8911
G01 X69.4059 Y13.9144
G01 X69.4124 Y13.9381
G01 X69.4363 Y14.0333
G01 X69.4417 Y14.0573
G01 X69.4459 Y14.0814
G01 X69.4603 Y14.1786
G01 X69.4633 Y14.2029
G01 X69.4651 Y14.2274
G01 X69.4699 Y14.3255
G01 X69.4705 Y14.3500
G01 X69.4699 Y14.3745
G01 X69.4651 Y14.4726
G01 X69.4633 Y14.4971
G01 X69.4603 Y14.5214
G01 X69.4459 Y14.6186
G01 X69.4417 Y14.6427
G01 X69.4363 Y14.6667
G01 X69.4124 Y14.7619
G01 X69.4059 Y14.7856
G01 X69.3982 Y14.8089
G01 X69.3651 Y14.9013
G01 X69.3563 Y14.9242
G01 X69.3463 Y14.9467
G01 X69.3044 Y15.0354
G01 X69.2933 Y15.0573
G01 X69.2812 Y15.0787
G01 X69.2307 Y15.1629
G01 X69.2176 Y15.1837
G01 X69.2144 Y15.2015
G01 X69.2090 Y15.2255
G01 X69.2059 Y15.2374
G01 X69.1988 Y15.2608
G01 X69.1905 Y15.2839
G01 X69.1859 Y15.2953
G01 X69.1760 Y15.3178
G01 X69.1650 Y15.3397
G01 X69.1529 Y15.3611
G01 X69.1397 Y15.3818
G01 X69.1328 Y15.3919
G01 X69.1256 Y15.4018
G01 X69.1105 Y15.4212
G01 X69.0945 Y15.4398
G01 X69.0861 Y15.4488
G01 X69.0688 Y15.4661
G01 X69.0506 Y15.4826
G01 X69.0316 Y15.4982
G01 X69.0119 Y15.5128
G01 X68.9915 Y15.5264
G01 X68.9704 Y15.5390
G01 X68.9597 Y15.5450
G01 X68.9378 Y15.5560
G01 X68.9153 Y15.5659
G01 X68.8924 Y15.5748
G01 X68.8808 Y15.5788
G01 X68.8574 Y15.5859
G01 X68.8336 Y15.5919
G01 X68.8037 Y15.5976
G01 X68.7829 Y15.6107
G01 X68.6987 Y15.6612
G01 X68.6773 Y15.6733
G01 X68.6554 Y15.6844
G01 X68.5667 Y15.7263
G01 X68.5442 Y15.7363
G01 X68.5213 Y15.7451
G01 X68.4289 Y15.7782
G01 X68.4056 Y15.7859
G01 X68.3819 Y15.7924
G01 X68.2867 Y15.8163
G01 X68.2627 Y15.8217
G01 X68.2386 Y15.8259
G01 X68.1414 Y15.8403
G01 X68.1171 Y15.8433
G01 X68.0926 Y15.8451
G01 X67.9945 Y15.8499
G01 X67.9700 Y15.8505
G01 X65.8375 Y15.8505
G01 X62.6482 Y19.0396
G01 X62.5665 Y19.1139
G01 X62.5479 Y19.1299
G01 X62.5286 Y19.1450
G01 X62.4497 Y19.2035
G01 X62.4296 Y19.2176
G01 X62.4089 Y19.2307
G01 X62.3247 Y19.2812
G01 X62.3033 Y19.2933
G01 X62.2814 Y19.3043
G01 X62.1927 Y19.3463
G01 X62.1702 Y19.3563
G01 X62.1588 Y19.3608
G01 X62.0549 Y19.3982
G01 X62.0316 Y19.4059
G01 X62.0079 Y19.4124
G01 X61.9127 Y19.4363
G01 X61.8887 Y19.4417
G01 X61.8646 Y19.4459
G01 X61.7674 Y19.4603
G01 X61.7431 Y19.4633
G01 X61.7186 Y19.4651
G01 X61.6205 Y19.4699
G01 X61.5960 Y19.4705
G01 X52.2715 Y19.4705
G01 X49.9810 Y21.7610
G01 X49.9632 Y21.7779
G01 X49.8813 Y21.8520
G01 X49.8719 Y21.8599
G01 X49.8526 Y21.8750
G01 X49.7737 Y21.9335
G01 X49.7536 Y21.9476
G01 X49.7329 Y21.9607
G01 X49.6487 Y22.0112
G01 X49.6273 Y22.0233
G01 X49.6054 Y22.0344
G01 X49.5167 Y22.0763
G01 X49.4942 Y22.0863
G01 X49.4713 Y22.0951
G01 X49.3789 Y22.1282
G01 X49.3556 Y22.1359
G01 X49.3319 Y22.1424
G01 X49.2367 Y22.1663
G01 X49.2127 Y22.1717
G01 X49.1886 Y22.1759
G01 X49.0914 Y22.1903
G01 X49.0671 Y22.1933
G01 X49.0426 Y22.1951
G01 X48.9445 Y22.1999
G01 X48.9200 Y22.2005
G01 X43.5177 Y22.2003
G01 X43.4074 Y22.1951
G01 X43.3951 Y22.1943
G01 X43.3707 Y22.1919
G01 X43.2493 Y22.1739
G01 X43.2253 Y22.1691
G01 X43.2133 Y22.1663
G01 X43.1181 Y22.1424
G01 X43.0944 Y22.1359
G01 X43.0711 Y22.1282
G01 X42.9787 Y22.0951
G01 X42.9672 Y22.0908
G01 X42.9445 Y22.0814
G01 X42.8336 Y22.0290
G01 X42.8227 Y22.0233
G01 X42.8013 Y22.0112
G01 X42.7171 Y21.9607
G01 X42.6964 Y21.9476
G01 X42.6763 Y21.9335
G01 X42.5974 Y21.8750
G01 X42.5781 Y21.8599
G01 X42.5595 Y21.8439
G01 X42.4868 Y21.7779
G01 X42.4690 Y21.7610
G01 X38.9690 Y18.2610
G01 X38.9521 Y18.2432
G01 X38.8780 Y18.1613
G01 X38.8701 Y18.1519
G01 X38.8550 Y18.1326
G01 X38.7965 Y18.0537
G01 X38.7824 Y18.0336
G01 X38.7693 Y18.0129
G01 X38.7188 Y17.9287
G01 X38.7067 Y17.9073
G01 X38.6956 Y17.8854
G01 X38.6537 Y17.7967
G01 X38.6437 Y17.7742
G01 X38.6349 Y17.7513
G01 X38.6018 Y17.6589
G01 X38.5978 Y17.6473
G01 X38.5907 Y17.6238
G01 X38.5637 Y17.5167
G01 X38.5583 Y17.4927
G01 X38.5541 Y17.4686
G01 X38.5397 Y17.3714
G01 X38.5367 Y17.3471
G01 X38.5349 Y17.3226
G01 X38.5297 Y17.2123
G01 X38.5295 Y16.9399
G00 Z2.0000
G00 X44.9823 Y13.6257
G01 F60.00
G01 Z-0.1500
G01 F100.00
G01 X45.3190 Y13.2890
G01 X45.3368 Y13.2721
G01 X45.4095 Y13.2061
G01 X45.4187 Y13.1980
G01 X45.4377 Y13.1824
G01 X45.5362 Y13.1093
G01 X45.5464 Y13.1024
G01 X45.5671 Y13.0893
G01 X45.6513 Y13.0388
G01 X45.6727 Y13.0267
G01 X45.6946 Y13.0156
G01 X45.7833 Y12.9737
G01 X45.8058 Y12.9637
G01 X45.8172 Y12.9592
G01 X45.9327 Y12.9178
G01 X45.9444 Y12.9141
G01 X45.9681 Y12.9076
G01 X46.0633 Y12.8837
G01 X46.0873 Y12.8783
G01 X46.1114 Y12.8741
G01 X46.2086 Y12.8597
G01 X46.2329 Y12.8567
G01 X46.2574 Y12.8549
G01 X46.3555 Y12.8501
G01 X46.3800 Y12.8495
G01 X57.9400 Y12.8495
G01 X57.9645 Y12.8501
G01 X58.0626 Y12.8549
G01 X58.0871 Y12.8567
G01 X58.1114 Y12.8597
G01 X58.2207 Y12.8761
G01 X58.2327 Y12.8783
G01 X58.2567 Y12.8837
G01 X58.3519 Y12.9076
G01 X58.3756 Y12.9141
G01 X58.3989 Y12.9218
G01 X58.4913 Y12.9549
G01 X58.5142 Y12.9637
G01 X58.5367 Y12.9737
G01 X58.6254 Y13.0156
G01 X58.6473 Y13.0267
G01 X58.6687 Y13.0388
G01 X58.7529 Y13.0893
G01 X58.7737 Y13.1024
G01 X58.7915 Y13.1056
G01 X58.8155 Y13.1110
G01 X58.8274 Y13.1141
G01 X58.8508 Y13.1212
G01 X58.8739 Y13.1295
G01 X58.8853 Y13.1341
G01 X58.9078 Y13.1440
G01 X58.9297 Y13.1550
G01 X58.9404 Y13.1610
G01 X58.9615 Y13.1736
G01 X58.9819 Y13.1872
G01 X59.0016 Y13.2018
G01 X59.0206 Y13.2174
G01 X59.0388 Y13.2339
G01 X59.0561 Y13.2512
G01 X59.0726 Y13.2694
G01 X59.0882 Y13.2884
G01 X59.0956 Y13.2982
G01 X59.1028 Y13.3081
G01 X59.1164 Y13.3285
G01 X59.1229 Y13.3389
G01 X59.1350 Y13.3603
G01 X59.1460 Y13.3822
G01 X59.1559 Y13.4047
G01 X59.1605 Y13.4161
G01 X59.1688 Y13.4392
G01 X59.1725 Y13.4509
G01 X59.1790 Y13.4745
G01 X59.1819 Y13.4864
G01 X59.1876 Y13.5163
G01 X59.2007 Y13.5371
G01 X59.2512 Y13.6213
G01 X59.2633 Y13.6427
G01 X59.2744 Y13.6646
G01 X59.3163 Y13.7533
G01 X59.3263 Y13.7758
G01 X59.3351 Y13.7987
G01 X59.3682 Y13.8911
G01 X59.3759 Y13.9144
G01 X59.3824 Y13.9381
G01 X59.4063 Y14.0333
G01 X59.4117 Y14.0573
G01 X59.4159 Y14.0814
G01 X59.4303 Y14.1786
G01 X59.4333 Y14.2029
G01 X59.4351 Y14.2274
G01 X59.4399 Y14.3255
G01 X59.4405 Y14.3500
G01 X59.4399 Y14.3745
G01 X59.4351 Y14.4726
G01 X59.4333 Y14.4971
G01 X59.4303 Y14.5214
G01 X59.4159 Y14.6186
G01 X59.4117 Y14.6427
G01 X59.4091 Y14.6547
G01 X59.3824 Y14.7619
G01 X59.3759 Y14.7856
G01 X59.3682 Y14.8089
G01 X59.3308 Y14.9128
G01 X59.3263 Y14.9242
G01 X59.3163 Y14.9467
G01 X59.2744 Y15.0354
G01 X59.2633 Y15.0573
G01 X59.2512 Y15.0787
G01 X59.2007 Y15.1629
G01 X59.1876 Y15.1837
G01 X59.1844 Y15.2015
G01 X59.1790 Y15.2255
G01 X59.1759 Y15.2374
G01 X59.1688 Y15.2608
G01 X59.1648 Y15.2724
G01 X59.1559 Y15.2953
G01 X59.1460 Y15.3178
G01 X59.1406 Y15.3288
G01 X59.1350 Y15.3397
G01 X59.1229 Y15.3611
G01 X59.1164 Y15.3715
G01 X59.1028 Y15.3919
G01 X59.0882 Y15.4116
G01 X59.0805 Y15.4212
G01 X59.0726 Y15.4306
G01 X59.0561 Y15.4488
G01 X59.0388 Y15.4661
G01 X59.0298 Y15.4745
G01 X59.0206 Y15.4826
G01 X59.0016 Y15.4982
G01 X58.9819 Y15.5128
G01 X58.9615 Y15.5264
G01 X58.9511 Y15.5329
G01 X58.9297 Y15.5450
G01 X58.9188 Y15.5506
G01 X58.8966 Y15.5611
G01 X58.8739 Y15.5705
G01 X58.8508 Y15.5788
G01 X58.8391 Y15.5825
G01 X58.8155 Y15.5890
G01 X58.7915 Y15.5944
G01 X58.7737 Y15.5976
G01 X58.7529 Y15.6107
G01 X58.6687 Y15.6612
G01 X58.6473 Y15.6733
G01 X58.6254 Y15.6844
G01 X58.5367 Y15.7263
G01 X58.5142 Y15.7363
G01 X58.4913 Y15.7451
G01 X58.3989 Y15.7782
G01 X58.3756 Y15.7859
G01 X58.3519 Y15.7924
G01 X58.2567 Y15.8163
G01 X58.2327 Y15.8217
G01 X58.2086 Y15.8259
G01 X58.0993 Y15.8419
G01 X58.0748 Y15.8443
G01 X58.0626 Y15.8451
G01 X57.9645 Y15.8499
G01 X57.9400 Y15.8505
G01 X47.0959 Y15.8505
G01 X47.0758 Y15.9860
G01 X47.0716 Y16.0102
G01 X47.0662 Y16.0341
G01 X47.0304 Y16.1769
G01 X47.0239 Y16.2006
G01 X47.0162 Y16.2239
G01 X46.9666 Y16.3625
G01 X46.9578 Y16.3854
G01 X46.9478 Y16.4078
G01 X46.8849 Y16.5409
G01 X46.8738 Y16.5628
G01 X46.8617 Y16.5841
G01 X46.7861 Y16.7104
G01 X46.7729 Y16.7311
G01 X46.7588 Y16.7512
G01 X46.6711 Y16.8694
G01 X46.6560 Y16.8888
G01 X46.6400 Y16.9074
G01 X46.5411 Y17.0164
G01 X46.5242 Y17.0342
G01 X46.5064 Y17.0511
G01 X46.3974 Y17.1500
G01 X46.3788 Y17.1660
G01 X46.3594 Y17.1811
G01 X46.2412 Y17.2688
G01 X46.2211 Y17.2829
G01 X46.2004 Y17.2961
G01 X46.0741 Y17.3717
G01 X46.0528 Y17.3838
G01 X46.0309 Y17.3949
G01 X45.8978 Y17.4578
G01 X45.8754 Y17.4678
G01 X45.8525 Y17.4766
G01 X45.7139 Y17.5262
G01 X45.6906 Y17.5339
G01 X45.6669 Y17.5404
G01 X45.5241 Y17.5762
G01 X45.5002 Y17.5816
G01 X45.4760 Y17.5858
G01 X45.3304 Y17.6074
G01 X45.3060 Y17.6104
G01 X45.2816 Y17.6122
G01 X45.1345 Y17.6194
G01 X45.1100 Y17.6200
G01 X45.0855 Y17.6194
G01 X44.9384 Y17.6122
G01 X44.9140 Y17.6104
G01 X44.8896 Y17.6074
G01 X44.7440 Y17.5858
G01 X44.7198 Y17.5816
G01 X44.6959 Y17.5762
G01 X44.5531 Y17.5404
G01 X44.5294 Y17.5339
G01 X44.5061 Y17.5262
G01 X44.3675 Y17.4766
G01 X44.3446 Y17.4678
G01 X44.3222 Y17.4578
G01 X44.1891 Y17.3949
G01 X44.1672 Y17.3838
G01 X44.1459 Y17.3717
G01 X44.0196 Y17.2961
G01 X43.9989 Y17.2829
G01 X43.9788 Y17.2688
G01 X43.8606 Y17.1811
G01 X43.8412 Y17.1660
G01 X43.8226 Y17.1500
G01 X43.7136 Y17.0511
G01 X43.6958 Y17.0342
G01 X43.6789 Y17.0164
G01 X43.5800 Y16.9074
G01 X43.5640 Y16.8888
G01 X43.5489 Y16.8694
G01 X43.4612 Y16.7512
G01 X43.4471 Y16.7311
G01 X43.4339 Y16.7104
G01 X43.3583 Y16.5841
G01 X43.3462 Y16.5628
G01 X43.3351 Y16.5409
G01 X43.2722 Y16.4078
G01 X43.2622 Y16.3854
G01 X43.2534 Y16.3625
G01 X43.2038 Y16.2239
G01 X43.1961 Y16.2006
G01 X43.1896 Y16.1769
G01 X43.1538 Y16.0341
G01 X43.1484 Y16.0102
G01 X43.1442 Y15.9860
G01 X43.1226 Y15.8404
G01 X43.1196 Y15.8160
G01 X43.1178 Y15.7916
G01 X43.1106 Y15.6445
G01 X43.1100 Y15.6200
G01 X43.1106 Y15.5955
G01 X43.1178 Y15.4484
G01 X43.1196 Y15.4240
G01 X43.1226 Y15.3996
G01 X43.1442 Y15.2540
G01 X43.1484 Y15.2298
G01 X43.1538 Y15.2059
G01 X43.1896 Y15.0631
G01 X43.1961 Y15.0394
G01 X43.2038 Y15.0161
G01 X43.2534 Y14.8775
G01 X43.2622 Y14.8546
G01 X43.2722 Y14.8322
G01 X43.3351 Y14.6991
G01 X43.3462 Y14.6772
G01 X43.3583 Y14.6559
G01 X43.4339 Y14.5296
G01 X43.4471 Y14.5089
G01 X43.4612 Y14.4888
G01 X43.5489 Y14.3706
G01 X43.5640 Y14.3512
G01 X43.5800 Y14.3326
G01 X43.6872 Y14.2146
G01 X43.7046 Y14.1972
G01 X43.7136 Y14.1889
G01 X43.8226 Y14.0900
G01 X43.8412 Y14.0740
G01 X43.8606 Y14.0589
G01 X43.9788 Y13.9712
G01 X43.9989 Y13.9571
G01 X44.0196 Y13.9439
G01 X44.1459 Y13.8683
G01 X44.1672 Y13.8562
G01 X44.1891 Y13.8451
G01 X44.3334 Y13.7771
G01 X44.3560 Y13.7677
G01 X44.3675 Y13.7634
G01 X44.5061 Y13.7138
G01 X44.5294 Y13.7061
G01 X44.5531 Y13.6996
G01 X44.7078 Y13.6610
G01 X44.7198 Y13.6584
G01 X44.7440 Y13.6542
G01 X44.9018 Y13.6310
G01 X44.9262 Y13.6286
G01 X44.9823 Y13.6257
G00 Z2.0000
G00 X99.7496 Y82.4118
G01 F60.00
G01 Z-0.1500
G01 F100.00
G01 X99.7496 Y81.1836
G01 X96.4728 Y77.9068
G01 X85.2639 Y77.9068
G01 X85.2394 Y77.9062
G01 X85.1609 Y77.9023
G01 X85.1364 Y77.9005
G01 X85.1121 Y77.8975
G01 X85.0223 Y77.8841
G01 X85.0102 Y77.8818
G01 X84.9863 Y77.8764
G01 X84.9101 Y77.8574
G01 X84.8864 Y77.8508
G01 X84.8631 Y77.8431
G01 X84.7892 Y77.8166
G01 X84.7663 Y77.8078
G01 X84.7438 Y77.7979
G01 X84.6728 Y77.7643
G01 X84.6509 Y77.7533
G01 X84.6295 Y77.7412
G01 X84.5622 Y77.7008
G01 X84.5414 Y77.6876
G01 X84.5214 Y77.6735
G01 X84.4583 Y77.6267
G01 X84.4389 Y77.6116
G01 X84.4204 Y77.5956
G01 X84.3622 Y77.5428
G01 X84.3444 Y77.5259
G01 X84.3275 Y77.5081
G01 X84.2747 Y77.4499
G01 X84.2587 Y77.4314
G01 X84.2436 Y77.4120
G01 X84.1968 Y77.3489
G01 X84.1827 Y77.3289
G01 X84.1760 Y77.3186
G01 X84.1291 Y77.2408
G01 X84.1170 Y77.2194
G01 X84.1060 Y77.1975
G01 X84.0724 Y77.1265
G01 X84.0625 Y77.1040
G01 X84.0537 Y77.0811
G01 X84.0272 Y77.0072
G01 X84.0195 Y76.9839
G01 X84.0129 Y76.9602
G01 X83.9939 Y76.8840
G01 X83.9885 Y76.8601
G01 X83.9843 Y76.8359
G01 X83.9728 Y76.7582
G01 X83.9698 Y76.7339
G01 X83.9680 Y76.7094
G01 X83.9641 Y76.6309
G01 X83.9635 Y76.6064
G01 X83.9641 Y76.5819
G01 X83.9680 Y76.5034
G01 X83.9698 Y76.4789
G01 X83.9711 Y76.4667
G01 X83.9843 Y76.3769
G01 X83.9885 Y76.3527
G01 X83.9939 Y76.3288
G01 X84.0129 Y76.2526
G01 X84.0195 Y76.2289
G01 X84.0272 Y76.2056
G01 X84.0537 Y76.1317
G01 X84.0625 Y76.1088
G01 X84.0724 Y76.0863
G01 X84.1060 Y76.0153
G01 X84.1170 Y75.9934
G01 X84.1291 Y75.9720
G01 X84.1695 Y75.9047
G01 X84.1827 Y75.8839
G01 X84.1968 Y75.8639
G01 X84.2436 Y75.8008
G01 X84.2587 Y75.7814
G01 X84.2747 Y75.7629
G01 X84.3275 Y75.7047
G01 X84.3444 Y75.6869
G01 X84.3622 Y75.6700
G01 X84.4204 Y75.6172
G01 X84.4389 Y75.6012
G01 X84.4583 Y75.5861
G01 X84.5214 Y75.5393
G01 X84.5414 Y75.5252
G01 X84.5622 Y75.5120
G01 X84.6295 Y75.4716
G01 X84.6509 Y75.4595
G01 X84.6728 Y75.4485
G01 X84.7438 Y75.4149
G01 X84.7663 Y75.4050
G01 X84.7892 Y75.3962
G01 X84.8631 Y75.3697
G01 X84.8864 Y75.3620
G01 X84.9101 Y75.3554
G01 X84.9863 Y75.3364
G01 X85.0102 Y75.3310
G01 X85.0344 Y75.3268
G01 X85.1121 Y75.3153
G01 X85.1364 Y75.3123
G01 X85.1609 Y75.3105
G01 X85.2516 Y75.3062
G01 X97.0237 Y75.3062
G01 X97.1144 Y75.3105
G01 X97.1389 Y75.3123
G01 X97.1632 Y75.3153
G01 X97.2409 Y75.3268
G01 X97.2651 Y75.3310
G01 X97.2890 Y75.3364
G01 X97.3652 Y75.3554
G01 X97.3889 Y75.3620
G01 X97.4122 Y75.3697
G01 X97.4861 Y75.3962
G01 X97.5090 Y75.4050
G01 X97.5315 Y75.4149
G01 X97.6025 Y75.4485
G01 X97.6244 Y75.4595
G01 X97.6458 Y75.4716
G01 X97.7131 Y75.5120
G01 X97.7339 Y75.5252
G01 X97.7539 Y75.5393
G01 X97.8170 Y75.5861
G01 X97.8364 Y75.6012
G01 X97.8549 Y75.6172
G01 X97.9131 Y75.6700
G01 X97.9309 Y75.6869
G01 X101.9695 Y79.7255
G01 X101.9864 Y79.7433
G01 X102.0392 Y79.8015
G01 X102.0552 Y79.8200
G01 X102.0703 Y79.8394
G01 X102.1171 Y79.9025
G01 X102.1312 Y79.9225
G01 X102.1379 Y79.9328
G01 X102.1909 Y80.0212
G01 X102.1969 Y80.0320
G01 X102.2079 Y80.0539
G01 X102.2415 Y80.1249
G01 X102.2514 Y80.1474
G01 X102.2602 Y80.1703
G01 X102.2867 Y80.2442
G01 X102.2944 Y80.2675
G01 X102.3010 Y80.2912
G01 X102.3200 Y80.3674
G01 X102.3254 Y80.3913
G01 X102.3296 Y80.4155
G01 X102.3411 Y80.4932
G01 X102.3441 Y80.5175
G01 X102.3452 Y80.5298
G01 X102.3498 Y80.6205
G01 X102.3504 Y80.6450
G01 X102.3504 Y82.4118
G01 X102.4464 Y82.4989
G01 X102.4642 Y82.5158
G01 X102.4811 Y82.5336
G01 X102.5800 Y82.6426
G01 X102.5960 Y82.6612
G01 X102.6111 Y82.6806
G01 X102.6988 Y82.7988
G01 X102.7129 Y82.8189
G01 X102.7261 Y82.8396
G01 X102.8017 Y82.9659
G01 X102.8138 Y82.9872
G01 X102.8249 Y83.0091
G01 X102.8878 Y83.1422
G01 X102.8978 Y83.1646
G01 X102.9066 Y83.1875
G01 X102.9562 Y83.3261
G01 X102.9639 Y83.3494
G01 X102.9704 Y83.3731
G01 X103.0062 Y83.5159
G01 X103.0116 Y83.5398
G01 X103.0158 Y83.5640
G01 X103.0374 Y83.7096
G01 X103.0404 Y83.7340
G01 X103.0422 Y83.7584
G01 X103.0494 Y83.9055
G01 X103.0500 Y83.9300
G01 X103.0494 Y83.9545
G01 X103.0422 Y84.1016
G01 X103.0404 Y84.1260
G01 X103.0374 Y84.1504
G01 X103.0158 Y84.2960
G01 X103.0116 Y84.3202
G01 X103.0062 Y84.3441
G01 X102.9704 Y84.4869
G01 X102.9639 Y84.5106
G01 X102.9562 Y84.5339
G01 X102.9066 Y84.6725
G01 X102.8978 Y84.6954
G01 X102.8878 Y84.7178
G01 X102.8249 Y84.8509
G01 X102.8138 Y84.8728
G01 X102.8017 Y84.8941
G01 X102.7261 Y85.0204
G01 X102.7129 Y85.0411
G01 X102.6988 Y85.0612
G01 X102.6111 Y85.1794
G01 X102.5960 Y85.1988
G01 X102.5800 Y85.2174
G01 X102.4811 Y85.3264
G01 X102.4642 Y85.3442
G01 X102.4393 Y85.3676
G01 X102.4393 Y89.6932
G01 X102.5353 Y89.7803
G01 X102.5531 Y89.7972
G01 X102.5700 Y89.8150
G01 X102.6689 Y89.9240
G01 X102.6849 Y89.9426
G01 X102.7000 Y89.9620
G01 X102.7877 Y90.0802
G01 X102.8018 Y90.1003
G01 X102.8150 Y90.1210
G01 X102.8906 Y90.2473
G01 X102.9027 Y90.2686
G01 X102.9138 Y90.2905
G01 X102.9767 Y90.4236
G01 X102.9867 Y90.4460
G01 X102.9955 Y90.4689
G01 X103.0451 Y90.6075
G01 X103.0528 Y90.6308
G01 X103.0593 Y90.6545
G01 X103.0951 Y90.7973
G01 X103.1005 Y90.8212
G01 X103.1047 Y90.8454
G01 X103.1263 Y90.9910
G01 X103.1293 Y91.0154
G01 X103.1311 Y91.0398
G01 X103.1383 Y91.1869
G01 X103.1389 Y91.2114
G01 X103.1383 Y91.2359
G01 X103.1311 Y91.3830
G01 X103.1293 Y91.4074
G01 X103.1263 Y91.4318
G01 X103.1047 Y91.5774
G01 X103.1005 Y91.6016
G01 X103.0951 Y91.6255
G01 X103.0593 Y91.7683
G01 X103.0528 Y91.7920
G01 X103.0451 Y91.8153
G01 X102.9955 Y91.9539
G01 X102.9867 Y91.9768
G01 X102.9767 Y91.9992
G01 X102.9138 Y92.1323
G01 X102.9027 Y92.1542
G01 X102.8906 Y92.1755
G01 X102.8150 Y92.3018
G01 X102.8018 Y92.3225
G01 X102.7877 Y92.3426
G01 X102.7000 Y92.4608
G01 X102.6849 Y92.4802
G01 X102.6689 Y92.4988
G01 X102.5700 Y92.6078
G01 X102.5531 Y92.6256
G01 X102.5353 Y92.6425
G01 X102.4263 Y92.7414
G01 X102.4077 Y92.7574
G01 X102.3883 Y92.7725
G01 X102.2701 Y92.8602
G01 X102.2500 Y92.8743
G01 X102.2293 Y92.8875
G01 X102.1030 Y92.9631
G01 X102.0817 Y92.9752
G01 X102.0598 Y92.9863
G01 X101.9267 Y93.0492
G01 X101.9043 Y93.0592
G01 X101.8814 Y93.0680
G01 X101.7428 Y93.1176
G01 X101.7195 Y93.1253
G01 X101.6958 Y93.1318
G01 X101.5530 Y93.1676
G01 X101.5291 Y93.1730
G01 X101.5170 Y93.1752
G01 X101.3593 Y93.1988
G01 X101.3349 Y93.2018
G01 X101.3105 Y93.2036
G01 X101.1634 Y93.2108
G01 X101.1389 Y93.2114
G01 X101.1144 Y93.2108
G01 X100.9673 Y93.2036
G01 X100.9429 Y93.2018
G01 X100.9185 Y93.1988
G01 X100.7729 Y93.1772
G01 X100.7487 Y93.1730
G01 X100.7248 Y93.1676
G01 X100.5820 Y93.1318
G01 X100.5583 Y93.1253
G01 X100.5350 Y93.1176
G01 X100.3964 Y93.0680
G01 X100.3735 Y93.0592
G01 X100.3511 Y93.0492
G01 X100.2180 Y92.9863
G01 X100.1961 Y92.9752
G01 X100.1748 Y92.9631
G01 X100.0485 Y92.8875
G01 X100.0278 Y92.8743
G01 X100.0077 Y92.8602
G01 X99.8895 Y92.7725
G01 X99.8701 Y92.7574
G01 X99.8515 Y92.7414
G01 X99.7425 Y92.6425
G01 X99.7247 Y92.6256
G01 X99.7078 Y92.6078
G01 X99.6089 Y92.4988
G01 X99.5929 Y92.4802
G01 X99.5778 Y92.4608
G01 X99.4901 Y92.3426
G01 X99.4760 Y92.3225
G01 X99.4628 Y92.3018
G01 X99.3872 Y92.1755
G01 X99.3751 Y92.1542
G01 X99.3640 Y92.1323
G01 X99.3011 Y91.9992
G01 X99.2911 Y91.9768
G01 X99.2823 Y91.9539
G01 X99.2327 Y91.8153
G01 X99.2250 Y91.7920
G01 X99.2185 Y91.7683
G01 X99.1827 Y91.6255
G01 X99.1799 Y91.6136
G01 X99.1751 Y91.5895
G01 X99.1515 Y91.4318
G01 X99.1485 Y91.4074
G01 X99.1467 Y91.3830
G01 X99.1395 Y91.2359
G01 X99.1389 Y91.2114
G01 X99.1395 Y91.1869
G01 X99.1467 Y91.0398
G01 X99.1485 Y91.0154
G01 X99.1515 Y90.9910
G01 X99.1731 Y90.8454
G01 X99.1773 Y90.8212
G01 X99.1827 Y90.7973
G01 X99.2185 Y90.6545
G01 X99.2250 Y90.6308
G01 X99.2327 Y90.6075
G01 X99.2823 Y90.4689
G01 X99.2911 Y90.4460
G01 X99.3011 Y90.4236
G01 X99.3640 Y90.2905
G01 X99.3751 Y90.2686
G01 X99.3872 Y90.2473
G01 X99.4628 Y90.1210
G01 X99.4760 Y90.1003
G01 X99.4901 Y90.0802
G01 X99.5778 Y89.9620
G01 X99.5929 Y89.9426
G01 X99.6089 Y89.9240
G01 X99.7078 Y89.8150
G01 X99.7247 Y89.7972
G01 X99.7425 Y89.7803
G01 X99.8385 Y89.6932
G01 X99.8385 Y85.5193
G01 X99.7908 Y85.4837
G01 X99.7718 Y85.4681
G01 X99.6446 Y85.3528
G01 X99.6272 Y85.3354
G01 X99.6189 Y85.3264
G01 X99.5200 Y85.2174
G01 X99.5040 Y85.1988
G01 X99.4963 Y85.1892
G01 X99.4012 Y85.0612
G01 X99.3871 Y85.0411
G01 X99.3739 Y85.0204
G01 X99.2983 Y84.8941
G01 X99.2862 Y84.8728
G01 X99.2751 Y84.8509
G01 X99.2071 Y84.7066
G01 X99.1977 Y84.6840
G01 X99.1934 Y84.6725
G01 X99.1438 Y84.5339
G01 X99.1361 Y84.5106
G01 X99.1296 Y84.4869
G01 X99.0938 Y84.3441
G01 X99.0884 Y84.3202
G01 X99.0842 Y84.2960
G01 X99.0626 Y84.1504
G01 X99.0596 Y84.1260
G01 X99.0578 Y84.1016
G01 X99.0506 Y83.9545
G01 X99.0500 Y83.9300
G01 X99.0506 Y83.9055
G01 X99.0586 Y83.7462
G01 X99.0596 Y83.7340
G01 X99.0626 Y83.7096
G01 X99.0842 Y83.5640
G01 X99.0884 Y83.5398
G01 X99.0938 Y83.5159
G01 X99.1296 Y83.3731
G01 X99.1361 Y83.3494
G01 X99.1438 Y83.3261
G01 X99.1934 Y83.1875
G01 X99.2022 Y83.1646
G01 X99.2122 Y83.1422
G01 X99.2805 Y82.9981
G01 X99.2921 Y82.9765
G01 X99.2983 Y82.9659
G01 X99.3739 Y82.8396
G01 X99.3871 Y82.8189
G01 X99.4012 Y82.7988
G01 X99.4963 Y82.6708
G01 X99.5040 Y82.6612
G01 X99.5200 Y82.6426
G01 X99.6189 Y82.5336
G01 X99.6358 Y82.5158
G01 X99.6536 Y82.4989
G01 X99.7496 Y82.4118
G00 Z2.0000
G00 X94.7585 Y89.6932
G01 F60.00
G01 Z-0.1500
G01 F100.00
G01 X94.7585 Y85.5193
G01 X94.7108 Y85.4837
G01 X94.6918 Y85.4681
G01 X94.5646 Y85.3528
G01 X94.5472 Y85.3354
G01 X94.5389 Y85.3264
G01 X94.4400 Y85.2174
G01 X94.4240 Y85.1988
G01 X94.4163 Y85.1892
G01 X94.3212 Y85.0612
G01 X94.3071 Y85.0411
G01 X94.2939 Y85.0204
G01 X94.2183 Y84.8941
G01 X94.2062 Y84.8728
G01 X94.1951 Y84.8509
G01 X94.1322 Y84.7178
G01 X94.1271 Y84.7066
G01 X94.1177 Y84.6840
G01 X94.0638 Y84.5339
G01 X94.0561 Y84.5106
G01 X94.0496 Y84.4869
G01 X94.0138 Y84.3441
G01 X94.0084 Y84.3202
G01 X94.0042 Y84.2960
G01 X93.9826 Y84.1504
G01 X93.9796 Y84.1260
G01 X93.9778 Y84.1016
G01 X93.9706 Y83.9545
G01 X93.9700 Y83.9300
G01 X93.9706 Y83.9055
G01 X93.9778 Y83.7584
G01 X93.9796 Y83.7340
G01 X93.9826 Y83.7096
G01 X94.0042 Y83.5640
G01 X94.0084 Y83.5398
G01 X94.0138 Y83.5159
G01 X94.0496 Y83.3731
G01 X94.0561 Y83.3494
G01 X94.0638 Y83.3261
G01 X94.1134 Y83.1875
G01 X94.1222 Y83.1646
G01 X94.1322 Y83.1422
G01 X94.1951 Y83.0091
G01 X94.2062 Y82.9872
G01 X94.2183 Y82.9659
G01 X94.2939 Y82.8396
G01 X94.3071 Y82.8189
G01 X94.3212 Y82.7988
G01 X94.4089 Y82.6806
G01 X94.4240 Y82.6612
G01 X94.4400 Y82.6426
G01 X94.5389 Y82.5336
G01 X94.5558 Y82.5158
G01 X94.5736 Y82.4989
G01 X94.6826 Y82.4000
G01 X94.7012 Y82.3840
G01 X94.7206 Y82.3689
G01 X94.8388 Y82.2812
G01 X94.8589 Y82.2671
G01 X94.8796 Y82.2539
G01 X95.0059 Y82.1783
G01 X95.0272 Y82.1662
G01 X95.0491 Y82.1551
G01 X95.1822 Y82.0922
G01 X95.2046 Y82.0822
G01 X95.2275 Y82.0734
G01 X95.3661 Y82.0238
G01 X95.3894 Y82.0161
G01 X95.4131 Y82.0096
G01 X95.5559 Y81.9738
G01 X95.5798 Y81.9684
G01 X95.6040 Y81.9642
G01 X95.7496 Y81.9426
G01 X95.7740 Y81.9396
G01 X95.7984 Y81.9378
G01 X95.9455 Y81.9306
G01 X95.9700 Y81.9300
G01 X95.9945 Y81.9306
G01 X96.1416 Y81.9378
G01 X96.1660 Y81.9396
G01 X96.1904 Y81.9426
G01 X96.3360 Y81.9642
G01 X96.3602 Y81.9684
G01 X96.3841 Y81.9738
G01 X96.5269 Y82.0096
G01 X96.5506 Y82.0161
G01 X96.5739 Y82.0238
G01 X96.7125 Y82.0734
G01 X96.7354 Y82.0822
G01 X96.7578 Y82.0922
G01 X96.8909 Y82.1551
G01 X96.9128 Y82.1662
G01 X96.9341 Y82.1783
G01 X97.0604 Y82.2539
G01 X97.0811 Y82.2671
G01 X97.1012 Y82.2812
G01 X97.2194 Y82.3689
G01 X97.2388 Y82.3840
G01 X97.2574 Y82.4000
G01 X97.3664 Y82.4989
G01 X97.3842 Y82.5158
G01 X97.4011 Y82.5336
G01 X97.5000 Y82.6426
G01 X97.5160 Y82.6612
G01 X97.5311 Y82.6806
G01 X97.6188 Y82.7988
G01 X97.6329 Y82.8189
G01 X97.6461 Y82.8396
G01 X97.7217 Y82.9659
G01 X97.7338 Y82.9872
G01 X97.7449 Y83.0091
G01 X97.8078 Y83.1422
G01 X97.8178 Y83.1646
G01 X97.8266 Y83.1875
G01 X97.8762 Y83.3261
G01 X97.8839 Y83.3494
G01 X97.8904 Y83.3731
G01 X97.9262 Y83.5159
G01 X97.9316 Y83.5398
G01 X97.9358 Y83.5640
G01 X97.9574 Y83.7096
G01 X97.9604 Y83.7340
G01 X97.9622 Y83.7584
G01 X97.9694 Y83.9055
G01 X97.9700 Y83.9300
G01 X97.9694 Y83.9545
G01 X97.9622 Y84.1016
G01 X97.9604 Y84.1260
G01 X97.9574 Y84.1504
G01 X97.9358 Y84.2960
G01 X97.9316 Y84.3202
G01 X97.9262 Y84.3441
G01 X97.8904 Y84.4869
G01 X97.8839 Y84.5106
G01 X97.8762 Y84.5339
G01 X97.8266 Y84.6725
G01 X97.8178 Y84.6954
G01 X97.8078 Y84.7178
G01 X97.7449 Y84.8509
G01 X97.7338 Y84.8728
G01 X97.7217 Y84.8941
G01 X97.6461 Y85.0204
G01 X97.6329 Y85.0411
G01 X97.6188 Y85.0612
G01 X97.5311 Y85.1794
G01 X97.5160 Y85.1988
G01 X97.5000 Y85.2174
G01 X97.4011 Y85.3264
G01 X97.3842 Y85.3442
G01 X97.3593 Y85.3676
G01 X97.3593 Y89.6932
G01 X97.4553 Y89.7803
G01 X97.4731 Y89.7972
G01 X97.4900 Y89.8150
G01 X97.5889 Y89.9240
G01 X97.6049 Y89.9426
G01 X97.6200 Y89.9620
G01 X97.7077 Y90.0802
G01 X97.7218 Y90.1003
G01 X97.7350 Y90.1210
G01 X97.8106 Y90.2473
G01 X97.8227 Y90.2686
G01 X97.8338 Y90.2905
G01 X97.8967 Y90.4236
G01 X97.9067 Y90.4460
G01 X97.9155 Y90.4689
G01 X97.9651 Y90.6075
G01 X97.9728 Y90.6308
G01 X97.9793 Y90.6545
G01 X98.0151 Y90.7973
G01 X98.0205 Y90.8212
G01 X98.0247 Y90.8454
G01 X98.0463 Y90.9910
G01 X98.0493 Y91.0154
G01 X98.0511 Y91.0398
G01 X98.0583 Y91.1869
G01 X98.0589 Y91.2114
G01 X98.0583 Y91.2359
G01 X98.0503 Y91.3952
G01 X98.0493 Y91.4074
G01 X98.0463 Y91.4318
G01 X98.0247 Y91.5774
G01 X98.0205 Y91.6016
G01 X98.0151 Y91.6255
G01 X97.9793 Y91.7683
G01 X97.9728 Y91.7920
G01 X97.9651 Y91.8153
G01 X97.9155 Y91.9539
G01 X97.9067 Y91.9768
G01 X97.8967 Y91.9992
G01 X97.8338 Y92.1323
G01 X97.8227 Y92.1542
G01 X97.8106 Y92.1755
G01 X97.7350 Y92.3018
G01 X97.7218 Y92.3225
G01 X97.7077 Y92.3426
G01 X97.6200 Y92.4608
G01 X97.6049 Y92.4802
G01 X97.5889 Y92.4988
G01 X97.4900 Y92.6078
G01 X97.4731 Y92.6256
G01 X97.4553 Y92.6425
G01 X97.3463 Y92.7414
G01 X97.3277 Y92.7574
G01 X97.3083 Y92.7725
G01 X97.1901 Y92.8602
G01 X97.1700 Y92.8743
G01 X97.1493 Y92.8875
G01 X97.0230 Y92.9631
G01 X97.0017 Y92.9752
G01 X96.9798 Y92.9863
G01 X96.8467 Y93.0492
G01 X96.8243 Y93.0592
G01 X96.8014 Y93.0680
G01 X96.6628 Y93.1176
G01 X96.6395 Y93.1253
G01 X96.6158 Y93.1318
G01 X96.4730 Y93.1676
G01 X96.4491 Y93.1730
G01 X96.4249 Y93.1772
G01 X96.2793 Y93.1988
G01 X96.2549 Y93.2018
G01 X96.2305 Y93.2036
G01 X96.0834 Y93.2108
G01 X96.0589 Y93.2114
G01 X96.0344 Y93.2108
G01 X95.8873 Y93.2036
G01 X95.8629 Y93.2018
G01 X95.8385 Y93.1988
G01 X95.6929 Y93.1772
G01 X95.6687 Y93.1730
G01 X95.6448 Y93.1676
G01 X95.5020 Y93.1318
G01 X95.4783 Y93.1253
G01 X95.4550 Y93.1176
G01 X95.3164 Y93.0680
G01 X95.2935 Y93.0592
G01 X95.2711 Y93.0492
G01 X95.1380 Y92.9863
G01 X95.1161 Y92.9752
G01 X95.0948 Y92.9631
G01 X94.9685 Y92.8875
G01 X94.9478 Y92.8743
G01 X94.9277 Y92.8602
G01 X94.8095 Y92.7725
G01 X94.7901 Y92.7574
G01 X94.7715 Y92.7414
G01 X94.6625 Y92.6425
G01 X94.6447 Y92.6256
G01 X94.6278 Y92.6078
G01 X94.5289 Y92.4988
G01 X94.5129 Y92.4802
G01 X94.4978 Y92.4608
G01 X94.4101 Y92.3426
G01 X94.3960 Y92.3225
G01 X94.3828 Y92.3018
G01 X94.3072 Y92.1755
G01 X94.2951 Y92.1542
G01 X94.2840 Y92.1323
G01 X94.2211 Y91.9992
G01 X94.2111 Y91.9768
G01 X94.2023 Y91.9539
G01 X94.1527 Y91.8153
G01 X94.1450 Y91.7920
G01 X94.1385 Y91.7683
G01 X94.1027 Y91.6255
G01 X94.0973 Y91.6016
G01 X94.0931 Y91.5774
G01 X94.0715 Y91.4318
G01 X94.0685 Y91.4074
G01 X94.0667 Y91.3830
G01 X94.0595 Y91.2359
G01 X94.0589 Y91.2114
G01 X94.0595 Y91.1869
G01 X94.0667 Y91.0398
G01 X94.0685 Y91.0154
G01 X94.0715 Y90.9910
G01 X94.0931 Y90.8454
G01 X94.0973 Y90.8212
G01 X94.1027 Y90.7973
G01 X94.1385 Y90.6545
G01 X94.1450 Y90.6308
G01 X94.1527 Y90.6075
G01 X94.2023 Y90.4689
G01 X94.2111 Y90.4460
G01 X94.2211 Y90.4236
G01 X94.2840 Y90.2905
G01 X94.2951 Y90.2686
G01 X94.3072 Y90.2473
G01 X94.3828 Y90.1210
G01 X94.3960 Y90.1003
G01 X94.4101 Y90.0802
G01 X94.4978 Y89.9620
G01 X94.5129 Y89.9426
G01 X94.5289 Y89.9240
G01 X94.6278 Y89.8150
G01 X94.6447 Y89.7972
G01 X94.6625 Y89.7803
G01 X94.7585 Y89.6932
G00 Z2.0000
G00 X89.6785 Y89.6932
G01 F60.00
G01 Z-0.1500
G01 F100.00
G01 X89.6785 Y85.5193
G01 X89.6308 Y85.4837
G01 X89.6118 Y85.4681
G01 X89.4846 Y85.3528
G01 X89.4672 Y85.3354
G01 X89.4589 Y85.3264
G01 X89.3600 Y85.2174
G01 X89.3440 Y85.1988
G01 X89.3363 Y85.1892
G01 X89.2412 Y85.0612
G01 X89.2271 Y85.0411
G01 X89.2139 Y85.0204
G01 X89.1383 Y84.8941
G01 X89.1262 Y84.8728
G01 X89.1151 Y84.8509
G01 X89.0522 Y84.7178
G01 X89.0471 Y84.7066
G01 X89.0377 Y84.6840
G01 X88.9838 Y84.5339
G01 X88.9761 Y84.5106
G01 X88.9696 Y84.4869
G01 X88.9338 Y84.3441
G01 X88.9284 Y84.3202
G01 X88.9242 Y84.2960
G01 X88.9026 Y84.1504
G01 X88.8996 Y84.1260
G01 X88.8978 Y84.1016
G01 X88.8906 Y83.9545
G01 X88.8900 Y83.9300
G01 X88.8906 Y83.9055
G01 X88.8978 Y83.7584
G01 X88.8996 Y83.7340
G01 X88.9026 Y83.7096
G01 X88.9242 Y83.5640
G01 X88.9284 Y83.5398
G01 X88.9338 Y83.5159
G01 X88.9696 Y83.3731
G01 X88.9761 Y83.3494
G01 X88.9838 Y83.3261
G01 X89.0334 Y83.1875
G01 X89.0422 Y83.1646
G01 X89.0522 Y83.1422
G01 X89.1151 Y83.0091
G01 X89.1262 Y82.9872
G01 X89.1383 Y82.9659
G01 X89.2139 Y82.8396
G01 X89.2271 Y82.8189
G01 X89.2412 Y82.7988
G01 X89.3289 Y82.6806
G01 X89.3440 Y82.6612
G01 X89.3600 Y82.6426
G01 X89.4589 Y82.5336
G01 X89.4758 Y82.5158
G01 X89.4936 Y82.4989
G01 X89.6026 Y82.4000
G01 X89.6212 Y82.3840
G01 X89.6406 Y82.3689
G01 X89.7588 Y82.2812
G01 X89.7789 Y82.2671
G01 X89.7996 Y82.2539
G01 X89.9259 Y82.1783
G01 X89.9472 Y82.1662
G01 X89.9691 Y82.1551
G01 X90.1022 Y82.0922
G01 X90.1246 Y82.0822
G01 X90.1475 Y82.0734
G01 X90.2861 Y82.0238
G01 X90.3094 Y82.0161
G01 X90.3331 Y82.0096
G01 X90.4759 Y81.9738
G01 X90.4998 Y81.9684
G01 X90.5240 Y81.9642
G01 X90.6696 Y81.9426
G01 X90.6940 Y81.9396
G01 X90.7184 Y81.9378
G01 X90.8655 Y81.9306
G01 X90.8900 Y81.9300
G01 X90.9145 Y81.9306
G01 X91.0616 Y81.9378
G01 X91.0860 Y81.9396
G01 X91.1104 Y81.9426
G01 X91.2560 Y81.9642
G01 X91.2802 Y81.9684
G01 X91.3041 Y81.9738
G01 X91.4469 Y82.0096
G01 X91.4706 Y82.0161
G01 X91.4939 Y82.0238
G01 X91.6325 Y82.0734
G01 X91.6554 Y82.0822
G01 X91.6778 Y82.0922
G01 X91.8109 Y82.1551
G01 X91.8328 Y82.1662
G01 X91.8541 Y82.1783
G01 X91.9804 Y82.2539
G01 X92.0011 Y82.2671
G01 X92.0212 Y82.2812
G01 X92.1394 Y82.3689
G01 X92.1588 Y82.3840
G01 X92.1774 Y82.4000
G01 X92.2864 Y82.4989
G01 X92.3042 Y82.5158
G01 X92.3211 Y82.5336
G01 X92.4200 Y82.6426
G01 X92.4360 Y82.6612
G01 X92.4511 Y82.6806
G01 X92.5388 Y82.7988
G01 X92.5529 Y82.8189
G01 X92.5661 Y82.8396
G01 X92.6417 Y82.9659
G01 X92.6538 Y82.9872
G01 X92.6649 Y83.0091
G01 X92.7278 Y83.1422
G01 X92.7378 Y83.1646
G01 X92.7466 Y83.1875
G01 X92.7962 Y83.3261
G01 X92.8039 Y83.3494
G01 X92.8104 Y83.3731
G01 X92.8462 Y83.5159
G01 X92.8516 Y83.5398
G01 X92.8558 Y83.5640
G01 X92.8774 Y83.7096
G01 X92.8804 Y83.7340
G01 X92.8822 Y83.7584
G01 X92.8894 Y83.9055
G01 X92.8900 Y83.9300
G01 X92.8894 Y83.9545
G01 X92.8822 Y84.1016
G01 X92.8804 Y84.1260
G01 X92.8774 Y84.1504
G01 X92.8558 Y84.2960
G01 X92.8516 Y84.3202
G01 X92.8462 Y84.3441
G01 X92.8104 Y84.4869
G01 X92.8039 Y84.5106
G01 X92.7962 Y84.5339
G01 X92.7466 Y84.6725
G01 X92.7378 Y84.6954
G01 X92.7278 Y84.7178
G01 X92.6649 Y84.8509
G01 X92.6538 Y84.8728
G01 X92.6417 Y84.8941
G01 X92.5661 Y85.0204
G01 X92.5529 Y85.0411
G01 X92.5388 Y85.0612
G01 X92.4511 Y85.1794
G01 X92.4360 Y85.1988
G01 X92.4200 Y85.2174
G01 X92.3211 Y85.3264
G01 X92.3042 Y85.3442
G01 X92.2793 Y85.3676
G01 X92.2793 Y89.6932
G01 X92.3753 Y89.7803
G01 X92.3931 Y89.7972
G01 X92.4100 Y89.8150
G01 X92.5089 Y89.9240
G01 X92.5249 Y89.9426
G01 X92.5400 Y89.9620
G01 X92.6277 Y90.0802
G01 X92.6418 Y90.1003
G01 X92.6550 Y90.1210
G01 X92.7306 Y90.2473
G01 X92.7427 Y90.2686
G01 X92.7538 Y90.2905
G01 X92.8167 Y90.4236
G01 X92.8267 Y90.4460
G01 X92.8355 Y90.4689
G01 X92.8851 Y90.6075
G01 X92.8928 Y90.6308
G01 X92.8993 Y90.6545
G01 X92.9351 Y90.7973
G01 X92.9405 Y90.8212
G01 X92.9447 Y90.8454
G01 X92.9663 Y90.9910
G01 X92.9693 Y91.0154
G01 X92.9711 Y91.0398
G01 X92.9783 Y91.1869
G01 X92.9789 Y91.2114
G01 X92.9783 Y91.2359
G01 X92.9703 Y91.3952
G01 X92.9693 Y91.4074
G01 X92.9663 Y91.4318
G01 X92.9447 Y91.5774
G01 X92.9405 Y91.6016
G01 X92.9351 Y91.6255
G01 X92.8993 Y91.7683
G01 X92.8928 Y91.7920
G01 X92.8851 Y91.8153
G01 X92.8355 Y91.9539
G01 X92.8267 Y91.9768
G01 X92.8167 Y91.9992
G01 X92.7538 Y92.1323
G01 X92.7427 Y92.1542
G01 X92.7306 Y92.1755
G01 X92.6550 Y92.3018
G01 X92.6418 Y92.3225
G01 X92.6277 Y92.3426
G01 X92.5400 Y92.4608
G01 X92.5249 Y92.4802
G01 X92.5089 Y92.4988
G01 X92.4100 Y92.6078
G01 X92.3931 Y92.6256
G01 X92.3753 Y92.6425
G01 X92.2663 Y92.7414
G01 X92.2477 Y92.7574
G01 X92.2283 Y92.7725
G01 X92.1101 Y92.8602
G01 X92.0900 Y92.8743
G01 X92.0693 Y92.8875
G01 X91.9430 Y92.9631
G01 X91.9217 Y92.9752
G01 X91.8998 Y92.9863
G01 X91.7667 Y93.0492
G01 X91.7443 Y93.0592
G01 X91.7214 Y93.0680
G01 X91.5828 Y93.1176
G01 X91.5595 Y93.1253
G01 X91.5358 Y93.1318
G01 X91.3930 Y93.1676
G01 X91.3691 Y93.1730
G01 X91.3449 Y93.1772
G01 X91.1993 Y93.1988
G01 X91.1749 Y93.2018
G01 X91.1505 Y93.2036
G01 X91.0034 Y93.2108
G01 X90.9789 Y93.2114
G01 X90.9544 Y93.2108
G01 X90.8073 Y93.2036
G01 X90.7829 Y93.2018
G01 X90.7585 Y93.1988
G01 X90.6129 Y93.1772
G01 X90.5887 Y93.1730
G01 X90.5648 Y93.1676
G01 X90.4220 Y93.1318
G01 X90.3983 Y93.1253
G01 X90.3750 Y93.1176
G01 X90.2364 Y93.0680
G01 X90.2135 Y93.0592
G01 X90.1911 Y93.0492
G01 X90.0580 Y92.9863
G01 X90.0361 Y92.9752
G01 X90.0148 Y92.9631
G01 X89.8885 Y92.8875
G01 X89.8678 Y92.8743
G01 X89.8477 Y92.8602
G01 X89.7295 Y92.7725
G01 X89.7101 Y92.7574
G01 X89.6915 Y92.7414
G01 X89.5825 Y92.6425
G01 X89.5647 Y92.6256
G01 X89.5478 Y92.6078
G01 X89.4489 Y92.4988
G01 X89.4329 Y92.4802
G01 X89.4178 Y92.4608
G01 X89.3301 Y92.3426
G01 X89.3160 Y92.3225
G01 X89.3028 Y92.3018
G01 X89.2272 Y92.1755
G01 X89.2151 Y92.1542
G01 X89.2040 Y92.1323
G01 X89.1411 Y91.9992
G01 X89.1311 Y91.9768
G01 X89.1223 Y91.9539
G01 X89.0727 Y91.8153
G01 X89.0650 Y91.7920
G01 X89.0585 Y91.7683
G01 X89.0227 Y91.6255
G01 X89.0173 Y91.6016
G01 X89.0131 Y91.5774
G01 X88.9915 Y91.4318
G01 X88.9885 Y91.4074
G01 X88.9867 Y91.3830
G01 X88.9795 Y91.2359
G01 X88.9789 Y91.2114
G01 X88.9795 Y91.1869
G01 X88.9867 Y91.0398
G01 X88.9885 Y91.0154
G01 X88.9915 Y90.9910
G01 X89.0131 Y90.8454
G01 X89.0173 Y90.8212
G01 X89.0227 Y90.7973
G01 X89.0585 Y90.6545
G01 X89.0650 Y90.6308
G01 X89.0727 Y90.6075
G01 X89.1223 Y90.4689
G01 X89.1311 Y90.4460
G01 X89.1411 Y90.4236
G01 X89.2040 Y90.2905
G01 X89.2151 Y90.2686
G01 X89.2272 Y90.2473
G01 X89.3028 Y90.1210
G01 X89.3160 Y90.1003
G01 X89.3301 Y90.0802
G01 X89.4178 Y89.9620
G01 X89.4329 Y89.9426
G01 X89.4489 Y89.9240
G01 X89.5478 Y89.8150
G01 X89.5647 Y89.7972
G01 X89.5825 Y89.7803
G01 X89.6785 Y89.6932
G00 Z2.0000
G00 X108.2189 Y92.7114
G01 F60.00
G01 Z-0.1500
G01 F100.00
G01 X108.2183 Y92.7359
G01 X108.2165 Y92.7604
G01 X108.2135 Y92.7848
G01 X108.2093 Y92.8089
G01 X108.2039 Y92.8329
G01 X108.1974 Y92.8565
G01 X108.1897 Y92.8798
G01 X108.1808 Y92.9027
G01 X108.1709 Y92.9252
G01 X108.1599 Y92.9471
G01 X108.1478 Y92.9685
G01 X108.1413 Y92.9789
G01 X108.1277 Y92.9993
G01 X108.1131 Y93.0190
G01 X108.0975 Y93.0380
G01 X108.0810 Y93.0562
G01 X108.0637 Y93.0735
G01 X108.0455 Y93.0900
G01 X108.0265 Y93.1056
G01 X108.0068 Y93.1202
G01 X107.9864 Y93.1338
G01 X107.9653 Y93.1464
G01 X107.9437 Y93.1580
G01 X107.9215 Y93.1685
G01 X107.8988 Y93.1779
G01 X107.8757 Y93.1862
G01 X107.8523 Y93.1933
G01 X107.8404 Y93.1964
G01 X107.8164 Y93.2018
G01 X107.7923 Y93.2060
G01 X107.7679 Y93.2090
G01 X107.7434 Y93.2108
G01 X107.7189 Y93.2114
G01 X104.7189 Y93.2114
G01 X104.7066 Y93.2112
G01 X104.6821 Y93.2100
G01 X104.6577 Y93.2076
G01 X104.6455 Y93.2060
G01 X104.6214 Y93.2018
G01 X104.5974 Y93.1964
G01 X104.5855 Y93.1933
G01 X104.5621 Y93.1862
G01 X104.5505 Y93.1822
G01 X104.5276 Y93.1733
G01 X104.5051 Y93.1634
G01 X104.4941 Y93.1580
G01 X104.4725 Y93.1464
G01 X104.4514 Y93.1338
G01 X104.4310 Y93.1202
G01 X104.4113 Y93.1056
G01 X104.4017 Y93.0979
G01 X104.3923 Y93.0900
G01 X104.3741 Y93.0735
G01 X104.3653 Y93.0650
G01 X104.3484 Y93.0472
G01 X104.3324 Y93.0286
G01 X104.3247 Y93.0190
G01 X104.3101 Y92.9993
G01 X104.2965 Y92.9789
G01 X104.2900 Y92.9685
G01 X104.2779 Y92.9471
G01 X104.2669 Y92.9252
G01 X104.2570 Y92.9027
G01 X104.2524 Y92.8913
G01 X104.2441 Y92.8682
G01 X104.2370 Y92.8448
G01 X104.2310 Y92.8210
G01 X104.2285 Y92.8089
G01 X104.2243 Y92.7848
G01 X104.2213 Y92.7604
G01 X104.2203 Y92.7482
G01 X104.2191 Y92.7237
G01 X104.2189 Y89.7114
G01 X104.2195 Y89.6869
G01 X104.2213 Y89.6624
G01 X104.2227 Y89.6502
G01 X104.2263 Y89.6259
G01 X104.2310 Y89.6018
G01 X104.2370 Y89.5780
G01 X104.2404 Y89.5663
G01 X104.2481 Y89.5430
G01 X104.2570 Y89.5201
G01 X104.2669 Y89.4976
G01 X104.2779 Y89.4757
G01 X104.2900 Y89.4543
G01 X104.2965 Y89.4439
G01 X104.3101 Y89.4235
G01 X104.3247 Y89.4038
G01 X104.3324 Y89.3942
G01 X104.3484 Y89.3756
G01 X104.3653 Y89.3578
G01 X104.3741 Y89.3493
G01 X104.3923 Y89.3328
G01 X104.4113 Y89.3172
G01 X104.4310 Y89.3026
G01 X104.4514 Y89.2890
G01 X104.4725 Y89.2764
G01 X104.4941 Y89.2648
G01 X104.5163 Y89.2543
G01 X104.5390 Y89.2449
G01 X104.5621 Y89.2366
G01 X104.5855 Y89.2295
G01 X104.6093 Y89.2235
G01 X104.6334 Y89.2188
G01 X104.6577 Y89.2152
G01 X104.6699 Y89.2138
G01 X104.6821 Y89.2128
G01 X104.7066 Y89.2116
G01 X104.9185 Y89.2114
G01 X104.9185 Y85.9300
G01 X104.6300 Y85.9300
G01 X104.6055 Y85.9294
G01 X104.5810 Y85.9276
G01 X104.5566 Y85.9246
G01 X104.5325 Y85.9204
G01 X104.5085 Y85.9150
G01 X104.4849 Y85.9085
G01 X104.4616 Y85.9008
G01 X104.4501 Y85.8965
G01 X104.4274 Y85.8871
G01 X104.4052 Y85.8766
G01 X104.3943 Y85.8710
G01 X104.3729 Y85.8589
G01 X104.3522 Y85.8457
G01 X104.3322 Y85.8316
G01 X104.3128 Y85.8165
G01 X104.2942 Y85.8005
G01 X104.2764 Y85.7836
G01 X104.2595 Y85.7658
G01 X104.2514 Y85.7566
G01 X104.2358 Y85.7376
G01 X104.2212 Y85.7179
G01 X104.2143 Y85.7078
G01 X104.2011 Y85.6871
G01 X104.1890 Y85.6657
G01 X104.1780 Y85.6438
G01 X104.1681 Y85.6213
G01 X104.1635 Y85.6099
G01 X104.1552 Y85.5868
G01 X104.1481 Y85.5634
G01 X104.1421 Y85.5395
G01 X104.1374 Y85.5155
G01 X104.1338 Y85.4912
G01 X104.1314 Y85.4668
G01 X104.1302 Y85.4423
G01 X104.1300 Y85.4300
G01 X104.1300 Y82.4300
G01 X104.1306 Y82.4055
G01 X104.1324 Y82.3810
G01 X104.1338 Y82.3688
G01 X104.1374 Y82.3445
G01 X104.1421 Y82.3204
G01 X104.1481 Y82.2966
G01 X104.1515 Y82.2849
G01 X104.1592 Y82.2616
G01 X104.1681 Y82.2387
G01 X104.1780 Y82.2162
G01 X104.1890 Y82.1943
G01 X104.1950 Y82.1836
G01 X104.2076 Y82.1625
G01 X104.2212 Y82.1421
G01 X104.2358 Y82.1224
G01 X104.2435 Y82.1128
G01 X104.2595 Y82.0942
G01 X104.2764 Y82.0764
G01 X104.2852 Y82.0679
G01 X104.3034 Y82.0514
G01 X104.3224 Y82.0358
G01 X104.3421 Y82.0212
G01 X104.3522 Y82.0143
G01 X104.3729 Y82.0011
G01 X104.3943 Y81.9890
G01 X104.4162 Y81.9780
G01 X104.4274 Y81.9729
G01 X104.4501 Y81.9635
G01 X104.4732 Y81.9552
G01 X104.4966 Y81.9481
G01 X104.5204 Y81.9421
G01 X104.5445 Y81.9374
G01 X104.5688 Y81.9338
G01 X104.5810 Y81.9324
G01 X104.5932 Y81.9314
G01 X104.6177 Y81.9301
G01 X104.8296 Y81.9300
G01 X104.8296 Y79.9136
G01 X97.7428 Y72.8268
G01 X85.2639 Y72.8268
G01 X85.2394 Y72.8262
G01 X85.1609 Y72.8223
G01 X85.1364 Y72.8205
G01 X85.1121 Y72.8175
G01 X85.0223 Y72.8041
G01 X85.0102 Y72.8018
G01 X84.9863 Y72.7964
G01 X84.9101 Y72.7774
G01 X84.8864 Y72.7708
G01 X84.8747 Y72.7671
G01 X84.7892 Y72.7366
G01 X84.7663 Y72.7278
G01 X84.7438 Y72.7179
G01 X84.6728 Y72.6843
G01 X84.6509 Y72.6733
G01 X84.6295 Y72.6612
G01 X84.5622 Y72.6208
G01 X84.5414 Y72.6076
G01 X84.5214 Y72.5935
G01 X84.4583 Y72.5467
G01 X84.4389 Y72.5316
G01 X84.4204 Y72.5156
G01 X84.3622 Y72.4628
G01 X84.3444 Y72.4459
G01 X84.3275 Y72.4281
G01 X84.2747 Y72.3699
G01 X84.2587 Y72.3514
G01 X84.2436 Y72.3320
G01 X84.1968 Y72.2689
G01 X84.1827 Y72.2489
G01 X84.1695 Y72.2281
G01 X84.1291 Y72.1608
G01 X84.1170 Y72.1394
G01 X84.1060 Y72.1175
G01 X84.0724 Y72.0465
G01 X84.0625 Y72.0240
G01 X84.0537 Y72.0011
G01 X84.0232 Y71.9156
G01 X84.0161 Y71.8921
G01 X84.0129 Y71.8802
G01 X83.9939 Y71.8040
G01 X83.9885 Y71.7801
G01 X83.9843 Y71.7559
G01 X83.9728 Y71.6782
G01 X83.9698 Y71.6539
G01 X83.9680 Y71.6294
G01 X83.9641 Y71.5509
G01 X83.9635 Y71.5264
G01 X83.9641 Y71.5019
G01 X83.9687 Y71.4112
G01 X83.9711 Y71.3867
G01 X83.9728 Y71.3746
G01 X83.9843 Y71.2969
G01 X83.9862 Y71.2848
G01 X83.9910 Y71.2607
G01 X84.0129 Y71.1726
G01 X84.0195 Y71.1489
G01 X84.0272 Y71.1256
G01 X84.0537 Y71.0517
G01 X84.0625 Y71.0288
G01 X84.0724 Y71.0063
G01 X84.1060 Y70.9353
G01 X84.1170 Y70.9134
G01 X84.1291 Y70.8920
G01 X84.1695 Y70.8247
G01 X84.1827 Y70.8039
G01 X84.1968 Y70.7839
G01 X84.2436 Y70.7208
G01 X84.2587 Y70.7014
G01 X84.2747 Y70.6829
G01 X84.3275 Y70.6247
G01 X84.3444 Y70.6069
G01 X84.3622 Y70.5900
G01 X84.4204 Y70.5372
G01 X84.4389 Y70.5212
G01 X84.4583 Y70.5061
G01 X84.5214 Y70.4593
G01 X84.5414 Y70.4452
G01 X84.5622 Y70.4320
G01 X84.6295 Y70.3916
G01 X84.6509 Y70.3795
G01 X84.6728 Y70.3685
G01 X84.7438 Y70.3349
G01 X84.7663 Y70.3250
G01 X84.7892 Y70.3162
G01 X84.8631 Y70.2897
G01 X84.8864 Y70.2820
G01 X84.9101 Y70.2754
G01 X84.9863 Y70.2564
G01 X85.0102 Y70.2510
G01 X85.0344 Y70.2468
G01 X85.1121 Y70.2353
G01 X85.1364 Y70.2323
G01 X85.1609 Y70.2305
G01 X85.2394 Y70.2266
G01 X85.2639 Y70.2260
G01 X98.2937 Y70.2262
G01 X98.3844 Y70.2305
G01 X98.4089 Y70.2323
G01 X98.4332 Y70.2353
G01 X98.5109 Y70.2468
G01 X98.5351 Y70.2510
G01 X98.5590 Y70.2564
G01 X98.6352 Y70.2754
G01 X98.6589 Y70.2820
G01 X98.6822 Y70.2897
G01 X98.7561 Y70.3162
G01 X98.7790 Y70.3250
G01 X98.8015 Y70.3349
G01 X98.8725 Y70.3685
G01 X98.8944 Y70.3795
G01 X98.9158 Y70.3916
G01 X98.9831 Y70.4320
G01 X99.0039 Y70.4452
G01 X99.0239 Y70.4593
G01 X99.0870 Y70.5061
G01 X99.1064 Y70.5212
G01 X99.1249 Y70.5372
G01 X99.1831 Y70.5900
G01 X99.2009 Y70.6069
G01 X107.0495 Y78.4555
G01 X107.0664 Y78.4733
G01 X107.1192 Y78.5315
G01 X107.1352 Y78.5500
G01 X107.1503 Y78.5694
G01 X107.1971 Y78.6325
G01 X107.2112 Y78.6525
G01 X107.2244 Y78.6733
G01 X107.2648 Y78.7406
G01 X107.2769 Y78.7620
G01 X107.2879 Y78.7839
G01 X107.3215 Y78.8549
G01 X107.3314 Y78.8774
G01 X107.3402 Y78.9003
G01 X107.3667 Y78.9742
G01 X107.3744 Y78.9975
G01 X107.3810 Y79.0212
G01 X107.4000 Y79.0974
G01 X107.4054 Y79.1213
G01 X107.4096 Y79.1455
G01 X107.4211 Y79.2232
G01 X107.4241 Y79.2475
G01 X107.4259 Y79.2720
G01 X107.4302 Y79.3627
G01 X107.4304 Y81.9300
G01 X107.6423 Y81.9301
G01 X107.6668 Y81.9314
G01 X107.6790 Y81.9324
G01 X107.7034 Y81.9354
G01 X107.7155 Y81.9374
G01 X107.7396 Y81.9421
G01 X107.7515 Y81.9450
G01 X107.7751 Y81.9515
G01 X107.7984 Y81.9592
G01 X107.8213 Y81.9681
G01 X107.8438 Y81.9780
G01 X107.8657 Y81.9890
G01 X107.8871 Y82.0011
G01 X107.9078 Y82.0143
G01 X107.9278 Y82.0284
G01 X107.9472 Y82.0435
G01 X107.9658 Y82.0595
G01 X107.9748 Y82.0679
G01 X107.9921 Y82.0852
G01 X108.0086 Y82.1034
G01 X108.0242 Y82.1224
G01 X108.0316 Y82.1321
G01 X108.0457 Y82.1522
G01 X108.0589 Y82.1729
G01 X108.0650 Y82.1836
G01 X108.0766 Y82.2052
G01 X108.0820 Y82.2162
G01 X108.0919 Y82.2387
G01 X108.1008 Y82.2616
G01 X108.1085 Y82.2849
G01 X108.1150 Y82.3085
G01 X108.1204 Y82.3325
G01 X108.1246 Y82.3566
G01 X108.1262 Y82.3688
G01 X108.1286 Y82.3932
G01 X108.1294 Y82.4055
G01 X108.1300 Y82.4300
G01 X108.1300 Y85.4300
G01 X108.1294 Y85.4545
G01 X108.1276 Y85.4790
G01 X108.1246 Y85.5034
G01 X108.1226 Y85.5155
G01 X108.1179 Y85.5395
G01 X108.1119 Y85.5634
G01 X108.1048 Y85.5868
G01 X108.0965 Y85.6099
G01 X108.0871 Y85.6326
G01 X108.0766 Y85.6548
G01 X108.0650 Y85.6764
G01 X108.0524 Y85.6975
G01 X108.0388 Y85.7179
G01 X108.0242 Y85.7376
G01 X108.0086 Y85.7566
G01 X107.9921 Y85.7748
G01 X107.9748 Y85.7921
G01 X107.9566 Y85.8086
G01 X107.9376 Y85.8242
G01 X107.9179 Y85.8388
G01 X107.8975 Y85.8524
G01 X107.8764 Y85.8650
G01 X107.8548 Y85.8766
G01 X107.8326 Y85.8871
G01 X107.8099 Y85.8965
G01 X107.7868 Y85.9048
G01 X107.7634 Y85.9119
G01 X107.7396 Y85.9178
G01 X107.7155 Y85.9226
G01 X107.6912 Y85.9262
G01 X107.6668 Y85.9286
G01 X107.6545 Y85.9294
G01 X107.6300 Y85.9300
G01 X107.5193 Y85.9300
G01 X107.5193 Y89.2114
G01 X107.7312 Y89.2116
G01 X107.7557 Y89.2128
G01 X107.7801 Y89.2152
G01 X107.7923 Y89.2168
G01 X107.8164 Y89.2210
G01 X107.8404 Y89.2264
G01 X107.8640 Y89.2329
G01 X107.8873 Y89.2406
G01 X107.9102 Y89.2495
G01 X107.9327 Y89.2594
G01 X107.9546 Y89.2704
G01 X107.9760 Y89.2825
G01 X107.9967 Y89.2957
G01 X108.0167 Y89.3098
G01 X108.0361 Y89.3249
G01 X108.0547 Y89.3409
G01 X108.0637 Y89.3493
G01 X108.0810 Y89.3666
G01 X108.0975 Y89.3848
G01 X108.1131 Y89.4038
G01 X108.1277 Y89.4235
G01 X108.1413 Y89.4439
G01 X108.1539 Y89.4650
G01 X108.1655 Y89.4866
G01 X108.1709 Y89.4976
G01 X108.1808 Y89.5201
G01 X108.1897 Y89.5430
G01 X108.1974 Y89.5663
G01 X108.2039 Y89.5899
G01 X108.2093 Y89.6139
G01 X108.2135 Y89.6380
G01 X108.2165 Y89.6624
G01 X108.2183 Y89.6869
G01 X108.2189 Y89.7114
G01 X108.2189 Y92.7114
G00 Z2.0000
M05
G00 Z2.0000
G00 Z20.00


