(G-CODE GENERATED BY FLATCAM v8.994 - www.flatcam.org - Version Date: 2020/11/7)

(Name: copper_06_cnc)
(Type: G-code from Geometry)
(Units: MM)

(Created on Saturday, 21 November 2020 at 18:07)

(This preprocessor is the default preprocessor used by FlatCAM.)
(It is made to work with MACH3 compatible motion controllers.)

(TOOL DIAMETER: 0.6 mm)
(Feedrate_XY: 100.0 mm/min)
(Feedrate_Z: 60.0 mm/min)
(Feedrate rapids 150.0 mm/min)

(Z_Cut: -0.15 mm)
(Z_Move: 2.0 mm)
(Z Start: None mm)
(Z End: 20.0 mm)
(X,Y End: None mm)
(Steps per circle: 64)
(Preprocessor Geometry: default)

(X range:    1.4749 ...  141.2501  mm)
(Y range:    0.7199 ...   93.0114  mm)

(Spindle Speed: 12000.0 RPM)
G21
G90
G94

G01 F100.00

M5
G00 Z20.0000
G00 X0.0000 Y0.0000
T1
M6    
(MSG, Change to Tool Dia = 0.6000)
M0
G00 Z20.0000

M03 S12000.0
G01 F100.00
G00 X13.3192 Y17.4184
G01 F60.00
G01 Z-0.1500
G01 F100.00
G01 X13.1983 Y17.4124
G01 X13.1836 Y17.4113
G01 X13.1690 Y17.4095
G01 X13.0233 Y17.3879
G01 X13.0088 Y17.3854
G01 X12.9945 Y17.3822
G01 X12.8517 Y17.3464
G01 X12.8375 Y17.3425
G01 X12.8235 Y17.3379
G01 X12.6849 Y17.2883
G01 X12.6644 Y17.2801
G01 X12.5246 Y17.2141
G01 X12.5115 Y17.2075
G01 X12.4987 Y17.2002
G01 X12.3724 Y17.1245
G01 X12.3600 Y17.1166
G01 X12.3479 Y17.1082
G01 X12.2297 Y17.0205
G01 X12.2181 Y17.0114
G01 X12.2069 Y17.0018
G01 X12.0979 Y16.9029
G01 X12.0821 Y16.8875
G01 X11.9782 Y16.7731
G01 X11.9686 Y16.7619
G01 X11.9595 Y16.7503
G01 X11.8718 Y16.6321
G01 X11.8634 Y16.6200
G01 X11.8555 Y16.6076
G01 X11.7798 Y16.4813
G01 X11.7725 Y16.4685
G01 X11.7659 Y16.4554
G01 X11.7030 Y16.3223
G01 X11.6970 Y16.3088
G01 X11.6917 Y16.2951
G01 X11.6421 Y16.1565
G01 X11.6375 Y16.1425
G01 X11.6336 Y16.1283
G01 X11.5978 Y15.9855
G01 X11.5946 Y15.9712
G01 X11.5921 Y15.9567
G01 X11.5705 Y15.8110
G01 X11.5687 Y15.7964
G01 X11.5676 Y15.7817
G01 X11.5604 Y15.6347
G01 X11.5601 Y15.6126
G01 X11.5676 Y15.4583
G01 X11.5687 Y15.4436
G01 X11.5705 Y15.4290
G01 X11.5921 Y15.2833
G01 X11.5946 Y15.2688
G01 X11.5978 Y15.2545
G01 X11.6336 Y15.1117
G01 X11.6375 Y15.0975
G01 X11.6421 Y15.0835
G01 X11.6917 Y14.9449
G01 X11.6970 Y14.9312
G01 X11.7030 Y14.9177
G01 X11.7659 Y14.7846
G01 X11.7725 Y14.7715
G01 X11.7798 Y14.7587
G01 X11.8555 Y14.6324
G01 X11.8634 Y14.6200
G01 X11.8718 Y14.6079
G01 X11.9595 Y14.4897
G01 X11.9686 Y14.4781
G01 X11.9782 Y14.4669
G01 X12.0771 Y14.3579
G01 X12.0872 Y14.3472
G01 X12.0979 Y14.3371
G01 X12.2069 Y14.2382
G01 X12.2181 Y14.2286
G01 X12.2297 Y14.2195
G01 X12.3479 Y14.1318
G01 X12.3600 Y14.1234
G01 X12.3724 Y14.1155
G01 X12.4987 Y14.0398
G01 X12.5115 Y14.0325
G01 X12.5246 Y14.0259
G01 X12.6577 Y13.9630
G01 X12.6712 Y13.9570
G01 X12.6849 Y13.9517
G01 X12.8235 Y13.9021
G01 X12.8375 Y13.8975
G01 X12.8517 Y13.8936
G01 X12.9945 Y13.8578
G01 X13.0088 Y13.8546
G01 X13.0233 Y13.8521
G01 X13.1690 Y13.8305
G01 X13.1836 Y13.8287
G01 X13.1983 Y13.8276
G01 X13.3453 Y13.8204
G01 X13.3674 Y13.8201
G01 X13.5217 Y13.8276
G01 X13.5364 Y13.8287
G01 X13.5510 Y13.8305
G01 X13.6967 Y13.8521
G01 X13.7112 Y13.8546
G01 X13.7255 Y13.8578
G01 X13.8683 Y13.8936
G01 X13.8825 Y13.8975
G01 X13.8965 Y13.9021
G01 X14.0351 Y13.9517
G01 X14.0488 Y13.9570
G01 X14.0623 Y13.9630
G01 X14.1954 Y14.0259
G01 X14.2085 Y14.0325
G01 X14.2213 Y14.0398
G01 X14.3476 Y14.1155
G01 X14.3600 Y14.1234
G01 X14.3721 Y14.1318
G01 X14.4903 Y14.2195
G01 X14.5019 Y14.2286
G01 X14.5131 Y14.2382
G01 X14.6221 Y14.3371
G01 X14.6328 Y14.3472
G01 X14.6429 Y14.3579
G01 X14.7418 Y14.4669
G01 X14.7514 Y14.4781
G01 X14.7605 Y14.4897
G01 X14.8482 Y14.6079
G01 X14.8566 Y14.6200
G01 X14.8645 Y14.6324
G01 X14.9402 Y14.7587
G01 X14.9475 Y14.7715
G01 X14.9541 Y14.7846
G01 X15.0170 Y14.9177
G01 X15.0230 Y14.9312
G01 X15.0283 Y14.9449
G01 X15.0779 Y15.0835
G01 X15.0825 Y15.0975
G01 X15.0864 Y15.1117
G01 X15.1222 Y15.2545
G01 X15.1254 Y15.2688
G01 X15.1279 Y15.2833
G01 X15.1495 Y15.4290
G01 X15.1513 Y15.4436
G01 X15.1524 Y15.4583
G01 X15.1584 Y15.5792
G01 X25.3287 Y25.7495
G01 X27.8549 Y25.7495
G01 X27.8865 Y25.7307
G01 X27.8994 Y25.7237
G01 X28.0192 Y25.6671
G01 X28.0397 Y25.6589
G01 X28.1506 Y25.6192
G01 X28.1716 Y25.6125
G01 X28.2930 Y25.5820
G01 X28.3074 Y25.5788
G01 X28.3219 Y25.5763
G01 X28.4384 Y25.5590
G01 X28.4530 Y25.5572
G01 X28.4677 Y25.5561
G01 X28.5853 Y25.5504
G01 X28.6074 Y25.5501
G01 X28.7323 Y25.5561
G01 X28.7470 Y25.5572
G01 X28.7616 Y25.5590
G01 X28.8781 Y25.5763
G01 X28.8926 Y25.5788
G01 X28.9070 Y25.5820
G01 X29.0212 Y25.6107
G01 X29.0354 Y25.6146
G01 X29.0494 Y25.6192
G01 X29.1603 Y25.6589
G01 X29.1740 Y25.6642
G01 X29.1875 Y25.6701
G01 X29.2939 Y25.7205
G01 X29.3071 Y25.7271
G01 X29.3199 Y25.7344
G01 X29.4209 Y25.7949
G01 X29.4334 Y25.8028
G01 X29.4454 Y25.8113
G01 X29.5400 Y25.8814
G01 X29.5572 Y25.8952
G01 X29.6500 Y25.9792
G01 X29.6607 Y25.9893
G01 X29.6708 Y26.0000
G01 X29.7499 Y26.0873
G01 X29.7595 Y26.0984
G01 X29.7686 Y26.1100
G01 X29.8387 Y26.2046
G01 X29.8472 Y26.2166
G01 X29.8551 Y26.2291
G01 X29.9156 Y26.3301
G01 X29.9229 Y26.3429
G01 X29.9295 Y26.3561
G01 X29.9799 Y26.4625
G01 X29.9858 Y26.4760
G01 X29.9911 Y26.4897
G01 X30.0308 Y26.6006
G01 X30.0354 Y26.6146
G01 X30.0393 Y26.6288
G01 X30.0680 Y26.7430
G01 X30.0712 Y26.7574
G01 X30.0737 Y26.7719
G01 X30.0910 Y26.8884
G01 X30.0928 Y26.9030
G01 X30.0939 Y26.9177
G01 X30.0996 Y27.0353
G01 X30.1000 Y27.0500
G01 X30.0996 Y27.0647
G01 X30.0939 Y27.1823
G01 X30.0928 Y27.1970
G01 X30.0910 Y27.2116
G01 X30.0737 Y27.3281
G01 X30.0712 Y27.3426
G01 X30.0680 Y27.3570
G01 X30.0393 Y27.4712
G01 X30.0354 Y27.4854
G01 X30.0308 Y27.4994
G01 X29.9911 Y27.6103
G01 X29.9858 Y27.6240
G01 X29.9799 Y27.6375
G01 X29.9295 Y27.7439
G01 X29.9229 Y27.7571
G01 X29.9156 Y27.7699
G01 X29.8512 Y27.8772
G01 X29.8387 Y27.8954
G01 X29.7686 Y27.9900
G01 X29.7595 Y28.0016
G01 X29.7499 Y28.0127
G01 X29.6708 Y28.1000
G01 X29.6607 Y28.1107
G01 X29.6500 Y28.1208
G01 X29.5627 Y28.1999
G01 X29.5516 Y28.2095
G01 X29.5400 Y28.2186
G01 X29.4454 Y28.2887
G01 X29.4334 Y28.2972
G01 X29.4209 Y28.3051
G01 X29.3199 Y28.3656
G01 X29.3071 Y28.3729
G01 X29.2939 Y28.3795
G01 X29.1875 Y28.4299
G01 X29.1740 Y28.4358
G01 X29.1603 Y28.4411
G01 X29.0494 Y28.4808
G01 X29.0354 Y28.4854
G01 X29.0212 Y28.4893
G01 X28.9070 Y28.5180
G01 X28.8926 Y28.5212
G01 X28.8781 Y28.5237
G01 X28.7616 Y28.5410
G01 X28.7470 Y28.5428
G01 X28.7323 Y28.5439
G01 X28.6147 Y28.5496
G01 X28.6000 Y28.5500
G01 X28.5853 Y28.5496
G01 X28.4677 Y28.5439
G01 X28.4530 Y28.5428
G01 X28.4384 Y28.5410
G01 X28.3219 Y28.5237
G01 X28.3074 Y28.5212
G01 X28.2930 Y28.5180
G01 X28.1788 Y28.4893
G01 X28.1646 Y28.4854
G01 X28.1506 Y28.4808
G01 X28.0397 Y28.4411
G01 X28.0260 Y28.4358
G01 X28.0125 Y28.4299
G01 X27.8994 Y28.3763
G01 X27.8865 Y28.3693
G01 X27.8549 Y28.3505
G01 X24.7900 Y28.3505
G01 X24.7753 Y28.3501
G01 X24.6772 Y28.3453
G01 X24.6625 Y28.3442
G01 X24.6479 Y28.3424
G01 X24.5508 Y28.3280
G01 X24.5363 Y28.3255
G01 X24.5219 Y28.3223
G01 X24.4267 Y28.2984
G01 X24.4125 Y28.2945
G01 X24.3985 Y28.2899
G01 X24.3061 Y28.2568
G01 X24.2923 Y28.2515
G01 X24.2789 Y28.2455
G01 X24.1901 Y28.2036
G01 X24.1769 Y28.1969
G01 X24.1641 Y28.1897
G01 X24.0737 Y28.1353
G01 X24.0554 Y28.1228
G01 X23.9766 Y28.0644
G01 X23.9650 Y28.0553
G01 X23.9538 Y28.0457
G01 X23.8811 Y27.9797
G01 X23.8704 Y27.9696
G01 X13.3192 Y17.4184
G00 Z2.0000
G00 X33.6495 Y14.3772
G01 F60.00
G01 Z-0.1500
G01 F100.00
G01 X33.6496 Y13.4913
G01 X33.6547 Y13.3859
G01 X33.6558 Y13.3712
G01 X33.6576 Y13.3566
G01 X33.6731 Y13.2522
G01 X33.6777 Y13.2306
G01 X33.7016 Y13.1354
G01 X33.7055 Y13.1212
G01 X33.7101 Y13.1072
G01 X33.7432 Y13.0147
G01 X33.7485 Y13.0010
G01 X33.7545 Y12.9875
G01 X33.7964 Y12.8988
G01 X33.8031 Y12.8856
G01 X33.8103 Y12.8728
G01 X33.8608 Y12.7886
G01 X33.8687 Y12.7762
G01 X33.8772 Y12.7641
G01 X33.9356 Y12.6853
G01 X33.9447 Y12.6737
G01 X33.9543 Y12.6625
G01 X34.0203 Y12.5898
G01 X34.0304 Y12.5791
G01 X36.9891 Y9.6204
G01 X36.9998 Y9.6103
G01 X37.0780 Y9.5394
G01 X37.0953 Y9.5256
G01 X37.1741 Y9.4672
G01 X37.1862 Y9.4587
G01 X37.1986 Y9.4508
G01 X37.2828 Y9.4003
G01 X37.2956 Y9.3931
G01 X37.3088 Y9.3864
G01 X37.3975 Y9.3445
G01 X37.4110 Y9.3385
G01 X37.4247 Y9.3332
G01 X37.5172 Y9.3001
G01 X37.5312 Y9.2955
G01 X37.5454 Y9.2916
G01 X37.6406 Y9.2677
G01 X37.6550 Y9.2645
G01 X37.6695 Y9.2620
G01 X37.7666 Y9.2476
G01 X37.7812 Y9.2458
G01 X37.7959 Y9.2447
G01 X37.8940 Y9.2399
G01 X37.9087 Y9.2395
G01 X71.6960 Y9.2395
G01 X71.7107 Y9.2399
G01 X71.8088 Y9.2447
G01 X71.8308 Y9.2466
G01 X71.9352 Y9.2620
G01 X71.9497 Y9.2645
G01 X71.9641 Y9.2677
G01 X72.0593 Y9.2916
G01 X72.0735 Y9.2955
G01 X72.0875 Y9.3001
G01 X72.1799 Y9.3332
G01 X72.1937 Y9.3385
G01 X72.2071 Y9.3445
G01 X72.2959 Y9.3864
G01 X72.3091 Y9.3931
G01 X72.3219 Y9.4003
G01 X72.4061 Y9.4508
G01 X72.4185 Y9.4587
G01 X72.4306 Y9.4672
G01 X72.5094 Y9.5256
G01 X72.5210 Y9.5347
G01 X72.5322 Y9.5443
G01 X72.6049 Y9.6103
G01 X72.6156 Y9.6204
G01 X76.0447 Y13.0495
G01 X78.2674 Y13.0496
G01 X78.3728 Y13.0547
G01 X78.3875 Y13.0558
G01 X78.4021 Y13.0576
G01 X78.4992 Y13.0720
G01 X78.5137 Y13.0745
G01 X78.5281 Y13.0777
G01 X78.6233 Y13.1016
G01 X78.6375 Y13.1055
G01 X78.6515 Y13.1101
G01 X78.7439 Y13.1432
G01 X78.7577 Y13.1485
G01 X78.7711 Y13.1545
G01 X78.8599 Y13.1964
G01 X78.8795 Y13.2066
G01 X78.9763 Y13.2647
G01 X78.9886 Y13.2728
G01 X79.0201 Y13.2961
G01 X79.0361 Y13.2968
G01 X79.0580 Y13.2992
G01 X79.0725 Y13.3018
G01 X79.0940 Y13.3069
G01 X79.1151 Y13.3135
G01 X79.1288 Y13.3188
G01 X79.1489 Y13.3280
G01 X79.1619 Y13.3350
G01 X79.1745 Y13.3425
G01 X79.1927 Y13.3550
G01 X79.2043 Y13.3641
G01 X79.2209 Y13.3787
G01 X79.2313 Y13.3891
G01 X79.2412 Y13.4000
G01 X79.2505 Y13.4114
G01 X79.2634 Y13.4293
G01 X79.2750 Y13.4481
G01 X79.2852 Y13.4677
G01 X79.2939 Y13.4880
G01 X79.3011 Y13.5089
G01 X79.3067 Y13.5303
G01 X79.3108 Y13.5520
G01 X79.3132 Y13.5739
G01 X79.3139 Y13.5899
G01 X79.3372 Y13.6214
G01 X79.3453 Y13.6337
G01 X79.3997 Y13.7241
G01 X79.4103 Y13.7435
G01 X79.4555 Y13.8389
G01 X79.4615 Y13.8523
G01 X79.4668 Y13.8661
G01 X79.5023 Y13.9655
G01 X79.5084 Y13.9867
G01 X79.5323 Y14.0819
G01 X79.5355 Y14.0963
G01 X79.5380 Y14.1108
G01 X79.5524 Y14.2079
G01 X79.5542 Y14.2225
G01 X79.5553 Y14.2372
G01 X79.5601 Y14.3353
G01 X79.5605 Y14.3500
G01 X79.5601 Y14.3647
G01 X79.5553 Y14.4628
G01 X79.5542 Y14.4775
G01 X79.5524 Y14.4921
G01 X79.5380 Y14.5892
G01 X79.5355 Y14.6037
G01 X79.5323 Y14.6181
G01 X79.5084 Y14.7133
G01 X79.5023 Y14.7345
G01 X79.4668 Y14.8339
G01 X79.4615 Y14.8477
G01 X79.4555 Y14.8611
G01 X79.4103 Y14.9565
G01 X79.3997 Y14.9759
G01 X79.3453 Y15.0663
G01 X79.3372 Y15.0786
G01 X79.3139 Y15.1101
G01 X79.3126 Y15.1334
G01 X79.3096 Y15.1553
G01 X79.3050 Y15.1769
G01 X79.2989 Y15.1981
G01 X79.2912 Y15.2188
G01 X79.2852 Y15.2323
G01 X79.2786 Y15.2454
G01 X79.2675 Y15.2645
G01 X79.2550 Y15.2827
G01 X79.2412 Y15.3000
G01 X79.2313 Y15.3109
G01 X79.2209 Y15.3213
G01 X79.2100 Y15.3312
G01 X79.1927 Y15.3450
G01 X79.1807 Y15.3534
G01 X79.1682 Y15.3613
G01 X79.1489 Y15.3720
G01 X79.1356 Y15.3783
G01 X79.1220 Y15.3839
G01 X79.1081 Y15.3889
G01 X79.0869 Y15.3950
G01 X79.0725 Y15.3982
G01 X79.0507 Y15.4017
G01 X79.0361 Y15.4032
G01 X79.0201 Y15.4039
G01 X78.9886 Y15.4272
G01 X78.9763 Y15.4353
G01 X78.8859 Y15.4897
G01 X78.8665 Y15.5003
G01 X78.7711 Y15.5455
G01 X78.7577 Y15.5515
G01 X78.7439 Y15.5568
G01 X78.6515 Y15.5899
G01 X78.6304 Y15.5966
G01 X78.5281 Y15.6223
G01 X78.5137 Y15.6255
G01 X78.4992 Y15.6280
G01 X78.4021 Y15.6424
G01 X78.3875 Y15.6442
G01 X78.3728 Y15.6453
G01 X78.2674 Y15.6504
G01 X75.5060 Y15.6505
G01 X75.4913 Y15.6501
G01 X75.3932 Y15.6453
G01 X75.3785 Y15.6442
G01 X75.3639 Y15.6424
G01 X75.2668 Y15.6280
G01 X75.2523 Y15.6255
G01 X75.2379 Y15.6223
G01 X75.1427 Y15.5984
G01 X75.1285 Y15.5945
G01 X75.1145 Y15.5899
G01 X75.0221 Y15.5568
G01 X75.0083 Y15.5515
G01 X74.9949 Y15.5455
G01 X74.9061 Y15.5036
G01 X74.8929 Y15.4969
G01 X74.8801 Y15.4897
G01 X74.7959 Y15.4392
G01 X74.7835 Y15.4313
G01 X74.7714 Y15.4228
G01 X74.6926 Y15.3644
G01 X74.6810 Y15.3553
G01 X74.6698 Y15.3457
G01 X74.5917 Y15.2747
G01 X71.1573 Y11.8405
G01 X38.4474 Y11.8405
G01 X36.2505 Y14.0374
G01 X36.2505 Y14.3772
G01 X36.3318 Y14.4669
G01 X36.3414 Y14.4781
G01 X36.3505 Y14.4897
G01 X36.4382 Y14.6079
G01 X36.4466 Y14.6200
G01 X36.4545 Y14.6324
G01 X36.5302 Y14.7587
G01 X36.5375 Y14.7715
G01 X36.5441 Y14.7846
G01 X36.6101 Y14.9244
G01 X36.6183 Y14.9449
G01 X36.6679 Y15.0835
G01 X36.6725 Y15.0975
G01 X36.6764 Y15.1117
G01 X36.7122 Y15.2545
G01 X36.7154 Y15.2688
G01 X36.7179 Y15.2833
G01 X36.7395 Y15.4290
G01 X36.7420 Y15.4509
G01 X36.7496 Y15.6053
G01 X36.7500 Y15.6200
G01 X36.7496 Y15.6347
G01 X36.7424 Y15.7817
G01 X36.7413 Y15.7964
G01 X36.7395 Y15.8110
G01 X36.7179 Y15.9567
G01 X36.7154 Y15.9712
G01 X36.7122 Y15.9855
G01 X36.6764 Y16.1283
G01 X36.6725 Y16.1425
G01 X36.6679 Y16.1565
G01 X36.6183 Y16.2951
G01 X36.6130 Y16.3088
G01 X36.6070 Y16.3223
G01 X36.5441 Y16.4554
G01 X36.5375 Y16.4685
G01 X36.5302 Y16.4813
G01 X36.4507 Y16.6139
G01 X36.4382 Y16.6321
G01 X36.3505 Y16.7503
G01 X36.3414 Y16.7619
G01 X36.3318 Y16.7731
G01 X36.2329 Y16.8821
G01 X36.2228 Y16.8928
G01 X36.2121 Y16.9029
G01 X36.1031 Y17.0018
G01 X36.0919 Y17.0114
G01 X36.0803 Y17.0205
G01 X35.9621 Y17.1082
G01 X35.9500 Y17.1166
G01 X35.9376 Y17.1245
G01 X35.8113 Y17.2002
G01 X35.7985 Y17.2075
G01 X35.7854 Y17.2141
G01 X35.6523 Y17.2770
G01 X35.6388 Y17.2830
G01 X35.6251 Y17.2883
G01 X35.4865 Y17.3379
G01 X35.4725 Y17.3425
G01 X35.4583 Y17.3464
G01 X35.3155 Y17.3822
G01 X35.3012 Y17.3854
G01 X35.2867 Y17.3879
G01 X35.1410 Y17.4095
G01 X35.1264 Y17.4113
G01 X35.1117 Y17.4124
G01 X34.9647 Y17.4196
G01 X34.9500 Y17.4200
G01 X34.9353 Y17.4196
G01 X34.7883 Y17.4124
G01 X34.7736 Y17.4113
G01 X34.7590 Y17.4095
G01 X34.6133 Y17.3879
G01 X34.5988 Y17.3854
G01 X34.5845 Y17.3822
G01 X34.4417 Y17.3464
G01 X34.4275 Y17.3425
G01 X34.4135 Y17.3379
G01 X34.2749 Y17.2883
G01 X34.2612 Y17.2830
G01 X34.2477 Y17.2770
G01 X34.1146 Y17.2141
G01 X34.1015 Y17.2075
G01 X34.0887 Y17.2002
G01 X33.9624 Y17.1245
G01 X33.9500 Y17.1166
G01 X33.9379 Y17.1082
G01 X33.8197 Y17.0205
G01 X33.8081 Y17.0114
G01 X33.7969 Y17.0018
G01 X33.6879 Y16.9029
G01 X33.6772 Y16.8928
G01 X33.6671 Y16.8821
G01 X33.5682 Y16.7731
G01 X33.5586 Y16.7619
G01 X33.5495 Y16.7503
G01 X33.4618 Y16.6321
G01 X33.4534 Y16.6200
G01 X33.4455 Y16.6076
G01 X33.3698 Y16.4813
G01 X33.3625 Y16.4685
G01 X33.3559 Y16.4554
G01 X33.2930 Y16.3223
G01 X33.2870 Y16.3088
G01 X33.2817 Y16.2951
G01 X33.2321 Y16.1565
G01 X33.2275 Y16.1425
G01 X33.2236 Y16.1283
G01 X33.1878 Y15.9855
G01 X33.1846 Y15.9712
G01 X33.1821 Y15.9567
G01 X33.1605 Y15.8110
G01 X33.1587 Y15.7964
G01 X33.1576 Y15.7817
G01 X33.1504 Y15.6347
G01 X33.1500 Y15.6200
G01 X33.1504 Y15.6053
G01 X33.1576 Y15.4583
G01 X33.1587 Y15.4436
G01 X33.1605 Y15.4290
G01 X33.1821 Y15.2833
G01 X33.1846 Y15.2688
G01 X33.1878 Y15.2545
G01 X33.2236 Y15.1117
G01 X33.2275 Y15.0975
G01 X33.2321 Y15.0835
G01 X33.2817 Y14.9449
G01 X33.2870 Y14.9312
G01 X33.2930 Y14.9177
G01 X33.3559 Y14.7846
G01 X33.3625 Y14.7715
G01 X33.3698 Y14.7587
G01 X33.4455 Y14.6324
G01 X33.4534 Y14.6200
G01 X33.4618 Y14.6079
G01 X33.5495 Y14.4897
G01 X33.5586 Y14.4781
G01 X33.5682 Y14.4669
G01 X33.6495 Y14.3772
G00 Z2.0000
G00 X38.7295 Y16.8628
G01 F60.00
G01 Z-0.1500
G01 F100.00
G01 X38.6482 Y16.7731
G01 X38.6386 Y16.7619
G01 X38.6295 Y16.7503
G01 X38.5418 Y16.6321
G01 X38.5334 Y16.6200
G01 X38.5255 Y16.6076
G01 X38.4498 Y16.4813
G01 X38.4425 Y16.4685
G01 X38.4359 Y16.4554
G01 X38.3730 Y16.3223
G01 X38.3670 Y16.3088
G01 X38.3617 Y16.2951
G01 X38.3121 Y16.1565
G01 X38.3075 Y16.1425
G01 X38.3036 Y16.1283
G01 X38.2678 Y15.9855
G01 X38.2646 Y15.9712
G01 X38.2621 Y15.9567
G01 X38.2405 Y15.8110
G01 X38.2387 Y15.7964
G01 X38.2376 Y15.7817
G01 X38.2304 Y15.6347
G01 X38.2300 Y15.6200
G01 X38.2304 Y15.6053
G01 X38.2376 Y15.4583
G01 X38.2387 Y15.4436
G01 X38.2405 Y15.4290
G01 X38.2621 Y15.2833
G01 X38.2646 Y15.2688
G01 X38.2678 Y15.2545
G01 X38.3036 Y15.1117
G01 X38.3075 Y15.0975
G01 X38.3121 Y15.0835
G01 X38.3617 Y14.9449
G01 X38.3670 Y14.9312
G01 X38.3730 Y14.9177
G01 X38.4359 Y14.7846
G01 X38.4425 Y14.7715
G01 X38.4498 Y14.7587
G01 X38.5255 Y14.6324
G01 X38.5334 Y14.6200
G01 X38.5418 Y14.6079
G01 X38.6295 Y14.4897
G01 X38.6386 Y14.4781
G01 X38.6482 Y14.4669
G01 X38.7471 Y14.3579
G01 X38.7572 Y14.3472
G01 X38.7679 Y14.3371
G01 X38.8769 Y14.2382
G01 X38.8881 Y14.2286
G01 X38.8997 Y14.2195
G01 X39.0179 Y14.1318
G01 X39.0300 Y14.1234
G01 X39.0424 Y14.1155
G01 X39.1687 Y14.0398
G01 X39.1815 Y14.0325
G01 X39.1946 Y14.0259
G01 X39.3277 Y13.9630
G01 X39.3412 Y13.9570
G01 X39.3549 Y13.9517
G01 X39.4935 Y13.9021
G01 X39.5075 Y13.8975
G01 X39.5217 Y13.8936
G01 X39.6645 Y13.8578
G01 X39.6788 Y13.8546
G01 X39.6933 Y13.8521
G01 X39.8390 Y13.8305
G01 X39.8536 Y13.8287
G01 X39.8683 Y13.8276
G01 X40.0153 Y13.8204
G01 X40.0300 Y13.8200
G01 X40.0447 Y13.8204
G01 X40.1917 Y13.8276
G01 X40.2064 Y13.8287
G01 X40.2210 Y13.8305
G01 X40.3667 Y13.8521
G01 X40.3812 Y13.8546
G01 X40.3955 Y13.8578
G01 X40.5383 Y13.8936
G01 X40.5525 Y13.8975
G01 X40.5665 Y13.9021
G01 X40.7051 Y13.9517
G01 X40.7188 Y13.9570
G01 X40.7323 Y13.9630
G01 X40.8654 Y14.0259
G01 X40.8785 Y14.0325
G01 X40.8913 Y14.0398
G01 X41.0176 Y14.1155
G01 X41.0300 Y14.1234
G01 X41.0421 Y14.1318
G01 X41.1603 Y14.2195
G01 X41.1719 Y14.2286
G01 X41.1831 Y14.2382
G01 X41.2921 Y14.3371
G01 X41.3028 Y14.3472
G01 X41.3129 Y14.3579
G01 X41.4118 Y14.4669
G01 X41.4214 Y14.4781
G01 X41.4305 Y14.4897
G01 X41.5182 Y14.6079
G01 X41.5266 Y14.6200
G01 X41.5345 Y14.6324
G01 X41.6102 Y14.7587
G01 X41.6175 Y14.7715
G01 X41.6241 Y14.7846
G01 X41.6870 Y14.9177
G01 X41.6930 Y14.9312
G01 X41.6983 Y14.9449
G01 X41.7479 Y15.0835
G01 X41.7525 Y15.0975
G01 X41.7564 Y15.1117
G01 X41.7922 Y15.2545
G01 X41.7954 Y15.2688
G01 X41.7979 Y15.2833
G01 X41.8195 Y15.4290
G01 X41.8213 Y15.4436
G01 X41.8224 Y15.4583
G01 X41.8296 Y15.6053
G01 X41.8300 Y15.6200
G01 X41.8296 Y15.6347
G01 X41.8224 Y15.7817
G01 X41.8213 Y15.7964
G01 X41.8195 Y15.8110
G01 X41.7979 Y15.9567
G01 X41.7954 Y15.9712
G01 X41.7922 Y15.9855
G01 X41.7564 Y16.1283
G01 X41.7525 Y16.1425
G01 X41.7479 Y16.1565
G01 X41.6983 Y16.2951
G01 X41.6930 Y16.3088
G01 X41.6870 Y16.3223
G01 X41.6241 Y16.4554
G01 X41.6175 Y16.4685
G01 X41.6102 Y16.4813
G01 X41.5345 Y16.6076
G01 X41.5266 Y16.6200
G01 X41.5182 Y16.6321
G01 X41.4257 Y16.7565
G01 X44.0687 Y19.3995
G01 X48.3813 Y19.3995
G01 X50.7304 Y17.0504
G01 X50.7411 Y17.0402
G01 X50.8138 Y16.9743
G01 X50.8250 Y16.9647
G01 X50.8366 Y16.9556
G01 X50.9155 Y16.8971
G01 X50.9275 Y16.8887
G01 X50.9399 Y16.8808
G01 X51.0241 Y16.8303
G01 X51.0370 Y16.8231
G01 X51.0501 Y16.8164
G01 X51.1389 Y16.7745
G01 X51.1523 Y16.7685
G01 X51.1661 Y16.7632
G01 X51.2585 Y16.7301
G01 X51.2725 Y16.7255
G01 X51.2867 Y16.7216
G01 X51.3891 Y16.6960
G01 X51.4108 Y16.6920
G01 X51.5079 Y16.6776
G01 X51.5225 Y16.6758
G01 X51.5372 Y16.6747
G01 X51.6353 Y16.6699
G01 X51.6500 Y16.6695
G01 X61.0573 Y16.6695
G01 X64.2964 Y13.4304
G01 X64.3071 Y13.4203
G01 X64.3798 Y13.3543
G01 X64.3910 Y13.3447
G01 X64.4026 Y13.3356
G01 X64.4814 Y13.2772
G01 X64.4935 Y13.2687
G01 X64.5059 Y13.2608
G01 X64.5901 Y13.2103
G01 X64.6029 Y13.2031
G01 X64.6161 Y13.1964
G01 X64.7049 Y13.1545
G01 X64.7183 Y13.1485
G01 X64.7321 Y13.1432
G01 X64.8245 Y13.1101
G01 X64.8385 Y13.1055
G01 X64.8527 Y13.1016
G01 X64.9479 Y13.0777
G01 X64.9623 Y13.0745
G01 X64.9768 Y13.0720
G01 X65.0739 Y13.0576
G01 X65.0885 Y13.0558
G01 X65.1032 Y13.0547
G01 X65.2013 Y13.0499
G01 X65.2160 Y13.0495
G01 X67.9700 Y13.0495
G01 X67.9847 Y13.0499
G01 X68.0828 Y13.0547
G01 X68.0975 Y13.0558
G01 X68.1121 Y13.0576
G01 X68.2092 Y13.0720
G01 X68.2237 Y13.0745
G01 X68.2381 Y13.0777
G01 X68.3404 Y13.1034
G01 X68.3615 Y13.1101
G01 X68.4539 Y13.1432
G01 X68.4677 Y13.1485
G01 X68.4811 Y13.1545
G01 X68.5765 Y13.1997
G01 X68.5959 Y13.2103
G01 X68.6863 Y13.2647
G01 X68.6986 Y13.2728
G01 X68.7301 Y13.2961
G01 X68.7461 Y13.2968
G01 X68.7607 Y13.2983
G01 X68.7825 Y13.3018
G01 X68.7969 Y13.3050
G01 X68.8111 Y13.3089
G01 X68.8320 Y13.3161
G01 X68.8456 Y13.3217
G01 X68.8589 Y13.3280
G01 X68.8719 Y13.3350
G01 X68.8845 Y13.3425
G01 X68.8967 Y13.3507
G01 X68.9086 Y13.3595
G01 X68.9200 Y13.3688
G01 X68.9361 Y13.3839
G01 X68.9463 Y13.3945
G01 X68.9559 Y13.4057
G01 X68.9693 Y13.4233
G01 X68.9775 Y13.4355
G01 X68.9850 Y13.4481
G01 X68.9920 Y13.4611
G01 X68.9983 Y13.4744
G01 X69.0065 Y13.4949
G01 X69.0131 Y13.5160
G01 X69.0167 Y13.5303
G01 X69.0196 Y13.5447
G01 X69.0226 Y13.5666
G01 X69.0239 Y13.5899
G01 X69.0472 Y13.6214
G01 X69.0553 Y13.6337
G01 X69.1134 Y13.7305
G01 X69.1236 Y13.7501
G01 X69.1655 Y13.8389
G01 X69.1742 Y13.8592
G01 X69.2099 Y13.9585
G01 X69.2145 Y13.9725
G01 X69.2184 Y13.9867
G01 X69.2423 Y14.0819
G01 X69.2455 Y14.0963
G01 X69.2480 Y14.1108
G01 X69.2624 Y14.2079
G01 X69.2642 Y14.2225
G01 X69.2653 Y14.2372
G01 X69.2701 Y14.3353
G01 X69.2705 Y14.3500
G01 X69.2701 Y14.3647
G01 X69.2653 Y14.4628
G01 X69.2642 Y14.4775
G01 X69.2624 Y14.4921
G01 X69.2480 Y14.5892
G01 X69.2455 Y14.6037
G01 X69.2423 Y14.6181
G01 X69.2166 Y14.7204
G01 X69.2099 Y14.7415
G01 X69.1768 Y14.8339
G01 X69.1715 Y14.8477
G01 X69.1655 Y14.8611
G01 X69.1203 Y14.9565
G01 X69.1097 Y14.9759
G01 X69.0553 Y15.0663
G01 X69.0472 Y15.0786
G01 X69.0239 Y15.1101
G01 X69.0232 Y15.1261
G01 X69.0208 Y15.1480
G01 X69.0167 Y15.1697
G01 X69.0131 Y15.1840
G01 X69.0089 Y15.1981
G01 X69.0012 Y15.2188
G01 X68.9920 Y15.2389
G01 X68.9813 Y15.2582
G01 X68.9734 Y15.2707
G01 X68.9605 Y15.2886
G01 X68.9463 Y15.3055
G01 X68.9309 Y15.3213
G01 X68.9200 Y15.3312
G01 X68.9027 Y15.3450
G01 X68.8907 Y15.3534
G01 X68.8719 Y15.3650
G01 X68.8589 Y15.3720
G01 X68.8388 Y15.3812
G01 X68.8181 Y15.3889
G01 X68.8040 Y15.3931
G01 X68.7897 Y15.3967
G01 X68.7680 Y15.4008
G01 X68.7461 Y15.4032
G01 X68.7301 Y15.4039
G01 X68.6986 Y15.4272
G01 X68.6863 Y15.4353
G01 X68.5895 Y15.4934
G01 X68.5699 Y15.5036
G01 X68.4811 Y15.5455
G01 X68.4677 Y15.5515
G01 X68.4539 Y15.5568
G01 X68.3615 Y15.5899
G01 X68.3475 Y15.5945
G01 X68.3333 Y15.5984
G01 X68.2381 Y15.6223
G01 X68.2237 Y15.6255
G01 X68.2092 Y15.6280
G01 X68.1121 Y15.6424
G01 X68.0975 Y15.6442
G01 X68.0828 Y15.6453
G01 X67.9774 Y15.6504
G01 X65.7547 Y15.6505
G01 X62.5103 Y18.8947
G01 X62.4322 Y18.9657
G01 X62.4210 Y18.9753
G01 X62.4094 Y18.9843
G01 X62.3306 Y19.0428
G01 X62.3185 Y19.0513
G01 X62.3061 Y19.0592
G01 X62.2219 Y19.1097
G01 X62.2091 Y19.1169
G01 X62.1959 Y19.1235
G01 X62.1072 Y19.1655
G01 X62.0869 Y19.1742
G01 X61.9875 Y19.2099
G01 X61.9735 Y19.2145
G01 X61.9593 Y19.2184
G01 X61.8641 Y19.2423
G01 X61.8497 Y19.2455
G01 X61.8352 Y19.2480
G01 X61.7381 Y19.2624
G01 X61.7235 Y19.2642
G01 X61.7088 Y19.2653
G01 X61.6107 Y19.2701
G01 X61.5960 Y19.2705
G01 X52.1887 Y19.2705
G01 X49.8396 Y21.6196
G01 X49.8289 Y21.6297
G01 X49.7507 Y21.7006
G01 X49.7334 Y21.7144
G01 X49.6546 Y21.7728
G01 X49.6425 Y21.7813
G01 X49.6301 Y21.7892
G01 X49.5459 Y21.8397
G01 X49.5331 Y21.8469
G01 X49.5199 Y21.8536
G01 X49.4311 Y21.8955
G01 X49.4177 Y21.9015
G01 X49.4039 Y21.9068
G01 X49.3115 Y21.9399
G01 X49.2975 Y21.9445
G01 X49.2833 Y21.9484
G01 X49.1881 Y21.9723
G01 X49.1737 Y21.9755
G01 X49.1592 Y21.9780
G01 X49.0621 Y21.9924
G01 X49.0475 Y21.9942
G01 X49.0328 Y21.9953
G01 X48.9347 Y22.0001
G01 X48.9200 Y22.0005
G01 X43.5226 Y22.0004
G01 X43.4172 Y21.9953
G01 X43.4025 Y21.9942
G01 X43.3879 Y21.9924
G01 X43.2908 Y21.9780
G01 X43.2763 Y21.9755
G01 X43.2619 Y21.9723
G01 X43.1667 Y21.9484
G01 X43.1525 Y21.9445
G01 X43.1385 Y21.9399
G01 X43.0461 Y21.9068
G01 X43.0323 Y21.9015
G01 X43.0189 Y21.8955
G01 X42.9235 Y21.8503
G01 X42.9041 Y21.8397
G01 X42.8199 Y21.7892
G01 X42.8075 Y21.7813
G01 X42.7954 Y21.7728
G01 X42.7166 Y21.7144
G01 X42.7050 Y21.7053
G01 X42.6938 Y21.6957
G01 X42.6211 Y21.6297
G01 X42.6104 Y21.6196
G01 X39.1104 Y18.1196
G01 X39.1003 Y18.1089
G01 X39.0343 Y18.0362
G01 X39.0247 Y18.0250
G01 X39.0156 Y18.0134
G01 X38.9572 Y17.9346
G01 X38.9487 Y17.9225
G01 X38.9408 Y17.9101
G01 X38.8903 Y17.8259
G01 X38.8831 Y17.8131
G01 X38.8764 Y17.7999
G01 X38.8345 Y17.7111
G01 X38.8285 Y17.6977
G01 X38.8232 Y17.6839
G01 X38.7901 Y17.5915
G01 X38.7855 Y17.5775
G01 X38.7816 Y17.5633
G01 X38.7577 Y17.4681
G01 X38.7545 Y17.4537
G01 X38.7520 Y17.4392
G01 X38.7376 Y17.3421
G01 X38.7351 Y17.3201
G01 X38.7296 Y17.2074
G01 X38.7295 Y16.8628
G00 Z2.0000
G00 X45.0692 Y13.8216
G01 F60.00
G01 Z-0.1500
G01 F100.00
G01 X45.4657 Y13.4253
G01 X45.5438 Y13.3543
G01 X45.5550 Y13.3447
G01 X45.5666 Y13.3356
G01 X45.6454 Y13.2772
G01 X45.6637 Y13.2647
G01 X45.7541 Y13.2103
G01 X45.7669 Y13.2031
G01 X45.7801 Y13.1964
G01 X45.8689 Y13.1545
G01 X45.8823 Y13.1485
G01 X45.8961 Y13.1432
G01 X45.9885 Y13.1101
G01 X46.0025 Y13.1055
G01 X46.0167 Y13.1016
G01 X46.1119 Y13.0777
G01 X46.1263 Y13.0745
G01 X46.1408 Y13.0720
G01 X46.2379 Y13.0576
G01 X46.2525 Y13.0558
G01 X46.2672 Y13.0547
G01 X46.3653 Y13.0499
G01 X46.3800 Y13.0495
G01 X57.9400 Y13.0495
G01 X57.9547 Y13.0499
G01 X58.0528 Y13.0547
G01 X58.0675 Y13.0558
G01 X58.0821 Y13.0576
G01 X58.1792 Y13.0720
G01 X58.1937 Y13.0745
G01 X58.2081 Y13.0777
G01 X58.3033 Y13.1016
G01 X58.3175 Y13.1055
G01 X58.3315 Y13.1101
G01 X58.4239 Y13.1432
G01 X58.4377 Y13.1485
G01 X58.4511 Y13.1545
G01 X58.5465 Y13.1997
G01 X58.5659 Y13.2103
G01 X58.6563 Y13.2647
G01 X58.6686 Y13.2728
G01 X58.7001 Y13.2961
G01 X58.7161 Y13.2968
G01 X58.7307 Y13.2983
G01 X58.7453 Y13.3004
G01 X58.7597 Y13.3033
G01 X58.7740 Y13.3069
G01 X58.7881 Y13.3111
G01 X58.8020 Y13.3161
G01 X58.8223 Y13.3248
G01 X58.8354 Y13.3314
G01 X58.8482 Y13.3387
G01 X58.8667 Y13.3507
G01 X58.8786 Y13.3595
G01 X58.8900 Y13.3688
G01 X58.9061 Y13.3839
G01 X58.9212 Y13.4000
G01 X58.9305 Y13.4114
G01 X58.9393 Y13.4233
G01 X58.9475 Y13.4355
G01 X58.9550 Y13.4481
G01 X58.9652 Y13.4677
G01 X58.9739 Y13.4880
G01 X58.9789 Y13.5019
G01 X58.9831 Y13.5160
G01 X58.9867 Y13.5303
G01 X58.9896 Y13.5447
G01 X58.9917 Y13.5593
G01 X58.9932 Y13.5739
G01 X58.9939 Y13.5899
G01 X59.0172 Y13.6214
G01 X59.0253 Y13.6337
G01 X59.0797 Y13.7241
G01 X59.0903 Y13.7435
G01 X59.1355 Y13.8389
G01 X59.1415 Y13.8523
G01 X59.1468 Y13.8661
G01 X59.1823 Y13.9655
G01 X59.1884 Y13.9867
G01 X59.2123 Y14.0819
G01 X59.2155 Y14.0963
G01 X59.2180 Y14.1108
G01 X59.2324 Y14.2079
G01 X59.2342 Y14.2225
G01 X59.2353 Y14.2372
G01 X59.2401 Y14.3353
G01 X59.2405 Y14.3500
G01 X59.2401 Y14.3647
G01 X59.2353 Y14.4628
G01 X59.2342 Y14.4775
G01 X59.2324 Y14.4921
G01 X59.2180 Y14.5892
G01 X59.2155 Y14.6037
G01 X59.2123 Y14.6181
G01 X59.1884 Y14.7133
G01 X59.1845 Y14.7275
G01 X59.1799 Y14.7415
G01 X59.1468 Y14.8339
G01 X59.1415 Y14.8477
G01 X59.1355 Y14.8611
G01 X59.0903 Y14.9565
G01 X59.0797 Y14.9759
G01 X59.0253 Y15.0663
G01 X59.0172 Y15.0786
G01 X58.9939 Y15.1101
G01 X58.9932 Y15.1261
G01 X58.9917 Y15.1407
G01 X58.9896 Y15.1553
G01 X58.9867 Y15.1697
G01 X58.9811 Y15.1911
G01 X58.9765 Y15.2051
G01 X58.9712 Y15.2188
G01 X58.9652 Y15.2323
G01 X58.9550 Y15.2519
G01 X58.9434 Y15.2707
G01 X58.9305 Y15.2886
G01 X58.9163 Y15.3055
G01 X58.9061 Y15.3161
G01 X58.8955 Y15.3263
G01 X58.8786 Y15.3405
G01 X58.8667 Y15.3493
G01 X58.8545 Y15.3575
G01 X58.8419 Y15.3650
G01 X58.8289 Y15.3720
G01 X58.8156 Y15.3783
G01 X58.8020 Y15.3839
G01 X58.7811 Y15.3911
G01 X58.7669 Y15.3950
G01 X58.7525 Y15.3982
G01 X58.7307 Y15.4017
G01 X58.7161 Y15.4032
G01 X58.7001 Y15.4039
G01 X58.6686 Y15.4272
G01 X58.6563 Y15.4353
G01 X58.5595 Y15.4934
G01 X58.5399 Y15.5036
G01 X58.4511 Y15.5455
G01 X58.4308 Y15.5542
G01 X58.3315 Y15.5899
G01 X58.3175 Y15.5945
G01 X58.3033 Y15.5984
G01 X58.2081 Y15.6223
G01 X58.1937 Y15.6255
G01 X58.1792 Y15.6280
G01 X58.0821 Y15.6424
G01 X58.0675 Y15.6442
G01 X58.0528 Y15.6453
G01 X57.9547 Y15.6501
G01 X57.9400 Y15.6505
G01 X46.9187 Y15.6505
G01 X46.9084 Y15.6608
G01 X46.9024 Y15.7817
G01 X46.9013 Y15.7964
G01 X46.8995 Y15.8110
G01 X46.8779 Y15.9567
G01 X46.8739 Y15.9784
G01 X46.8364 Y16.1283
G01 X46.8325 Y16.1425
G01 X46.8279 Y16.1565
G01 X46.7783 Y16.2951
G01 X46.7701 Y16.3156
G01 X46.7041 Y16.4554
G01 X46.6975 Y16.4685
G01 X46.6902 Y16.4813
G01 X46.6145 Y16.6076
G01 X46.6066 Y16.6200
G01 X46.5982 Y16.6321
G01 X46.5105 Y16.7503
G01 X46.5014 Y16.7619
G01 X46.4918 Y16.7731
G01 X46.3929 Y16.8821
G01 X46.3775 Y16.8979
G01 X46.2631 Y17.0018
G01 X46.2519 Y17.0114
G01 X46.2403 Y17.0205
G01 X46.1221 Y17.1082
G01 X46.1100 Y17.1166
G01 X46.0976 Y17.1245
G01 X45.9713 Y17.2002
G01 X45.9585 Y17.2075
G01 X45.9454 Y17.2141
G01 X45.8123 Y17.2770
G01 X45.7988 Y17.2830
G01 X45.7851 Y17.2883
G01 X45.6465 Y17.3379
G01 X45.6325 Y17.3425
G01 X45.6183 Y17.3464
G01 X45.4755 Y17.3822
G01 X45.4612 Y17.3854
G01 X45.4467 Y17.3879
G01 X45.3010 Y17.4095
G01 X45.2864 Y17.4113
G01 X45.2717 Y17.4124
G01 X45.1247 Y17.4196
G01 X45.1100 Y17.4200
G01 X45.0953 Y17.4196
G01 X44.9483 Y17.4124
G01 X44.9336 Y17.4113
G01 X44.9190 Y17.4095
G01 X44.7733 Y17.3879
G01 X44.7588 Y17.3854
G01 X44.7445 Y17.3822
G01 X44.6017 Y17.3464
G01 X44.5875 Y17.3425
G01 X44.5735 Y17.3379
G01 X44.4349 Y17.2883
G01 X44.4212 Y17.2830
G01 X44.4077 Y17.2770
G01 X44.2746 Y17.2141
G01 X44.2615 Y17.2075
G01 X44.2487 Y17.2002
G01 X44.1224 Y17.1245
G01 X44.1100 Y17.1166
G01 X44.0979 Y17.1082
G01 X43.9797 Y17.0205
G01 X43.9681 Y17.0114
G01 X43.9569 Y17.0018
G01 X43.8479 Y16.9029
G01 X43.8372 Y16.8928
G01 X43.8271 Y16.8821
G01 X43.7282 Y16.7731
G01 X43.7186 Y16.7619
G01 X43.7095 Y16.7503
G01 X43.6218 Y16.6321
G01 X43.6134 Y16.6200
G01 X43.6055 Y16.6076
G01 X43.5298 Y16.4813
G01 X43.5225 Y16.4685
G01 X43.5159 Y16.4554
G01 X43.4530 Y16.3223
G01 X43.4470 Y16.3088
G01 X43.4417 Y16.2951
G01 X43.3921 Y16.1565
G01 X43.3875 Y16.1425
G01 X43.3836 Y16.1283
G01 X43.3478 Y15.9855
G01 X43.3446 Y15.9712
G01 X43.3421 Y15.9567
G01 X43.3205 Y15.8110
G01 X43.3187 Y15.7964
G01 X43.3176 Y15.7817
G01 X43.3104 Y15.6347
G01 X43.3100 Y15.6200
G01 X43.3104 Y15.6053
G01 X43.3176 Y15.4583
G01 X43.3187 Y15.4436
G01 X43.3205 Y15.4290
G01 X43.3421 Y15.2833
G01 X43.3446 Y15.2688
G01 X43.3478 Y15.2545
G01 X43.3836 Y15.1117
G01 X43.3875 Y15.0975
G01 X43.3921 Y15.0835
G01 X43.4417 Y14.9449
G01 X43.4470 Y14.9312
G01 X43.4530 Y14.9177
G01 X43.5159 Y14.7846
G01 X43.5225 Y14.7715
G01 X43.5298 Y14.7587
G01 X43.6055 Y14.6324
G01 X43.6134 Y14.6200
G01 X43.6218 Y14.6079
G01 X43.7095 Y14.4897
G01 X43.7186 Y14.4781
G01 X43.7282 Y14.4669
G01 X43.8271 Y14.3579
G01 X43.8372 Y14.3472
G01 X43.8479 Y14.3371
G01 X43.9569 Y14.2382
G01 X43.9681 Y14.2286
G01 X43.9797 Y14.2195
G01 X44.0979 Y14.1318
G01 X44.1100 Y14.1234
G01 X44.1224 Y14.1155
G01 X44.2487 Y14.0398
G01 X44.2615 Y14.0325
G01 X44.2746 Y14.0259
G01 X44.4077 Y13.9630
G01 X44.4212 Y13.9570
G01 X44.4349 Y13.9517
G01 X44.5735 Y13.9021
G01 X44.5875 Y13.8975
G01 X44.6017 Y13.8936
G01 X44.7445 Y13.8578
G01 X44.7588 Y13.8546
G01 X44.7733 Y13.8521
G01 X44.9190 Y13.8305
G01 X44.9336 Y13.8287
G01 X44.9483 Y13.8276
G01 X45.0692 Y13.8216
G00 Z2.0000
G00 X37.9597 Y42.7163
G01 F60.00
G01 Z-0.1500
G01 F100.00
G01 X37.9597 Y41.0200
G01 X37.9601 Y41.0053
G01 X37.9625 Y40.9562
G01 X37.9636 Y40.9416
G01 X37.9654 Y40.9269
G01 X37.9738 Y40.8711
G01 X37.9784 Y40.8495
G01 X37.9903 Y40.8019
G01 X37.9942 Y40.7877
G01 X37.9988 Y40.7737
G01 X38.0154 Y40.7275
G01 X38.0236 Y40.7070
G01 X38.0509 Y40.6493
G01 X38.0615 Y40.6300
G01 X38.0867 Y40.5878
G01 X38.0946 Y40.5754
G01 X38.1031 Y40.5634
G01 X38.1323 Y40.5239
G01 X38.1414 Y40.5123
G01 X38.1510 Y40.5012
G01 X38.1840 Y40.4648
G01 X38.1941 Y40.4541
G01 X38.2048 Y40.4440
G01 X38.2412 Y40.4110
G01 X38.2523 Y40.4014
G01 X38.2639 Y40.3923
G01 X38.3034 Y40.3631
G01 X38.3154 Y40.3546
G01 X38.3278 Y40.3467
G01 X38.3700 Y40.3215
G01 X38.3893 Y40.3109
G01 X38.4403 Y40.2866
G01 X38.4538 Y40.2807
G01 X38.4675 Y40.2754
G01 X38.5137 Y40.2588
G01 X38.5348 Y40.2522
G01 X38.5895 Y40.2384
G01 X38.6111 Y40.2338
G01 X38.6742 Y40.2244
G01 X38.6962 Y40.2225
G01 X38.7453 Y40.2201
G01 X38.7600 Y40.2197
G01 X40.0325 Y40.2197
G01 X40.0488 Y40.1928
G01 X40.0570 Y40.1806
G01 X40.1359 Y40.0742
G01 X40.1501 Y40.0573
G01 X40.2292 Y39.9700
G01 X40.2446 Y39.9542
G01 X40.3373 Y39.8701
G01 X40.3484 Y39.8605
G01 X40.3600 Y39.8514
G01 X40.4546 Y39.7813
G01 X40.4666 Y39.7728
G01 X40.4791 Y39.7649
G01 X40.5865 Y39.7007
G01 X40.6061 Y39.6905
G01 X40.7125 Y39.6401
G01 X40.7260 Y39.6342
G01 X40.7397 Y39.6289
G01 X40.8506 Y39.5892
G01 X40.8646 Y39.5846
G01 X40.8788 Y39.5807
G01 X40.9930 Y39.5520
G01 X41.0074 Y39.5488
G01 X41.0219 Y39.5463
G01 X41.1384 Y39.5290
G01 X41.1530 Y39.5272
G01 X41.1677 Y39.5261
G01 X41.2853 Y39.5204
G01 X41.3000 Y39.5200
G01 X41.3147 Y39.5204
G01 X41.4323 Y39.5261
G01 X41.4470 Y39.5272
G01 X41.4616 Y39.5290
G01 X41.5781 Y39.5463
G01 X41.5926 Y39.5488
G01 X41.6070 Y39.5520
G01 X41.7212 Y39.5807
G01 X41.7354 Y39.5846
G01 X41.7494 Y39.5892
G01 X41.8603 Y39.6289
G01 X41.8740 Y39.6342
G01 X41.8875 Y39.6401
G01 X41.9939 Y39.6905
G01 X42.0071 Y39.6971
G01 X42.0199 Y39.7044
G01 X42.1209 Y39.7649
G01 X42.1334 Y39.7728
G01 X42.1454 Y39.7813
G01 X42.2400 Y39.8514
G01 X42.2516 Y39.8605
G01 X42.2627 Y39.8701
G01 X42.3500 Y39.9492
G01 X42.3607 Y39.9593
G01 X42.3708 Y39.9700
G01 X42.4499 Y40.0573
G01 X42.4595 Y40.0684
G01 X42.4686 Y40.0800
G01 X42.5387 Y40.1746
G01 X42.5472 Y40.1866
G01 X42.5551 Y40.1991
G01 X42.6156 Y40.3001
G01 X42.6263 Y40.3194
G01 X42.6799 Y40.4325
G01 X42.6858 Y40.4460
G01 X42.6911 Y40.4597
G01 X42.7308 Y40.5706
G01 X42.7354 Y40.5846
G01 X42.7393 Y40.5988
G01 X42.7680 Y40.7130
G01 X42.7712 Y40.7274
G01 X42.7737 Y40.7419
G01 X42.7910 Y40.8584
G01 X42.7928 Y40.8730
G01 X42.7939 Y40.8877
G01 X42.7996 Y41.0053
G01 X42.8000 Y41.0200
G01 X42.7996 Y41.0347
G01 X42.7939 Y41.1523
G01 X42.7928 Y41.1670
G01 X42.7910 Y41.1816
G01 X42.7737 Y41.2981
G01 X42.7712 Y41.3126
G01 X42.7680 Y41.3270
G01 X42.7393 Y41.4412
G01 X42.7354 Y41.4554
G01 X42.7308 Y41.4694
G01 X42.6911 Y41.5803
G01 X42.6858 Y41.5940
G01 X42.6799 Y41.6075
G01 X42.6295 Y41.7139
G01 X42.6229 Y41.7271
G01 X42.6156 Y41.7399
G01 X42.5551 Y41.8409
G01 X42.5472 Y41.8534
G01 X42.5387 Y41.8654
G01 X42.4686 Y41.9600
G01 X42.4595 Y41.9716
G01 X42.4499 Y41.9827
G01 X42.3708 Y42.0700
G01 X42.3607 Y42.0807
G01 X42.3500 Y42.0908
G01 X42.2627 Y42.1699
G01 X42.2516 Y42.1795
G01 X42.2400 Y42.1886
G01 X42.1454 Y42.2587
G01 X42.1334 Y42.2672
G01 X42.1209 Y42.2751
G01 X42.0199 Y42.3356
G01 X42.0006 Y42.3463
G01 X41.8875 Y42.3999
G01 X41.8740 Y42.4058
G01 X41.8603 Y42.4111
G01 X41.7494 Y42.4508
G01 X41.7354 Y42.4554
G01 X41.7212 Y42.4593
G01 X41.6070 Y42.4880
G01 X41.5926 Y42.4912
G01 X41.5781 Y42.4937
G01 X41.4616 Y42.5110
G01 X41.4470 Y42.5128
G01 X41.4323 Y42.5139
G01 X41.3147 Y42.5196
G01 X41.3000 Y42.5200
G01 X41.2853 Y42.5196
G01 X41.1677 Y42.5139
G01 X41.1530 Y42.5128
G01 X41.1384 Y42.5110
G01 X41.0219 Y42.4937
G01 X41.0002 Y42.4897
G01 X40.8788 Y42.4593
G01 X40.8646 Y42.4554
G01 X40.8506 Y42.4508
G01 X40.7397 Y42.4111
G01 X40.7260 Y42.4058
G01 X40.7125 Y42.3999
G01 X40.6061 Y42.3495
G01 X40.5929 Y42.3429
G01 X40.5801 Y42.3356
G01 X40.4791 Y42.2751
G01 X40.4606 Y42.2630
G01 X40.3600 Y42.1886
G01 X40.3484 Y42.1795
G01 X40.3373 Y42.1699
G01 X40.2500 Y42.0908
G01 X40.2342 Y42.0754
G01 X40.1501 Y41.9827
G01 X40.1359 Y41.9658
G01 X40.0570 Y41.8594
G01 X40.0488 Y41.8472
G01 X40.0325 Y41.8203
G01 X39.5603 Y41.8203
G01 X39.5603 Y42.7163
G01 X39.5775 Y42.7321
G01 X39.5879 Y42.7425
G01 X39.6547 Y42.8162
G01 X39.6685 Y42.8334
G01 X39.7190 Y42.9015
G01 X39.7275 Y42.9135
G01 X39.7354 Y42.9260
G01 X39.7789 Y42.9987
G01 X39.7862 Y43.0115
G01 X39.7928 Y43.0246
G01 X39.8291 Y43.1012
G01 X39.8378 Y43.1215
G01 X39.8689 Y43.2082
G01 X39.8735 Y43.2222
G01 X39.8774 Y43.2364
G01 X39.8980 Y43.3186
G01 X39.9012 Y43.3330
G01 X39.9038 Y43.3475
G01 X39.9162 Y43.4313
G01 X39.9180 Y43.4459
G01 X39.9191 Y43.4606
G01 X39.9232 Y43.5453
G01 X39.9236 Y43.5600
G01 X39.9232 Y43.5747
G01 X39.9191 Y43.6594
G01 X39.9180 Y43.6741
G01 X39.9162 Y43.6887
G01 X39.9038 Y43.7725
G01 X39.9012 Y43.7870
G01 X39.8980 Y43.8014
G01 X39.8774 Y43.8836
G01 X39.8735 Y43.8978
G01 X39.8689 Y43.9118
G01 X39.8403 Y43.9916
G01 X39.8350 Y44.0053
G01 X39.8291 Y44.0188
G01 X39.7928 Y44.0954
G01 X39.7862 Y44.1085
G01 X39.7789 Y44.1213
G01 X39.7354 Y44.1940
G01 X39.7275 Y44.2065
G01 X39.7190 Y44.2185
G01 X39.6685 Y44.2866
G01 X39.6595 Y44.2982
G01 X39.6499 Y44.3093
G01 X39.5929 Y44.3721
G01 X39.5828 Y44.3828
G01 X39.5721 Y44.3929
G01 X39.5093 Y44.4499
G01 X39.4982 Y44.4595
G01 X39.4866 Y44.4685
G01 X39.4185 Y44.5190
G01 X39.4065 Y44.5275
G01 X39.3940 Y44.5354
G01 X39.3213 Y44.5789
G01 X39.3020 Y44.5896
G01 X39.2188 Y44.6291
G01 X39.2053 Y44.6350
G01 X39.1916 Y44.6403
G01 X39.1118 Y44.6689
G01 X39.0978 Y44.6735
G01 X39.0836 Y44.6774
G01 X39.0014 Y44.6980
G01 X38.9870 Y44.7012
G01 X38.9725 Y44.7038
G01 X38.8887 Y44.7162
G01 X38.8741 Y44.7180
G01 X38.8594 Y44.7191
G01 X38.7674 Y44.7235
G01 X38.7453 Y44.7232
G01 X38.6606 Y44.7191
G01 X38.6386 Y44.7172
G01 X38.5475 Y44.7038
G01 X38.5330 Y44.7012
G01 X38.5186 Y44.6980
G01 X38.4364 Y44.6774
G01 X38.4222 Y44.6735
G01 X38.4082 Y44.6689
G01 X38.3284 Y44.6403
G01 X38.3147 Y44.6350
G01 X38.3012 Y44.6291
G01 X38.2246 Y44.5928
G01 X38.2115 Y44.5862
G01 X38.1987 Y44.5789
G01 X38.1260 Y44.5354
G01 X38.1135 Y44.5275
G01 X38.1015 Y44.5190
G01 X38.0334 Y44.4685
G01 X38.0218 Y44.4595
G01 X38.0107 Y44.4499
G01 X37.9479 Y44.3929
G01 X37.9372 Y44.3828
G01 X37.9271 Y44.3721
G01 X37.8701 Y44.3093
G01 X37.8605 Y44.2982
G01 X37.8515 Y44.2866
G01 X37.7967 Y44.2125
G01 X37.7846 Y44.1940
G01 X37.7411 Y44.1213
G01 X37.7338 Y44.1085
G01 X37.7272 Y44.0954
G01 X37.6909 Y44.0188
G01 X37.6850 Y44.0053
G01 X37.6797 Y43.9916
G01 X37.6487 Y43.9048
G01 X37.6426 Y43.8836
G01 X37.6220 Y43.8014
G01 X37.6188 Y43.7870
G01 X37.6162 Y43.7725
G01 X37.6038 Y43.6887
G01 X37.6020 Y43.6741
G01 X37.6009 Y43.6594
G01 X37.5968 Y43.5747
G01 X37.5964 Y43.5600
G01 X37.5968 Y43.5453
G01 X37.6009 Y43.4606
G01 X37.6020 Y43.4459
G01 X37.6038 Y43.4313
G01 X37.6162 Y43.3475
G01 X37.6188 Y43.3330
G01 X37.6220 Y43.3186
G01 X37.6426 Y43.2364
G01 X37.6465 Y43.2222
G01 X37.6511 Y43.2082
G01 X37.6797 Y43.1284
G01 X37.6850 Y43.1147
G01 X37.6909 Y43.1012
G01 X37.7304 Y43.0180
G01 X37.7411 Y42.9987
G01 X37.7846 Y42.9260
G01 X37.7925 Y42.9135
G01 X37.8010 Y42.9015
G01 X37.8515 Y42.8334
G01 X37.8653 Y42.8162
G01 X37.9271 Y42.7479
G01 X37.9425 Y42.7321
G01 X37.9597 Y42.7163
G00 Z2.0000
G00 X39.6037 Y45.2997
G01 F60.00
G01 Z-0.1500
G01 F100.00
G01 X39.6985 Y45.2997
G01 X43.0397 Y41.9585
G01 X43.0397 Y39.7475
G01 X43.0128 Y39.7312
G01 X43.0006 Y39.7230
G01 X42.8942 Y39.6441
G01 X42.8773 Y39.6299
G01 X42.7900 Y39.5508
G01 X42.7793 Y39.5407
G01 X42.7692 Y39.5300
G01 X42.6901 Y39.4427
G01 X42.6805 Y39.4316
G01 X42.6714 Y39.4200
G01 X42.6013 Y39.3254
G01 X42.5888 Y39.3072
G01 X42.5244 Y39.1999
G01 X42.5171 Y39.1871
G01 X42.5105 Y39.1739
G01 X42.4601 Y39.0675
G01 X42.4542 Y39.0540
G01 X42.4489 Y39.0403
G01 X42.4092 Y38.9294
G01 X42.4046 Y38.9154
G01 X42.4007 Y38.9012
G01 X42.3720 Y38.7870
G01 X42.3688 Y38.7726
G01 X42.3663 Y38.7581
G01 X42.3490 Y38.6416
G01 X42.3472 Y38.6270
G01 X42.3461 Y38.6123
G01 X42.3404 Y38.4947
G01 X42.3400 Y38.4800
G01 X42.3404 Y38.4653
G01 X42.3461 Y38.3477
G01 X42.3472 Y38.3330
G01 X42.3490 Y38.3184
G01 X42.3663 Y38.2019
G01 X42.3688 Y38.1874
G01 X42.3720 Y38.1730
G01 X42.4007 Y38.0588
G01 X42.4046 Y38.0446
G01 X42.4092 Y38.0306
G01 X42.4489 Y37.9197
G01 X42.4542 Y37.9060
G01 X42.4601 Y37.8925
G01 X42.5105 Y37.7861
G01 X42.5171 Y37.7729
G01 X42.5244 Y37.7601
G01 X42.5888 Y37.6528
G01 X42.6013 Y37.6346
G01 X42.6714 Y37.5400
G01 X42.6805 Y37.5284
G01 X42.6901 Y37.5173
G01 X42.7692 Y37.4300
G01 X42.7793 Y37.4193
G01 X42.7900 Y37.4092
G01 X42.8773 Y37.3301
G01 X42.8884 Y37.3205
G01 X42.9000 Y37.3114
G01 X42.9946 Y37.2413
G01 X43.0066 Y37.2328
G01 X43.0191 Y37.2249
G01 X43.1201 Y37.1644
G01 X43.1329 Y37.1571
G01 X43.1461 Y37.1505
G01 X43.2525 Y37.1001
G01 X43.2660 Y37.0942
G01 X43.2797 Y37.0889
G01 X43.3906 Y37.0492
G01 X43.4046 Y37.0446
G01 X43.4188 Y37.0407
G01 X43.5330 Y37.0120
G01 X43.5474 Y37.0088
G01 X43.5619 Y37.0063
G01 X43.6784 Y36.9890
G01 X43.6930 Y36.9872
G01 X43.7077 Y36.9861
G01 X43.8253 Y36.9804
G01 X43.8400 Y36.9800
G01 X43.8547 Y36.9804
G01 X43.9723 Y36.9861
G01 X43.9870 Y36.9872
G01 X44.0016 Y36.9890
G01 X44.1181 Y37.0063
G01 X44.1326 Y37.0088
G01 X44.1470 Y37.0120
G01 X44.2612 Y37.0407
G01 X44.2754 Y37.0446
G01 X44.2894 Y37.0492
G01 X44.4003 Y37.0889
G01 X44.4140 Y37.0942
G01 X44.4275 Y37.1001
G01 X44.5339 Y37.1505
G01 X44.5471 Y37.1571
G01 X44.5599 Y37.1644
G01 X44.6672 Y37.2288
G01 X44.6854 Y37.2413
G01 X44.7800 Y37.3114
G01 X44.7916 Y37.3205
G01 X44.8027 Y37.3301
G01 X44.8900 Y37.4092
G01 X44.9007 Y37.4193
G01 X44.9108 Y37.4300
G01 X44.9899 Y37.5173
G01 X44.9995 Y37.5284
G01 X45.0086 Y37.5400
G01 X45.0787 Y37.6346
G01 X45.0872 Y37.6466
G01 X45.0951 Y37.6591
G01 X45.1556 Y37.7601
G01 X45.1629 Y37.7729
G01 X45.1695 Y37.7861
G01 X45.2199 Y37.8925
G01 X45.2258 Y37.9060
G01 X45.2311 Y37.9197
G01 X45.2708 Y38.0306
G01 X45.2754 Y38.0446
G01 X45.2793 Y38.0588
G01 X45.3080 Y38.1730
G01 X45.3112 Y38.1874
G01 X45.3137 Y38.2019
G01 X45.3310 Y38.3184
G01 X45.3328 Y38.3330
G01 X45.3339 Y38.3477
G01 X45.3396 Y38.4653
G01 X45.3399 Y38.4874
G01 X45.3339 Y38.6123
G01 X45.3328 Y38.6270
G01 X45.3310 Y38.6416
G01 X45.3137 Y38.7581
G01 X45.3112 Y38.7726
G01 X45.3080 Y38.7870
G01 X45.2793 Y38.9012
G01 X45.2754 Y38.9154
G01 X45.2708 Y38.9294
G01 X45.2311 Y39.0403
G01 X45.2258 Y39.0540
G01 X45.2199 Y39.0675
G01 X45.1695 Y39.1739
G01 X45.1593 Y39.1935
G01 X45.0951 Y39.3009
G01 X45.0872 Y39.3134
G01 X45.0787 Y39.3254
G01 X45.0086 Y39.4200
G01 X44.9995 Y39.4316
G01 X44.9899 Y39.4427
G01 X44.9058 Y39.5354
G01 X44.8900 Y39.5508
G01 X44.8027 Y39.6299
G01 X44.7858 Y39.6441
G01 X44.6794 Y39.7230
G01 X44.6672 Y39.7312
G01 X44.6403 Y39.7475
G01 X44.6403 Y42.2900
G01 X44.6399 Y42.3047
G01 X44.6375 Y42.3538
G01 X44.6364 Y42.3684
G01 X44.6346 Y42.3831
G01 X44.6274 Y42.4316
G01 X44.6249 Y42.4461
G01 X44.6216 Y42.4605
G01 X44.6097 Y42.5081
G01 X44.6058 Y42.5223
G01 X44.6012 Y42.5363
G01 X44.5846 Y42.5825
G01 X44.5793 Y42.5962
G01 X44.5734 Y42.6097
G01 X44.5524 Y42.6541
G01 X44.5458 Y42.6672
G01 X44.5385 Y42.6800
G01 X44.5094 Y42.7284
G01 X44.4969 Y42.7466
G01 X44.4677 Y42.7861
G01 X44.4586 Y42.7977
G01 X44.4490 Y42.8088
G01 X44.4160 Y42.8452
G01 X44.4059 Y42.8559
G01 X40.5959 Y46.6659
G01 X40.5852 Y46.6760
G01 X40.5488 Y46.7090
G01 X40.5377 Y46.7186
G01 X40.5261 Y46.7277
G01 X40.4866 Y46.7569
G01 X40.4684 Y46.7694
G01 X40.4200 Y46.7985
G01 X40.4072 Y46.8058
G01 X40.3941 Y46.8124
G01 X40.3497 Y46.8334
G01 X40.3294 Y46.8421
G01 X40.2763 Y46.8612
G01 X40.2552 Y46.8678
G01 X40.1933 Y46.8833
G01 X40.1716 Y46.8874
G01 X40.1231 Y46.8946
G01 X40.1084 Y46.8964
G01 X40.0938 Y46.8975
G01 X40.0374 Y46.9002
G01 X39.6037 Y46.9003
G01 X39.5879 Y46.9175
G01 X39.5721 Y46.9329
G01 X39.5038 Y46.9947
G01 X39.4866 Y47.0085
G01 X39.4185 Y47.0590
G01 X39.4003 Y47.0715
G01 X39.3213 Y47.1189
G01 X39.3085 Y47.1262
G01 X39.2954 Y47.1328
G01 X39.2188 Y47.1691
G01 X39.2053 Y47.1750
G01 X39.1916 Y47.1803
G01 X39.1118 Y47.2089
G01 X39.0907 Y47.2155
G01 X39.0014 Y47.2380
G01 X38.9870 Y47.2412
G01 X38.9725 Y47.2438
G01 X38.8887 Y47.2562
G01 X38.8741 Y47.2580
G01 X38.8594 Y47.2591
G01 X38.7747 Y47.2632
G01 X38.7526 Y47.2635
G01 X38.6606 Y47.2591
G01 X38.6459 Y47.2580
G01 X38.6313 Y47.2562
G01 X38.5402 Y47.2426
G01 X38.5186 Y47.2380
G01 X38.4364 Y47.2174
G01 X38.4222 Y47.2135
G01 X38.4082 Y47.2089
G01 X38.3284 Y47.1803
G01 X38.3147 Y47.1750
G01 X38.3012 Y47.1691
G01 X38.2246 Y47.1328
G01 X38.2115 Y47.1262
G01 X38.1987 Y47.1189
G01 X38.1260 Y47.0754
G01 X38.1135 Y47.0675
G01 X38.1015 Y47.0590
G01 X38.0334 Y47.0085
G01 X38.0218 Y46.9995
G01 X38.0107 Y46.9899
G01 X37.9479 Y46.9329
G01 X37.9321 Y46.9175
G01 X37.8701 Y46.8493
G01 X37.8605 Y46.8382
G01 X37.8515 Y46.8266
G01 X37.8010 Y46.7585
G01 X37.7925 Y46.7465
G01 X37.7846 Y46.7340
G01 X37.7411 Y46.6613
G01 X37.7338 Y46.6485
G01 X37.7272 Y46.6354
G01 X37.6909 Y46.5588
G01 X37.6850 Y46.5453
G01 X37.6797 Y46.5316
G01 X37.6511 Y46.4518
G01 X37.6465 Y46.4378
G01 X37.6426 Y46.4236
G01 X37.6220 Y46.3414
G01 X37.6188 Y46.3270
G01 X37.6162 Y46.3125
G01 X37.6038 Y46.2287
G01 X37.6020 Y46.2141
G01 X37.6009 Y46.1994
G01 X37.5968 Y46.1147
G01 X37.5964 Y46.1000
G01 X37.5968 Y46.0853
G01 X37.6009 Y46.0006
G01 X37.6020 Y45.9859
G01 X37.6038 Y45.9713
G01 X37.6162 Y45.8875
G01 X37.6188 Y45.8730
G01 X37.6220 Y45.8586
G01 X37.6426 Y45.7764
G01 X37.6465 Y45.7622
G01 X37.6511 Y45.7482
G01 X37.6797 Y45.6684
G01 X37.6850 Y45.6547
G01 X37.6909 Y45.6412
G01 X37.7272 Y45.5646
G01 X37.7338 Y45.5515
G01 X37.7411 Y45.5387
G01 X37.7846 Y45.4660
G01 X37.7925 Y45.4535
G01 X37.8010 Y45.4415
G01 X37.8515 Y45.3734
G01 X37.8605 Y45.3618
G01 X37.8701 Y45.3507
G01 X37.9271 Y45.2879
G01 X37.9425 Y45.2721
G01 X38.0107 Y45.2101
G01 X38.0218 Y45.2005
G01 X38.0334 Y45.1915
G01 X38.1015 Y45.1410
G01 X38.1135 Y45.1325
G01 X38.1260 Y45.1246
G01 X38.1987 Y45.0811
G01 X38.2115 Y45.0738
G01 X38.2246 Y45.0672
G01 X38.3012 Y45.0309
G01 X38.3147 Y45.0250
G01 X38.3284 Y45.0197
G01 X38.4082 Y44.9911
G01 X38.4222 Y44.9865
G01 X38.4364 Y44.9826
G01 X38.5186 Y44.9620
G01 X38.5330 Y44.9588
G01 X38.5475 Y44.9562
G01 X38.6313 Y44.9438
G01 X38.6459 Y44.9420
G01 X38.6606 Y44.9409
G01 X38.7453 Y44.9368
G01 X38.7674 Y44.9365
G01 X38.8594 Y44.9409
G01 X38.8741 Y44.9420
G01 X38.8887 Y44.9438
G01 X38.9725 Y44.9562
G01 X38.9870 Y44.9588
G01 X39.0014 Y44.9620
G01 X39.0836 Y44.9826
G01 X39.0978 Y44.9865
G01 X39.1118 Y44.9911
G01 X39.1916 Y45.0197
G01 X39.2121 Y45.0279
G01 X39.2954 Y45.0672
G01 X39.3085 Y45.0738
G01 X39.3213 Y45.0811
G01 X39.3940 Y45.1246
G01 X39.4125 Y45.1367
G01 X39.4866 Y45.1915
G01 X39.5038 Y45.2053
G01 X39.5775 Y45.2721
G01 X39.5879 Y45.2825
G01 X39.6037 Y45.2997
G00 Z2.0000
G00 X37.5968 Y48.6547
G01 F60.00
G01 Z-0.1500
G01 F100.00
G01 X37.5964 Y48.6400
G01 X37.5968 Y48.6253
G01 X37.6009 Y48.5406
G01 X37.6020 Y48.5259
G01 X37.6038 Y48.5113
G01 X37.6162 Y48.4275
G01 X37.6188 Y48.4130
G01 X37.6220 Y48.3986
G01 X37.6426 Y48.3164
G01 X37.6465 Y48.3022
G01 X37.6511 Y48.2882
G01 X37.6797 Y48.2084
G01 X37.6850 Y48.1947
G01 X37.6909 Y48.1812
G01 X37.7272 Y48.1046
G01 X37.7338 Y48.0915
G01 X37.7411 Y48.0787
G01 X37.7846 Y48.0060
G01 X37.7925 Y47.9935
G01 X37.8010 Y47.9815
G01 X37.8515 Y47.9134
G01 X37.8605 Y47.9018
G01 X37.8701 Y47.8907
G01 X37.9271 Y47.8279
G01 X37.9372 Y47.8172
G01 X37.9479 Y47.8071
G01 X38.0107 Y47.7501
G01 X38.0218 Y47.7405
G01 X38.0334 Y47.7315
G01 X38.1015 Y47.6810
G01 X38.1135 Y47.6725
G01 X38.1260 Y47.6646
G01 X38.1987 Y47.6211
G01 X38.2115 Y47.6138
G01 X38.2246 Y47.6072
G01 X38.3012 Y47.5709
G01 X38.3147 Y47.5650
G01 X38.3284 Y47.5597
G01 X38.4082 Y47.5311
G01 X38.4222 Y47.5265
G01 X38.4364 Y47.5226
G01 X38.5186 Y47.5020
G01 X38.5330 Y47.4988
G01 X38.5475 Y47.4962
G01 X38.6313 Y47.4838
G01 X38.6459 Y47.4820
G01 X38.6606 Y47.4809
G01 X38.7453 Y47.4768
G01 X38.7600 Y47.4764
G01 X38.7747 Y47.4768
G01 X38.8594 Y47.4809
G01 X38.8741 Y47.4820
G01 X38.8887 Y47.4838
G01 X38.9725 Y47.4962
G01 X38.9870 Y47.4988
G01 X39.0014 Y47.5020
G01 X39.0836 Y47.5226
G01 X39.0978 Y47.5265
G01 X39.1118 Y47.5311
G01 X39.1916 Y47.5597
G01 X39.2053 Y47.5650
G01 X39.2188 Y47.5709
G01 X39.2954 Y47.6072
G01 X39.3085 Y47.6138
G01 X39.3213 Y47.6211
G01 X39.3940 Y47.6646
G01 X39.4065 Y47.6725
G01 X39.4185 Y47.6810
G01 X39.4866 Y47.7315
G01 X39.4982 Y47.7405
G01 X39.5093 Y47.7501
G01 X39.5721 Y47.8071
G01 X39.5828 Y47.8172
G01 X39.5929 Y47.8279
G01 X39.6499 Y47.8907
G01 X39.6595 Y47.9018
G01 X39.6685 Y47.9134
G01 X39.7190 Y47.9815
G01 X39.7275 Y47.9935
G01 X39.7354 Y48.0060
G01 X39.7789 Y48.0787
G01 X39.7862 Y48.0915
G01 X39.7928 Y48.1046
G01 X39.8291 Y48.1812
G01 X39.8350 Y48.1947
G01 X39.8403 Y48.2084
G01 X39.8689 Y48.2882
G01 X39.8735 Y48.3022
G01 X39.8774 Y48.3164
G01 X39.8980 Y48.3986
G01 X39.9012 Y48.4130
G01 X39.9038 Y48.4275
G01 X39.9162 Y48.5113
G01 X39.9180 Y48.5259
G01 X39.9191 Y48.5406
G01 X39.9232 Y48.6253
G01 X39.9236 Y48.6400
G01 X39.9232 Y48.6547
G01 X39.9191 Y48.7394
G01 X39.9180 Y48.7541
G01 X39.9162 Y48.7687
G01 X39.9038 Y48.8525
G01 X39.9012 Y48.8670
G01 X39.8980 Y48.8814
G01 X39.8774 Y48.9636
G01 X39.8735 Y48.9778
G01 X39.8689 Y48.9918
G01 X39.8403 Y49.0716
G01 X39.8350 Y49.0853
G01 X39.8291 Y49.0988
G01 X39.7928 Y49.1754
G01 X39.7862 Y49.1885
G01 X39.7789 Y49.2013
G01 X39.7354 Y49.2740
G01 X39.7275 Y49.2865
G01 X39.7190 Y49.2985
G01 X39.6685 Y49.3666
G01 X39.6595 Y49.3782
G01 X39.6499 Y49.3893
G01 X39.5929 Y49.4521
G01 X39.5828 Y49.4628
G01 X39.5721 Y49.4729
G01 X39.5093 Y49.5299
G01 X39.4982 Y49.5395
G01 X39.4866 Y49.5485
G01 X39.4185 Y49.5990
G01 X39.4065 Y49.6075
G01 X39.3940 Y49.6154
G01 X39.3213 Y49.6589
G01 X39.3085 Y49.6662
G01 X39.2954 Y49.6728
G01 X39.2188 Y49.7091
G01 X39.2053 Y49.7150
G01 X39.1916 Y49.7203
G01 X39.1118 Y49.7489
G01 X39.0978 Y49.7535
G01 X39.0836 Y49.7574
G01 X39.0014 Y49.7780
G01 X38.9870 Y49.7812
G01 X38.9725 Y49.7838
G01 X38.8887 Y49.7962
G01 X38.8741 Y49.7980
G01 X38.8594 Y49.7991
G01 X38.7747 Y49.8032
G01 X38.7600 Y49.8036
G01 X38.7453 Y49.8032
G01 X38.6606 Y49.7991
G01 X38.6459 Y49.7980
G01 X38.6313 Y49.7962
G01 X38.5475 Y49.7838
G01 X38.5330 Y49.7812
G01 X38.5186 Y49.7780
G01 X38.4364 Y49.7574
G01 X38.4222 Y49.7535
G01 X38.4082 Y49.7489
G01 X38.3284 Y49.7203
G01 X38.3147 Y49.7150
G01 X38.3012 Y49.7091
G01 X38.2246 Y49.6728
G01 X38.2115 Y49.6662
G01 X38.1987 Y49.6589
G01 X38.1260 Y49.6154
G01 X38.1135 Y49.6075
G01 X38.1015 Y49.5990
G01 X38.0334 Y49.5485
G01 X38.0218 Y49.5395
G01 X38.0107 Y49.5299
G01 X37.9479 Y49.4729
G01 X37.9372 Y49.4628
G01 X37.9271 Y49.4521
G01 X37.8701 Y49.3893
G01 X37.8605 Y49.3782
G01 X37.8515 Y49.3666
G01 X37.8010 Y49.2985
G01 X37.7925 Y49.2865
G01 X37.7846 Y49.2740
G01 X37.7411 Y49.2013
G01 X37.7338 Y49.1885
G01 X37.7272 Y49.1754
G01 X37.6909 Y49.0988
G01 X37.6850 Y49.0853
G01 X37.6797 Y49.0716
G01 X37.6511 Y48.9918
G01 X37.6465 Y48.9778
G01 X37.6426 Y48.9636
G01 X37.6220 Y48.8814
G01 X37.6188 Y48.8670
G01 X37.6162 Y48.8525
G01 X37.6038 Y48.7687
G01 X37.6020 Y48.7541
G01 X37.6009 Y48.7394
G01 X37.5968 Y48.6547
G00 Z2.0000
G00 X37.5968 Y51.1947
G01 F60.00
G01 Z-0.1500
G01 F100.00
G01 X37.5964 Y51.1800
G01 X37.5968 Y51.1653
G01 X37.6009 Y51.0806
G01 X37.6020 Y51.0659
G01 X37.6038 Y51.0513
G01 X37.6162 Y50.9675
G01 X37.6188 Y50.9530
G01 X37.6220 Y50.9386
G01 X37.6426 Y50.8564
G01 X37.6465 Y50.8422
G01 X37.6511 Y50.8282
G01 X37.6797 Y50.7484
G01 X37.6850 Y50.7347
G01 X37.6909 Y50.7212
G01 X37.7272 Y50.6446
G01 X37.7338 Y50.6315
G01 X37.7411 Y50.6187
G01 X37.7846 Y50.5460
G01 X37.7925 Y50.5335
G01 X37.8010 Y50.5215
G01 X37.8515 Y50.4534
G01 X37.8605 Y50.4418
G01 X37.8701 Y50.4307
G01 X37.9271 Y50.3679
G01 X37.9372 Y50.3572
G01 X37.9479 Y50.3471
G01 X38.0107 Y50.2901
G01 X38.0218 Y50.2805
G01 X38.0334 Y50.2715
G01 X38.1015 Y50.2210
G01 X38.1135 Y50.2125
G01 X38.1260 Y50.2046
G01 X38.1987 Y50.1611
G01 X38.2115 Y50.1538
G01 X38.2246 Y50.1472
G01 X38.3012 Y50.1109
G01 X38.3147 Y50.1050
G01 X38.3284 Y50.0997
G01 X38.4082 Y50.0711
G01 X38.4222 Y50.0665
G01 X38.4364 Y50.0626
G01 X38.5186 Y50.0420
G01 X38.5330 Y50.0388
G01 X38.5475 Y50.0362
G01 X38.6313 Y50.0238
G01 X38.6459 Y50.0220
G01 X38.6606 Y50.0209
G01 X38.7453 Y50.0168
G01 X38.7600 Y50.0164
G01 X38.7747 Y50.0168
G01 X38.8594 Y50.0209
G01 X38.8741 Y50.0220
G01 X38.8887 Y50.0238
G01 X38.9725 Y50.0362
G01 X38.9870 Y50.0388
G01 X39.0014 Y50.0420
G01 X39.0836 Y50.0626
G01 X39.0978 Y50.0665
G01 X39.1118 Y50.0711
G01 X39.1916 Y50.0997
G01 X39.2053 Y50.1050
G01 X39.2188 Y50.1109
G01 X39.2954 Y50.1472
G01 X39.3085 Y50.1538
G01 X39.3213 Y50.1611
G01 X39.3940 Y50.2046
G01 X39.4065 Y50.2125
G01 X39.4185 Y50.2210
G01 X39.4866 Y50.2715
G01 X39.4982 Y50.2805
G01 X39.5093 Y50.2901
G01 X39.5721 Y50.3471
G01 X39.5828 Y50.3572
G01 X39.5929 Y50.3679
G01 X39.6499 Y50.4307
G01 X39.6595 Y50.4418
G01 X39.6685 Y50.4534
G01 X39.7190 Y50.5215
G01 X39.7275 Y50.5335
G01 X39.7354 Y50.5460
G01 X39.7789 Y50.6187
G01 X39.7862 Y50.6315
G01 X39.7928 Y50.6446
G01 X39.8291 Y50.7212
G01 X39.8350 Y50.7347
G01 X39.8403 Y50.7484
G01 X39.8689 Y50.8282
G01 X39.8735 Y50.8422
G01 X39.8774 Y50.8564
G01 X39.8980 Y50.9386
G01 X39.9012 Y50.9530
G01 X39.9038 Y50.9675
G01 X39.9162 Y51.0513
G01 X39.9180 Y51.0659
G01 X39.9191 Y51.0806
G01 X39.9232 Y51.1653
G01 X39.9236 Y51.1800
G01 X39.9232 Y51.1947
G01 X39.9191 Y51.2794
G01 X39.9180 Y51.2941
G01 X39.9162 Y51.3087
G01 X39.9038 Y51.3925
G01 X39.9012 Y51.4070
G01 X39.8980 Y51.4214
G01 X39.8774 Y51.5036
G01 X39.8735 Y51.5178
G01 X39.8689 Y51.5318
G01 X39.8403 Y51.6116
G01 X39.8350 Y51.6253
G01 X39.8291 Y51.6388
G01 X39.7928 Y51.7154
G01 X39.7862 Y51.7285
G01 X39.7789 Y51.7413
G01 X39.7354 Y51.8140
G01 X39.7275 Y51.8265
G01 X39.7190 Y51.8385
G01 X39.6685 Y51.9066
G01 X39.6595 Y51.9182
G01 X39.6499 Y51.9293
G01 X39.5929 Y51.9921
G01 X39.5828 Y52.0028
G01 X39.5721 Y52.0129
G01 X39.5093 Y52.0699
G01 X39.4982 Y52.0795
G01 X39.4866 Y52.0885
G01 X39.4185 Y52.1390
G01 X39.4065 Y52.1475
G01 X39.3940 Y52.1554
G01 X39.3213 Y52.1989
G01 X39.3085 Y52.2062
G01 X39.2954 Y52.2128
G01 X39.2188 Y52.2491
G01 X39.2053 Y52.2550
G01 X39.1916 Y52.2603
G01 X39.1118 Y52.2889
G01 X39.0978 Y52.2935
G01 X39.0836 Y52.2974
G01 X39.0014 Y52.3180
G01 X38.9870 Y52.3212
G01 X38.9725 Y52.3238
G01 X38.8887 Y52.3362
G01 X38.8741 Y52.3380
G01 X38.8594 Y52.3391
G01 X38.7747 Y52.3432
G01 X38.7600 Y52.3436
G01 X38.7453 Y52.3432
G01 X38.6606 Y52.3391
G01 X38.6459 Y52.3380
G01 X38.6313 Y52.3362
G01 X38.5475 Y52.3238
G01 X38.5330 Y52.3212
G01 X38.5186 Y52.3180
G01 X38.4364 Y52.2974
G01 X38.4222 Y52.2935
G01 X38.4082 Y52.2889
G01 X38.3284 Y52.2603
G01 X38.3147 Y52.2550
G01 X38.3012 Y52.2491
G01 X38.2246 Y52.2128
G01 X38.2115 Y52.2062
G01 X38.1987 Y52.1989
G01 X38.1260 Y52.1554
G01 X38.1135 Y52.1475
G01 X38.1015 Y52.1390
G01 X38.0334 Y52.0885
G01 X38.0218 Y52.0795
G01 X38.0107 Y52.0699
G01 X37.9479 Y52.0129
G01 X37.9372 Y52.0028
G01 X37.9271 Y51.9921
G01 X37.8701 Y51.9293
G01 X37.8605 Y51.9182
G01 X37.8515 Y51.9066
G01 X37.8010 Y51.8385
G01 X37.7925 Y51.8265
G01 X37.7846 Y51.8140
G01 X37.7411 Y51.7413
G01 X37.7338 Y51.7285
G01 X37.7272 Y51.7154
G01 X37.6909 Y51.6388
G01 X37.6850 Y51.6253
G01 X37.6797 Y51.6116
G01 X37.6511 Y51.5318
G01 X37.6465 Y51.5178
G01 X37.6426 Y51.5036
G01 X37.6220 Y51.4214
G01 X37.6188 Y51.4070
G01 X37.6162 Y51.3925
G01 X37.6038 Y51.3087
G01 X37.6020 Y51.2941
G01 X37.6009 Y51.2794
G01 X37.5968 Y51.1947
G00 Z2.0000
G00 X37.5968 Y53.7347
G01 F60.00
G01 Z-0.1500
G01 F100.00
G01 X37.5964 Y53.7200
G01 X37.5968 Y53.7053
G01 X37.6009 Y53.6206
G01 X37.6020 Y53.6059
G01 X37.6038 Y53.5913
G01 X37.6162 Y53.5075
G01 X37.6188 Y53.4930
G01 X37.6220 Y53.4786
G01 X37.6426 Y53.3964
G01 X37.6465 Y53.3822
G01 X37.6511 Y53.3682
G01 X37.6797 Y53.2884
G01 X37.6850 Y53.2747
G01 X37.6909 Y53.2612
G01 X37.7272 Y53.1846
G01 X37.7338 Y53.1715
G01 X37.7411 Y53.1587
G01 X37.7846 Y53.0860
G01 X37.7925 Y53.0735
G01 X37.8010 Y53.0615
G01 X37.8515 Y52.9934
G01 X37.8605 Y52.9818
G01 X37.8701 Y52.9707
G01 X37.9271 Y52.9079
G01 X37.9372 Y52.8972
G01 X37.9479 Y52.8871
G01 X38.0107 Y52.8301
G01 X38.0218 Y52.8205
G01 X38.0334 Y52.8115
G01 X38.1015 Y52.7610
G01 X38.1135 Y52.7525
G01 X38.1260 Y52.7446
G01 X38.1987 Y52.7011
G01 X38.2115 Y52.6938
G01 X38.2246 Y52.6872
G01 X38.3012 Y52.6509
G01 X38.3147 Y52.6450
G01 X38.3284 Y52.6397
G01 X38.4082 Y52.6111
G01 X38.4222 Y52.6065
G01 X38.4364 Y52.6026
G01 X38.5186 Y52.5820
G01 X38.5330 Y52.5788
G01 X38.5475 Y52.5762
G01 X38.6313 Y52.5638
G01 X38.6459 Y52.5620
G01 X38.6606 Y52.5609
G01 X38.7453 Y52.5568
G01 X38.7600 Y52.5564
G01 X38.7747 Y52.5568
G01 X38.8594 Y52.5609
G01 X38.8741 Y52.5620
G01 X38.8887 Y52.5638
G01 X38.9725 Y52.5762
G01 X38.9870 Y52.5788
G01 X39.0014 Y52.5820
G01 X39.0836 Y52.6026
G01 X39.0978 Y52.6065
G01 X39.1118 Y52.6111
G01 X39.1916 Y52.6397
G01 X39.2053 Y52.6450
G01 X39.2188 Y52.6509
G01 X39.2954 Y52.6872
G01 X39.3085 Y52.6938
G01 X39.3213 Y52.7011
G01 X39.3940 Y52.7446
G01 X39.4065 Y52.7525
G01 X39.4185 Y52.7610
G01 X39.4866 Y52.8115
G01 X39.4982 Y52.8205
G01 X39.5093 Y52.8301
G01 X39.5721 Y52.8871
G01 X39.5828 Y52.8972
G01 X39.5929 Y52.9079
G01 X39.6499 Y52.9707
G01 X39.6595 Y52.9818
G01 X39.6685 Y52.9934
G01 X39.7190 Y53.0615
G01 X39.7275 Y53.0735
G01 X39.7354 Y53.0860
G01 X39.7789 Y53.1587
G01 X39.7862 Y53.1715
G01 X39.7928 Y53.1846
G01 X39.8291 Y53.2612
G01 X39.8350 Y53.2747
G01 X39.8403 Y53.2884
G01 X39.8689 Y53.3682
G01 X39.8735 Y53.3822
G01 X39.8774 Y53.3964
G01 X39.8980 Y53.4786
G01 X39.9012 Y53.4930
G01 X39.9038 Y53.5075
G01 X39.9162 Y53.5913
G01 X39.9180 Y53.6059
G01 X39.9191 Y53.6206
G01 X39.9232 Y53.7053
G01 X39.9236 Y53.7200
G01 X39.9232 Y53.7347
G01 X39.9191 Y53.8194
G01 X39.9180 Y53.8341
G01 X39.9162 Y53.8487
G01 X39.9038 Y53.9325
G01 X39.9012 Y53.9470
G01 X39.8980 Y53.9614
G01 X39.8774 Y54.0436
G01 X39.8735 Y54.0578
G01 X39.8689 Y54.0718
G01 X39.8403 Y54.1516
G01 X39.8350 Y54.1653
G01 X39.8291 Y54.1788
G01 X39.7928 Y54.2554
G01 X39.7862 Y54.2685
G01 X39.7789 Y54.2813
G01 X39.7354 Y54.3540
G01 X39.7275 Y54.3665
G01 X39.7190 Y54.3785
G01 X39.6685 Y54.4466
G01 X39.6595 Y54.4582
G01 X39.6499 Y54.4693
G01 X39.5929 Y54.5321
G01 X39.5828 Y54.5428
G01 X39.5721 Y54.5529
G01 X39.5093 Y54.6099
G01 X39.4982 Y54.6195
G01 X39.4866 Y54.6285
G01 X39.4185 Y54.6790
G01 X39.4065 Y54.6875
G01 X39.3940 Y54.6954
G01 X39.3213 Y54.7389
G01 X39.3085 Y54.7462
G01 X39.2954 Y54.7528
G01 X39.2188 Y54.7891
G01 X39.2053 Y54.7950
G01 X39.1916 Y54.8003
G01 X39.1118 Y54.8289
G01 X39.0978 Y54.8335
G01 X39.0836 Y54.8374
G01 X39.0014 Y54.8580
G01 X38.9870 Y54.8612
G01 X38.9725 Y54.8638
G01 X38.8887 Y54.8762
G01 X38.8741 Y54.8780
G01 X38.8594 Y54.8791
G01 X38.7747 Y54.8832
G01 X38.7600 Y54.8836
G01 X38.7453 Y54.8832
G01 X38.6606 Y54.8791
G01 X38.6459 Y54.8780
G01 X38.6313 Y54.8762
G01 X38.5475 Y54.8638
G01 X38.5330 Y54.8612
G01 X38.5186 Y54.8580
G01 X38.4364 Y54.8374
G01 X38.4222 Y54.8335
G01 X38.4082 Y54.8289
G01 X38.3284 Y54.8003
G01 X38.3147 Y54.7950
G01 X38.3012 Y54.7891
G01 X38.2246 Y54.7528
G01 X38.2115 Y54.7462
G01 X38.1987 Y54.7389
G01 X38.1260 Y54.6954
G01 X38.1135 Y54.6875
G01 X38.1015 Y54.6790
G01 X38.0334 Y54.6285
G01 X38.0218 Y54.6195
G01 X38.0107 Y54.6099
G01 X37.9479 Y54.5529
G01 X37.9372 Y54.5428
G01 X37.9271 Y54.5321
G01 X37.8701 Y54.4693
G01 X37.8605 Y54.4582
G01 X37.8515 Y54.4466
G01 X37.8010 Y54.3785
G01 X37.7925 Y54.3665
G01 X37.7846 Y54.3540
G01 X37.7411 Y54.2813
G01 X37.7338 Y54.2685
G01 X37.7272 Y54.2554
G01 X37.6909 Y54.1788
G01 X37.6850 Y54.1653
G01 X37.6797 Y54.1516
G01 X37.6511 Y54.0718
G01 X37.6465 Y54.0578
G01 X37.6426 Y54.0436
G01 X37.6220 Y53.9614
G01 X37.6188 Y53.9470
G01 X37.6162 Y53.9325
G01 X37.6038 Y53.8487
G01 X37.6020 Y53.8341
G01 X37.6009 Y53.8194
G01 X37.5968 Y53.7347
G00 Z2.0000
G00 X37.5968 Y56.2747
G01 F60.00
G01 Z-0.1500
G01 F100.00
G01 X37.5964 Y56.2600
G01 X37.5968 Y56.2453
G01 X37.6009 Y56.1606
G01 X37.6020 Y56.1459
G01 X37.6038 Y56.1313
G01 X37.6162 Y56.0475
G01 X37.6188 Y56.0330
G01 X37.6220 Y56.0186
G01 X37.6426 Y55.9364
G01 X37.6465 Y55.9222
G01 X37.6511 Y55.9082
G01 X37.6797 Y55.8284
G01 X37.6850 Y55.8147
G01 X37.6909 Y55.8012
G01 X37.7272 Y55.7246
G01 X37.7338 Y55.7115
G01 X37.7411 Y55.6987
G01 X37.7846 Y55.6260
G01 X37.7925 Y55.6135
G01 X37.8010 Y55.6015
G01 X37.8515 Y55.5334
G01 X37.8605 Y55.5218
G01 X37.8701 Y55.5107
G01 X37.9271 Y55.4479
G01 X37.9372 Y55.4372
G01 X37.9479 Y55.4271
G01 X38.0107 Y55.3701
G01 X38.0218 Y55.3605
G01 X38.0334 Y55.3515
G01 X38.1015 Y55.3010
G01 X38.1135 Y55.2925
G01 X38.1260 Y55.2846
G01 X38.1987 Y55.2411
G01 X38.2115 Y55.2338
G01 X38.2246 Y55.2272
G01 X38.3012 Y55.1909
G01 X38.3147 Y55.1850
G01 X38.3284 Y55.1797
G01 X38.4082 Y55.1511
G01 X38.4222 Y55.1465
G01 X38.4364 Y55.1426
G01 X38.5186 Y55.1220
G01 X38.5330 Y55.1188
G01 X38.5475 Y55.1162
G01 X38.6313 Y55.1038
G01 X38.6459 Y55.1020
G01 X38.6606 Y55.1009
G01 X38.7453 Y55.0968
G01 X38.7600 Y55.0964
G01 X38.7747 Y55.0968
G01 X38.8594 Y55.1009
G01 X38.8741 Y55.1020
G01 X38.8887 Y55.1038
G01 X38.9725 Y55.1162
G01 X38.9870 Y55.1188
G01 X39.0014 Y55.1220
G01 X39.0836 Y55.1426
G01 X39.0978 Y55.1465
G01 X39.1118 Y55.1511
G01 X39.1916 Y55.1797
G01 X39.2053 Y55.1850
G01 X39.2188 Y55.1909
G01 X39.2954 Y55.2272
G01 X39.3085 Y55.2338
G01 X39.3213 Y55.2411
G01 X39.3940 Y55.2846
G01 X39.4065 Y55.2925
G01 X39.4185 Y55.3010
G01 X39.4866 Y55.3515
G01 X39.4982 Y55.3605
G01 X39.5093 Y55.3701
G01 X39.5721 Y55.4271
G01 X39.5828 Y55.4372
G01 X39.5929 Y55.4479
G01 X39.6499 Y55.5107
G01 X39.6595 Y55.5218
G01 X39.6685 Y55.5334
G01 X39.7190 Y55.6015
G01 X39.7275 Y55.6135
G01 X39.7354 Y55.6260
G01 X39.7789 Y55.6987
G01 X39.7862 Y55.7115
G01 X39.7928 Y55.7246
G01 X39.8291 Y55.8012
G01 X39.8350 Y55.8147
G01 X39.8403 Y55.8284
G01 X39.8689 Y55.9082
G01 X39.8735 Y55.9222
G01 X39.8774 Y55.9364
G01 X39.8980 Y56.0186
G01 X39.9012 Y56.0330
G01 X39.9038 Y56.0475
G01 X39.9162 Y56.1313
G01 X39.9180 Y56.1459
G01 X39.9191 Y56.1606
G01 X39.9232 Y56.2453
G01 X39.9236 Y56.2600
G01 X39.9232 Y56.2747
G01 X39.9191 Y56.3594
G01 X39.9180 Y56.3741
G01 X39.9162 Y56.3887
G01 X39.9038 Y56.4725
G01 X39.9012 Y56.4870
G01 X39.8980 Y56.5014
G01 X39.8774 Y56.5836
G01 X39.8735 Y56.5978
G01 X39.8689 Y56.6118
G01 X39.8403 Y56.6916
G01 X39.8350 Y56.7053
G01 X39.8291 Y56.7188
G01 X39.7928 Y56.7954
G01 X39.7862 Y56.8085
G01 X39.7789 Y56.8213
G01 X39.7354 Y56.8940
G01 X39.7275 Y56.9065
G01 X39.7190 Y56.9185
G01 X39.6685 Y56.9866
G01 X39.6595 Y56.9982
G01 X39.6499 Y57.0093
G01 X39.5929 Y57.0721
G01 X39.5828 Y57.0828
G01 X39.5721 Y57.0929
G01 X39.5093 Y57.1499
G01 X39.4982 Y57.1595
G01 X39.4866 Y57.1685
G01 X39.4185 Y57.2190
G01 X39.4065 Y57.2275
G01 X39.3940 Y57.2354
G01 X39.3213 Y57.2789
G01 X39.3085 Y57.2862
G01 X39.2954 Y57.2928
G01 X39.2188 Y57.3291
G01 X39.2053 Y57.3350
G01 X39.1916 Y57.3403
G01 X39.1118 Y57.3689
G01 X39.0978 Y57.3735
G01 X39.0836 Y57.3774
G01 X39.0014 Y57.3980
G01 X38.9870 Y57.4012
G01 X38.9725 Y57.4038
G01 X38.8887 Y57.4162
G01 X38.8741 Y57.4180
G01 X38.8594 Y57.4191
G01 X38.7747 Y57.4232
G01 X38.7600 Y57.4236
G01 X38.7453 Y57.4232
G01 X38.6606 Y57.4191
G01 X38.6459 Y57.4180
G01 X38.6313 Y57.4162
G01 X38.5475 Y57.4038
G01 X38.5330 Y57.4012
G01 X38.5186 Y57.3980
G01 X38.4364 Y57.3774
G01 X38.4222 Y57.3735
G01 X38.4082 Y57.3689
G01 X38.3284 Y57.3403
G01 X38.3147 Y57.3350
G01 X38.3012 Y57.3291
G01 X38.2246 Y57.2928
G01 X38.2115 Y57.2862
G01 X38.1987 Y57.2789
G01 X38.1260 Y57.2354
G01 X38.1135 Y57.2275
G01 X38.1015 Y57.2190
G01 X38.0334 Y57.1685
G01 X38.0218 Y57.1595
G01 X38.0107 Y57.1499
G01 X37.9479 Y57.0929
G01 X37.9372 Y57.0828
G01 X37.9271 Y57.0721
G01 X37.8701 Y57.0093
G01 X37.8605 Y56.9982
G01 X37.8515 Y56.9866
G01 X37.8010 Y56.9185
G01 X37.7925 Y56.9065
G01 X37.7846 Y56.8940
G01 X37.7411 Y56.8213
G01 X37.7338 Y56.8085
G01 X37.7272 Y56.7954
G01 X37.6909 Y56.7188
G01 X37.6850 Y56.7053
G01 X37.6797 Y56.6916
G01 X37.6511 Y56.6118
G01 X37.6465 Y56.5978
G01 X37.6426 Y56.5836
G01 X37.6220 Y56.5014
G01 X37.6188 Y56.4870
G01 X37.6162 Y56.4725
G01 X37.6038 Y56.3887
G01 X37.6020 Y56.3741
G01 X37.6009 Y56.3594
G01 X37.5968 Y56.2747
G00 Z2.0000
G00 X39.6037 Y57.9997
G01 F60.00
G01 Z-0.1500
G01 F100.00
G01 X42.5700 Y57.9997
G01 X42.5847 Y58.0001
G01 X42.6338 Y58.0025
G01 X42.6484 Y58.0036
G01 X42.6631 Y58.0054
G01 X42.7116 Y58.0126
G01 X42.7261 Y58.0151
G01 X42.7405 Y58.0184
G01 X42.7881 Y58.0303
G01 X42.8093 Y58.0364
G01 X42.8625 Y58.0554
G01 X42.8762 Y58.0607
G01 X42.8897 Y58.0666
G01 X42.9341 Y58.0876
G01 X42.9472 Y58.0942
G01 X42.9600 Y58.1015
G01 X43.0022 Y58.1267
G01 X43.0146 Y58.1346
G01 X43.0266 Y58.1431
G01 X43.0661 Y58.1723
G01 X43.0777 Y58.1814
G01 X43.0888 Y58.1910
G01 X43.1252 Y58.2240
G01 X43.1359 Y58.2341
G01 X43.1460 Y58.2448
G01 X43.1839 Y58.2867
G01 X43.1977 Y58.3039
G01 X43.2269 Y58.3434
G01 X43.2394 Y58.3616
G01 X43.2685 Y58.4100
G01 X43.2758 Y58.4228
G01 X43.2824 Y58.4359
G01 X43.3034 Y58.4803
G01 X43.3093 Y58.4938
G01 X43.3146 Y58.5075
G01 X43.3312 Y58.5537
G01 X43.3378 Y58.5748
G01 X43.3516 Y58.6295
G01 X43.3549 Y58.6439
G01 X43.3574 Y58.6584
G01 X43.3646 Y58.7069
G01 X43.3664 Y58.7216
G01 X43.3675 Y58.7362
G01 X43.3699 Y58.7853
G01 X43.3703 Y58.8000
G01 X43.3703 Y71.6263
G01 X55.4337 Y83.6898
G01 X66.0785 Y83.6898
G01 X66.5497 Y83.2185
G01 X66.5497 Y81.6575
G01 X66.5228 Y81.6412
G01 X66.5106 Y81.6330
G01 X66.4100 Y81.5586
G01 X66.3928 Y81.5448
G01 X66.3000 Y81.4608
G01 X66.2893 Y81.4507
G01 X66.2792 Y81.4400
G01 X66.2001 Y81.3527
G01 X66.1905 Y81.3416
G01 X66.1814 Y81.3300
G01 X66.1113 Y81.2354
G01 X66.1028 Y81.2234
G01 X66.0949 Y81.2109
G01 X66.0344 Y81.1099
G01 X66.0271 Y81.0971
G01 X66.0205 Y81.0839
G01 X65.9701 Y80.9775
G01 X65.9614 Y80.9572
G01 X65.9192 Y80.8394
G01 X65.9146 Y80.8254
G01 X65.9107 Y80.8112
G01 X65.8820 Y80.6970
G01 X65.8788 Y80.6826
G01 X65.8763 Y80.6681
G01 X65.8590 Y80.5516
G01 X65.8572 Y80.5370
G01 X65.8561 Y80.5223
G01 X65.8504 Y80.4047
G01 X65.8500 Y80.3900
G01 X65.8504 Y80.3753
G01 X65.8561 Y80.2577
G01 X65.8572 Y80.2430
G01 X65.8590 Y80.2284
G01 X65.8763 Y80.1119
G01 X65.8788 Y80.0974
G01 X65.8820 Y80.0830
G01 X65.9125 Y79.9616
G01 X65.9192 Y79.9406
G01 X65.9589 Y79.8297
G01 X65.9642 Y79.8160
G01 X65.9701 Y79.8025
G01 X66.0205 Y79.6961
G01 X66.0271 Y79.6829
G01 X66.0344 Y79.6701
G01 X66.0949 Y79.5691
G01 X66.1028 Y79.5566
G01 X66.1113 Y79.5446
G01 X66.1814 Y79.4500
G01 X66.1905 Y79.4384
G01 X66.2001 Y79.4273
G01 X66.2792 Y79.3400
G01 X66.2893 Y79.3293
G01 X66.3000 Y79.3192
G01 X66.3873 Y79.2401
G01 X66.3984 Y79.2305
G01 X66.4100 Y79.2214
G01 X66.5046 Y79.1513
G01 X66.5166 Y79.1428
G01 X66.5291 Y79.1349
G01 X66.6301 Y79.0744
G01 X66.6429 Y79.0671
G01 X66.6561 Y79.0605
G01 X66.7625 Y79.0101
G01 X66.7760 Y79.0042
G01 X66.7897 Y78.9989
G01 X66.9006 Y78.9592
G01 X66.9146 Y78.9546
G01 X66.9288 Y78.9507
G01 X67.0430 Y78.9220
G01 X67.0574 Y78.9188
G01 X67.0719 Y78.9163
G01 X67.1884 Y78.8990
G01 X67.2030 Y78.8972
G01 X67.2177 Y78.8961
G01 X67.3353 Y78.8904
G01 X67.3574 Y78.8901
G01 X67.4823 Y78.8961
G01 X67.4970 Y78.8972
G01 X67.5116 Y78.8990
G01 X67.6281 Y78.9163
G01 X67.6426 Y78.9188
G01 X67.6570 Y78.9220
G01 X67.7712 Y78.9507
G01 X67.7854 Y78.9546
G01 X67.7994 Y78.9592
G01 X67.9103 Y78.9989
G01 X67.9240 Y79.0042
G01 X67.9375 Y79.0101
G01 X68.0439 Y79.0605
G01 X68.0571 Y79.0671
G01 X68.0699 Y79.0744
G01 X68.1709 Y79.1349
G01 X68.1834 Y79.1428
G01 X68.1954 Y79.1513
G01 X68.2900 Y79.2214
G01 X68.3016 Y79.2305
G01 X68.3127 Y79.2401
G01 X68.4000 Y79.3192
G01 X68.4107 Y79.3293
G01 X68.4208 Y79.3400
G01 X68.4999 Y79.4273
G01 X68.5095 Y79.4384
G01 X68.5186 Y79.4500
G01 X68.5887 Y79.5446
G01 X68.5972 Y79.5566
G01 X68.6051 Y79.5691
G01 X68.6656 Y79.6701
G01 X68.6729 Y79.6829
G01 X68.6795 Y79.6961
G01 X68.7299 Y79.8025
G01 X68.7358 Y79.8160
G01 X68.7411 Y79.8297
G01 X68.7808 Y79.9406
G01 X68.7854 Y79.9546
G01 X68.7893 Y79.9688
G01 X68.8180 Y80.0830
G01 X68.8212 Y80.0974
G01 X68.8237 Y80.1119
G01 X68.8410 Y80.2284
G01 X68.8428 Y80.2430
G01 X68.8439 Y80.2577
G01 X68.8496 Y80.3753
G01 X68.8500 Y80.3900
G01 X68.8496 Y80.4047
G01 X68.8439 Y80.5223
G01 X68.8428 Y80.5370
G01 X68.8410 Y80.5516
G01 X68.8237 Y80.6681
G01 X68.8212 Y80.6826
G01 X68.8180 Y80.6970
G01 X68.7893 Y80.8112
G01 X68.7854 Y80.8254
G01 X68.7808 Y80.8394
G01 X68.7411 Y80.9503
G01 X68.7358 Y80.9640
G01 X68.7299 Y80.9775
G01 X68.6763 Y81.0906
G01 X68.6656 Y81.1099
G01 X68.6051 Y81.2109
G01 X68.5972 Y81.2234
G01 X68.5887 Y81.2354
G01 X68.5186 Y81.3300
G01 X68.5095 Y81.3416
G01 X68.4999 Y81.3527
G01 X68.4208 Y81.4400
G01 X68.4107 Y81.4507
G01 X68.4000 Y81.4608
G01 X68.3127 Y81.5399
G01 X68.3016 Y81.5495
G01 X68.2900 Y81.5586
G01 X68.1894 Y81.6330
G01 X68.1772 Y81.6412
G01 X68.1503 Y81.6575
G01 X68.1503 Y83.5500
G01 X68.1499 Y83.5647
G01 X68.1475 Y83.6138
G01 X68.1464 Y83.6284
G01 X68.1446 Y83.6431
G01 X68.1374 Y83.6916
G01 X68.1349 Y83.7061
G01 X68.1316 Y83.7205
G01 X68.1197 Y83.7681
G01 X68.1136 Y83.7893
G01 X68.0946 Y83.8425
G01 X68.0893 Y83.8562
G01 X68.0834 Y83.8697
G01 X68.0624 Y83.9141
G01 X68.0558 Y83.9272
G01 X68.0485 Y83.9400
G01 X68.0233 Y83.9822
G01 X68.0154 Y83.9946
G01 X68.0069 Y84.0066
G01 X67.9777 Y84.0461
G01 X67.9686 Y84.0577
G01 X67.9590 Y84.0688
G01 X67.9260 Y84.1052
G01 X67.9159 Y84.1159
G01 X66.9759 Y85.0559
G01 X66.9652 Y85.0660
G01 X66.9288 Y85.0990
G01 X66.9177 Y85.1086
G01 X66.9061 Y85.1177
G01 X66.8666 Y85.1469
G01 X66.8546 Y85.1554
G01 X66.8421 Y85.1633
G01 X66.8000 Y85.1885
G01 X66.7872 Y85.1958
G01 X66.7741 Y85.2024
G01 X66.7297 Y85.2234
G01 X66.7162 Y85.2293
G01 X66.7025 Y85.2346
G01 X66.6563 Y85.2512
G01 X66.6423 Y85.2558
G01 X66.6281 Y85.2597
G01 X66.5805 Y85.2717
G01 X66.5661 Y85.2749
G01 X66.5516 Y85.2774
G01 X66.5030 Y85.2846
G01 X66.4811 Y85.2870
G01 X66.4247 Y85.2899
G01 X66.4100 Y85.2903
G01 X55.0949 Y85.2902
G01 X55.0385 Y85.2875
G01 X55.0238 Y85.2864
G01 X55.0092 Y85.2846
G01 X54.9606 Y85.2774
G01 X54.9461 Y85.2749
G01 X54.9317 Y85.2717
G01 X54.8841 Y85.2597
G01 X54.8699 Y85.2558
G01 X54.8560 Y85.2512
G01 X54.8097 Y85.2346
G01 X54.7960 Y85.2293
G01 X54.7825 Y85.2234
G01 X54.7382 Y85.2024
G01 X54.7250 Y85.1958
G01 X54.7122 Y85.1885
G01 X54.6701 Y85.1633
G01 X54.6576 Y85.1554
G01 X54.6456 Y85.1469
G01 X54.6062 Y85.1177
G01 X54.5946 Y85.1086
G01 X54.5834 Y85.0990
G01 X54.5470 Y85.0660
G01 X54.5364 Y85.0559
G01 X42.0041 Y72.5236
G01 X41.9940 Y72.5130
G01 X41.9610 Y72.4766
G01 X41.9514 Y72.4655
G01 X41.9423 Y72.4538
G01 X41.9131 Y72.4144
G01 X41.9046 Y72.4024
G01 X41.8967 Y72.3899
G01 X41.8678 Y72.3415
G01 X41.8576 Y72.3219
G01 X41.8366 Y72.2775
G01 X41.8307 Y72.2640
G01 X41.8254 Y72.2503
G01 X41.8088 Y72.2041
G01 X41.8042 Y72.1901
G01 X41.8003 Y72.1759
G01 X41.7884 Y72.1283
G01 X41.7851 Y72.1139
G01 X41.7826 Y72.0994
G01 X41.7754 Y72.0508
G01 X41.7736 Y72.0362
G01 X41.7725 Y72.0215
G01 X41.7701 Y71.9725
G01 X41.7697 Y71.9578
G01 X41.7697 Y59.6003
G01 X39.6037 Y59.6003
G01 X39.5879 Y59.6175
G01 X39.5775 Y59.6279
G01 X39.5038 Y59.6947
G01 X39.4866 Y59.7085
G01 X39.4185 Y59.7590
G01 X39.4065 Y59.7675
G01 X39.3940 Y59.7754
G01 X39.3213 Y59.8189
G01 X39.3085 Y59.8262
G01 X39.2954 Y59.8328
G01 X39.2188 Y59.8691
G01 X39.2053 Y59.8750
G01 X39.1916 Y59.8803
G01 X39.1118 Y59.9089
G01 X39.0978 Y59.9135
G01 X39.0836 Y59.9174
G01 X39.0014 Y59.9380
G01 X38.9870 Y59.9412
G01 X38.9725 Y59.9438
G01 X38.8814 Y59.9572
G01 X38.8594 Y59.9591
G01 X38.7747 Y59.9632
G01 X38.7600 Y59.9636
G01 X38.7453 Y59.9632
G01 X38.6606 Y59.9591
G01 X38.6459 Y59.9580
G01 X38.6313 Y59.9562
G01 X38.5475 Y59.9438
G01 X38.5330 Y59.9412
G01 X38.5186 Y59.9380
G01 X38.4364 Y59.9174
G01 X38.4222 Y59.9135
G01 X38.4082 Y59.9089
G01 X38.3284 Y59.8803
G01 X38.3147 Y59.8750
G01 X38.3012 Y59.8691
G01 X38.2246 Y59.8328
G01 X38.2050 Y59.8227
G01 X38.1260 Y59.7754
G01 X38.1135 Y59.7675
G01 X38.1015 Y59.7590
G01 X38.0334 Y59.7085
G01 X38.0218 Y59.6995
G01 X38.0107 Y59.6899
G01 X37.9425 Y59.6279
G01 X37.9271 Y59.6121
G01 X37.8701 Y59.5493
G01 X37.8605 Y59.5382
G01 X37.8515 Y59.5266
G01 X37.8010 Y59.4585
G01 X37.7925 Y59.4465
G01 X37.7846 Y59.4340
G01 X37.7411 Y59.3613
G01 X37.7338 Y59.3485
G01 X37.7272 Y59.3354
G01 X37.6909 Y59.2588
G01 X37.6850 Y59.2453
G01 X37.6797 Y59.2316
G01 X37.6511 Y59.1518
G01 X37.6445 Y59.1307
G01 X37.6220 Y59.0414
G01 X37.6188 Y59.0270
G01 X37.6162 Y59.0125
G01 X37.6038 Y58.9287
G01 X37.6020 Y58.9141
G01 X37.6009 Y58.8994
G01 X37.5968 Y58.8147
G01 X37.5964 Y58.8000
G01 X37.5968 Y58.7853
G01 X37.6009 Y58.7006
G01 X37.6020 Y58.6859
G01 X37.6038 Y58.6713
G01 X37.6162 Y58.5875
G01 X37.6188 Y58.5730
G01 X37.6220 Y58.5586
G01 X37.6426 Y58.4764
G01 X37.6487 Y58.4552
G01 X37.6797 Y58.3684
G01 X37.6850 Y58.3547
G01 X37.6909 Y58.3412
G01 X37.7272 Y58.2646
G01 X37.7373 Y58.2450
G01 X37.7846 Y58.1660
G01 X37.7925 Y58.1535
G01 X37.8010 Y58.1415
G01 X37.8515 Y58.0734
G01 X37.8605 Y58.0618
G01 X37.8701 Y58.0507
G01 X37.9271 Y57.9879
G01 X37.9372 Y57.9772
G01 X37.9479 Y57.9671
G01 X38.0107 Y57.9101
G01 X38.0218 Y57.9005
G01 X38.0334 Y57.8915
G01 X38.1015 Y57.8410
G01 X38.1135 Y57.8325
G01 X38.1260 Y57.8246
G01 X38.1987 Y57.7811
G01 X38.2180 Y57.7704
G01 X38.3012 Y57.7309
G01 X38.3147 Y57.7250
G01 X38.3284 Y57.7197
G01 X38.4082 Y57.6911
G01 X38.4293 Y57.6845
G01 X38.5186 Y57.6620
G01 X38.5330 Y57.6588
G01 X38.5475 Y57.6562
G01 X38.6313 Y57.6438
G01 X38.6459 Y57.6420
G01 X38.6606 Y57.6409
G01 X38.7453 Y57.6368
G01 X38.7600 Y57.6364
G01 X38.7747 Y57.6368
G01 X38.8594 Y57.6409
G01 X38.8741 Y57.6420
G01 X38.8887 Y57.6438
G01 X38.9798 Y57.6574
G01 X39.0014 Y57.6620
G01 X39.0836 Y57.6826
G01 X39.0978 Y57.6865
G01 X39.1118 Y57.6911
G01 X39.1916 Y57.7197
G01 X39.2053 Y57.7250
G01 X39.2188 Y57.7309
G01 X39.2954 Y57.7672
G01 X39.3085 Y57.7738
G01 X39.3213 Y57.7811
G01 X39.3940 Y57.8246
G01 X39.4065 Y57.8325
G01 X39.4185 Y57.8410
G01 X39.4924 Y57.8959
G01 X39.5093 Y57.9101
G01 X39.5775 Y57.9721
G01 X39.5879 Y57.9825
G01 X39.6037 Y57.9997
G00 Z2.0000
G00 X37.5968 Y66.4347
G01 F60.00
G01 Z-0.1500
G01 F100.00
G01 X37.5964 Y66.4200
G01 X37.5968 Y66.4053
G01 X37.6009 Y66.3206
G01 X37.6020 Y66.3059
G01 X37.6038 Y66.2913
G01 X37.6162 Y66.2075
G01 X37.6188 Y66.1930
G01 X37.6220 Y66.1786
G01 X37.6426 Y66.0964
G01 X37.6465 Y66.0822
G01 X37.6511 Y66.0682
G01 X37.6797 Y65.9884
G01 X37.6850 Y65.9747
G01 X37.6909 Y65.9612
G01 X37.7272 Y65.8846
G01 X37.7338 Y65.8715
G01 X37.7411 Y65.8587
G01 X37.7846 Y65.7860
G01 X37.7925 Y65.7735
G01 X37.8010 Y65.7615
G01 X37.8515 Y65.6934
G01 X37.8605 Y65.6818
G01 X37.8701 Y65.6707
G01 X37.9271 Y65.6079
G01 X37.9372 Y65.5972
G01 X37.9479 Y65.5871
G01 X38.0107 Y65.5301
G01 X38.0218 Y65.5205
G01 X38.0334 Y65.5115
G01 X38.1015 Y65.4610
G01 X38.1135 Y65.4525
G01 X38.1260 Y65.4446
G01 X38.1987 Y65.4011
G01 X38.2115 Y65.3938
G01 X38.2246 Y65.3872
G01 X38.3012 Y65.3509
G01 X38.3147 Y65.3450
G01 X38.3284 Y65.3397
G01 X38.4082 Y65.3111
G01 X38.4222 Y65.3065
G01 X38.4364 Y65.3026
G01 X38.5186 Y65.2820
G01 X38.5330 Y65.2788
G01 X38.5475 Y65.2762
G01 X38.6313 Y65.2638
G01 X38.6459 Y65.2620
G01 X38.6606 Y65.2609
G01 X38.7453 Y65.2568
G01 X38.7600 Y65.2564
G01 X38.7747 Y65.2568
G01 X38.8594 Y65.2609
G01 X38.8741 Y65.2620
G01 X38.8887 Y65.2638
G01 X38.9725 Y65.2762
G01 X38.9870 Y65.2788
G01 X39.0014 Y65.2820
G01 X39.0836 Y65.3026
G01 X39.0978 Y65.3065
G01 X39.1118 Y65.3111
G01 X39.1916 Y65.3397
G01 X39.2053 Y65.3450
G01 X39.2188 Y65.3509
G01 X39.2954 Y65.3872
G01 X39.3085 Y65.3938
G01 X39.3213 Y65.4011
G01 X39.3940 Y65.4446
G01 X39.4065 Y65.4525
G01 X39.4185 Y65.4610
G01 X39.4866 Y65.5115
G01 X39.4982 Y65.5205
G01 X39.5093 Y65.5301
G01 X39.5721 Y65.5871
G01 X39.5828 Y65.5972
G01 X39.5929 Y65.6079
G01 X39.6499 Y65.6707
G01 X39.6595 Y65.6818
G01 X39.6685 Y65.6934
G01 X39.7190 Y65.7615
G01 X39.7275 Y65.7735
G01 X39.7354 Y65.7860
G01 X39.7789 Y65.8587
G01 X39.7862 Y65.8715
G01 X39.7928 Y65.8846
G01 X39.8291 Y65.9612
G01 X39.8350 Y65.9747
G01 X39.8403 Y65.9884
G01 X39.8689 Y66.0682
G01 X39.8735 Y66.0822
G01 X39.8774 Y66.0964
G01 X39.8980 Y66.1786
G01 X39.9012 Y66.1930
G01 X39.9038 Y66.2075
G01 X39.9162 Y66.2913
G01 X39.9180 Y66.3059
G01 X39.9191 Y66.3206
G01 X39.9232 Y66.4053
G01 X39.9236 Y66.4200
G01 X39.9232 Y66.4347
G01 X39.9191 Y66.5194
G01 X39.9180 Y66.5341
G01 X39.9162 Y66.5487
G01 X39.9038 Y66.6325
G01 X39.9012 Y66.6470
G01 X39.8980 Y66.6614
G01 X39.8774 Y66.7436
G01 X39.8735 Y66.7578
G01 X39.8689 Y66.7718
G01 X39.8403 Y66.8516
G01 X39.8350 Y66.8653
G01 X39.8291 Y66.8788
G01 X39.7928 Y66.9554
G01 X39.7862 Y66.9685
G01 X39.7789 Y66.9813
G01 X39.7354 Y67.0540
G01 X39.7275 Y67.0665
G01 X39.7190 Y67.0785
G01 X39.6685 Y67.1466
G01 X39.6595 Y67.1582
G01 X39.6499 Y67.1693
G01 X39.5929 Y67.2321
G01 X39.5828 Y67.2428
G01 X39.5721 Y67.2529
G01 X39.5093 Y67.3099
G01 X39.4982 Y67.3195
G01 X39.4866 Y67.3285
G01 X39.4185 Y67.3790
G01 X39.4065 Y67.3875
G01 X39.3940 Y67.3954
G01 X39.3213 Y67.4389
G01 X39.3085 Y67.4462
G01 X39.2954 Y67.4528
G01 X39.2188 Y67.4891
G01 X39.2053 Y67.4950
G01 X39.1916 Y67.5003
G01 X39.1118 Y67.5289
G01 X39.0978 Y67.5335
G01 X39.0836 Y67.5374
G01 X39.0014 Y67.5580
G01 X38.9870 Y67.5612
G01 X38.9725 Y67.5638
G01 X38.8887 Y67.5762
G01 X38.8741 Y67.5780
G01 X38.8594 Y67.5791
G01 X38.7747 Y67.5832
G01 X38.7600 Y67.5836
G01 X38.7453 Y67.5832
G01 X38.6606 Y67.5791
G01 X38.6459 Y67.5780
G01 X38.6313 Y67.5762
G01 X38.5475 Y67.5638
G01 X38.5330 Y67.5612
G01 X38.5186 Y67.5580
G01 X38.4364 Y67.5374
G01 X38.4222 Y67.5335
G01 X38.4082 Y67.5289
G01 X38.3284 Y67.5003
G01 X38.3147 Y67.4950
G01 X38.3012 Y67.4891
G01 X38.2246 Y67.4528
G01 X38.2115 Y67.4462
G01 X38.1987 Y67.4389
G01 X38.1260 Y67.3954
G01 X38.1135 Y67.3875
G01 X38.1015 Y67.3790
G01 X38.0334 Y67.3285
G01 X38.0218 Y67.3195
G01 X38.0107 Y67.3099
G01 X37.9479 Y67.2529
G01 X37.9372 Y67.2428
G01 X37.9271 Y67.2321
G01 X37.8701 Y67.1693
G01 X37.8605 Y67.1582
G01 X37.8515 Y67.1466
G01 X37.8010 Y67.0785
G01 X37.7925 Y67.0665
G01 X37.7846 Y67.0540
G01 X37.7411 Y66.9813
G01 X37.7338 Y66.9685
G01 X37.7272 Y66.9554
G01 X37.6909 Y66.8788
G01 X37.6850 Y66.8653
G01 X37.6797 Y66.8516
G01 X37.6511 Y66.7718
G01 X37.6465 Y66.7578
G01 X37.6426 Y66.7436
G01 X37.6220 Y66.6614
G01 X37.6188 Y66.6470
G01 X37.6162 Y66.6325
G01 X37.6038 Y66.5487
G01 X37.6020 Y66.5341
G01 X37.6009 Y66.5194
G01 X37.5968 Y66.4347
G00 Z2.0000
G00 X37.5968 Y68.9747
G01 F60.00
G01 Z-0.1500
G01 F100.00
G01 X37.5964 Y68.9600
G01 X37.5968 Y68.9453
G01 X37.6009 Y68.8606
G01 X37.6020 Y68.8459
G01 X37.6038 Y68.8313
G01 X37.6162 Y68.7475
G01 X37.6188 Y68.7330
G01 X37.6220 Y68.7186
G01 X37.6426 Y68.6364
G01 X37.6465 Y68.6222
G01 X37.6511 Y68.6082
G01 X37.6797 Y68.5284
G01 X37.6850 Y68.5147
G01 X37.6909 Y68.5012
G01 X37.7272 Y68.4246
G01 X37.7338 Y68.4115
G01 X37.7411 Y68.3987
G01 X37.7846 Y68.3260
G01 X37.7925 Y68.3135
G01 X37.8010 Y68.3015
G01 X37.8515 Y68.2334
G01 X37.8605 Y68.2218
G01 X37.8701 Y68.2107
G01 X37.9271 Y68.1479
G01 X37.9372 Y68.1372
G01 X37.9479 Y68.1271
G01 X38.0107 Y68.0701
G01 X38.0218 Y68.0605
G01 X38.0334 Y68.0515
G01 X38.1015 Y68.0010
G01 X38.1135 Y67.9925
G01 X38.1260 Y67.9846
G01 X38.1987 Y67.9411
G01 X38.2115 Y67.9338
G01 X38.2246 Y67.9272
G01 X38.3012 Y67.8909
G01 X38.3147 Y67.8850
G01 X38.3284 Y67.8797
G01 X38.4082 Y67.8511
G01 X38.4222 Y67.8465
G01 X38.4364 Y67.8426
G01 X38.5186 Y67.8220
G01 X38.5330 Y67.8188
G01 X38.5475 Y67.8162
G01 X38.6313 Y67.8038
G01 X38.6459 Y67.8020
G01 X38.6606 Y67.8009
G01 X38.7453 Y67.7968
G01 X38.7600 Y67.7964
G01 X38.7747 Y67.7968
G01 X38.8594 Y67.8009
G01 X38.8741 Y67.8020
G01 X38.8887 Y67.8038
G01 X38.9725 Y67.8162
G01 X38.9870 Y67.8188
G01 X39.0014 Y67.8220
G01 X39.0836 Y67.8426
G01 X39.0978 Y67.8465
G01 X39.1118 Y67.8511
G01 X39.1916 Y67.8797
G01 X39.2053 Y67.8850
G01 X39.2188 Y67.8909
G01 X39.2954 Y67.9272
G01 X39.3085 Y67.9338
G01 X39.3213 Y67.9411
G01 X39.3940 Y67.9846
G01 X39.4065 Y67.9925
G01 X39.4185 Y68.0010
G01 X39.4866 Y68.0515
G01 X39.4982 Y68.0605
G01 X39.5093 Y68.0701
G01 X39.5721 Y68.1271
G01 X39.5828 Y68.1372
G01 X39.5929 Y68.1479
G01 X39.6499 Y68.2107
G01 X39.6595 Y68.2218
G01 X39.6685 Y68.2334
G01 X39.7190 Y68.3015
G01 X39.7275 Y68.3135
G01 X39.7354 Y68.3260
G01 X39.7789 Y68.3987
G01 X39.7862 Y68.4115
G01 X39.7928 Y68.4246
G01 X39.8291 Y68.5012
G01 X39.8350 Y68.5147
G01 X39.8403 Y68.5284
G01 X39.8689 Y68.6082
G01 X39.8735 Y68.6222
G01 X39.8774 Y68.6364
G01 X39.8980 Y68.7186
G01 X39.9012 Y68.7330
G01 X39.9038 Y68.7475
G01 X39.9162 Y68.8313
G01 X39.9180 Y68.8459
G01 X39.9191 Y68.8606
G01 X39.9232 Y68.9453
G01 X39.9236 Y68.9600
G01 X39.9232 Y68.9747
G01 X39.9191 Y69.0594
G01 X39.9180 Y69.0741
G01 X39.9162 Y69.0887
G01 X39.9038 Y69.1725
G01 X39.9012 Y69.1870
G01 X39.8980 Y69.2014
G01 X39.8774 Y69.2836
G01 X39.8735 Y69.2978
G01 X39.8689 Y69.3118
G01 X39.8403 Y69.3916
G01 X39.8350 Y69.4053
G01 X39.8291 Y69.4188
G01 X39.7928 Y69.4954
G01 X39.7862 Y69.5085
G01 X39.7789 Y69.5213
G01 X39.7354 Y69.5940
G01 X39.7275 Y69.6065
G01 X39.7190 Y69.6185
G01 X39.6685 Y69.6866
G01 X39.6595 Y69.6982
G01 X39.6499 Y69.7093
G01 X39.5929 Y69.7721
G01 X39.5828 Y69.7828
G01 X39.5721 Y69.7929
G01 X39.5093 Y69.8499
G01 X39.4982 Y69.8595
G01 X39.4866 Y69.8685
G01 X39.4185 Y69.9190
G01 X39.4065 Y69.9275
G01 X39.3940 Y69.9354
G01 X39.3213 Y69.9789
G01 X39.3085 Y69.9862
G01 X39.2954 Y69.9928
G01 X39.2188 Y70.0291
G01 X39.2053 Y70.0350
G01 X39.1916 Y70.0403
G01 X39.1118 Y70.0689
G01 X39.0978 Y70.0735
G01 X39.0836 Y70.0774
G01 X39.0014 Y70.0980
G01 X38.9870 Y70.1012
G01 X38.9725 Y70.1038
G01 X38.8887 Y70.1162
G01 X38.8741 Y70.1180
G01 X38.8594 Y70.1191
G01 X38.7747 Y70.1232
G01 X38.7600 Y70.1236
G01 X38.7453 Y70.1232
G01 X38.6606 Y70.1191
G01 X38.6459 Y70.1180
G01 X38.6313 Y70.1162
G01 X38.5475 Y70.1038
G01 X38.5330 Y70.1012
G01 X38.5186 Y70.0980
G01 X38.4364 Y70.0774
G01 X38.4222 Y70.0735
G01 X38.4082 Y70.0689
G01 X38.3284 Y70.0403
G01 X38.3147 Y70.0350
G01 X38.3012 Y70.0291
G01 X38.2246 Y69.9928
G01 X38.2115 Y69.9862
G01 X38.1987 Y69.9789
G01 X38.1260 Y69.9354
G01 X38.1135 Y69.9275
G01 X38.1015 Y69.9190
G01 X38.0334 Y69.8685
G01 X38.0218 Y69.8595
G01 X38.0107 Y69.8499
G01 X37.9479 Y69.7929
G01 X37.9372 Y69.7828
G01 X37.9271 Y69.7721
G01 X37.8701 Y69.7093
G01 X37.8605 Y69.6982
G01 X37.8515 Y69.6866
G01 X37.8010 Y69.6185
G01 X37.7925 Y69.6065
G01 X37.7846 Y69.5940
G01 X37.7411 Y69.5213
G01 X37.7338 Y69.5085
G01 X37.7272 Y69.4954
G01 X37.6909 Y69.4188
G01 X37.6850 Y69.4053
G01 X37.6797 Y69.3916
G01 X37.6511 Y69.3118
G01 X37.6465 Y69.2978
G01 X37.6426 Y69.2836
G01 X37.6220 Y69.2014
G01 X37.6188 Y69.1870
G01 X37.6162 Y69.1725
G01 X37.6038 Y69.0887
G01 X37.6020 Y69.0741
G01 X37.6009 Y69.0594
G01 X37.5968 Y68.9747
G00 Z2.0000
G00 X37.5968 Y74.0547
G01 F60.00
G01 Z-0.1500
G01 F100.00
G01 X37.5964 Y74.0400
G01 X37.5968 Y74.0253
G01 X37.6009 Y73.9406
G01 X37.6020 Y73.9259
G01 X37.6038 Y73.9113
G01 X37.6162 Y73.8275
G01 X37.6188 Y73.8130
G01 X37.6220 Y73.7986
G01 X37.6426 Y73.7164
G01 X37.6465 Y73.7022
G01 X37.6511 Y73.6882
G01 X37.6797 Y73.6084
G01 X37.6850 Y73.5947
G01 X37.6909 Y73.5812
G01 X37.7272 Y73.5046
G01 X37.7338 Y73.4915
G01 X37.7411 Y73.4787
G01 X37.7846 Y73.4060
G01 X37.7925 Y73.3935
G01 X37.8010 Y73.3815
G01 X37.8515 Y73.3134
G01 X37.8605 Y73.3018
G01 X37.8701 Y73.2907
G01 X37.9271 Y73.2279
G01 X37.9372 Y73.2172
G01 X37.9479 Y73.2071
G01 X38.0107 Y73.1501
G01 X38.0218 Y73.1405
G01 X38.0334 Y73.1315
G01 X38.1015 Y73.0810
G01 X38.1135 Y73.0725
G01 X38.1260 Y73.0646
G01 X38.1987 Y73.0211
G01 X38.2115 Y73.0138
G01 X38.2246 Y73.0072
G01 X38.3012 Y72.9709
G01 X38.3147 Y72.9650
G01 X38.3284 Y72.9597
G01 X38.4082 Y72.9311
G01 X38.4222 Y72.9265
G01 X38.4364 Y72.9226
G01 X38.5186 Y72.9020
G01 X38.5330 Y72.8988
G01 X38.5475 Y72.8962
G01 X38.6313 Y72.8838
G01 X38.6459 Y72.8820
G01 X38.6606 Y72.8809
G01 X38.7453 Y72.8768
G01 X38.7600 Y72.8764
G01 X38.7747 Y72.8768
G01 X38.8594 Y72.8809
G01 X38.8741 Y72.8820
G01 X38.8887 Y72.8838
G01 X38.9725 Y72.8962
G01 X38.9870 Y72.8988
G01 X39.0014 Y72.9020
G01 X39.0836 Y72.9226
G01 X39.0978 Y72.9265
G01 X39.1118 Y72.9311
G01 X39.1916 Y72.9597
G01 X39.2053 Y72.9650
G01 X39.2188 Y72.9709
G01 X39.2954 Y73.0072
G01 X39.3085 Y73.0138
G01 X39.3213 Y73.0211
G01 X39.3940 Y73.0646
G01 X39.4065 Y73.0725
G01 X39.4185 Y73.0810
G01 X39.4866 Y73.1315
G01 X39.4982 Y73.1405
G01 X39.5093 Y73.1501
G01 X39.5721 Y73.2071
G01 X39.5828 Y73.2172
G01 X39.5929 Y73.2279
G01 X39.6499 Y73.2907
G01 X39.6595 Y73.3018
G01 X39.6685 Y73.3134
G01 X39.7190 Y73.3815
G01 X39.7275 Y73.3935
G01 X39.7354 Y73.4060
G01 X39.7789 Y73.4787
G01 X39.7862 Y73.4915
G01 X39.7928 Y73.5046
G01 X39.8291 Y73.5812
G01 X39.8350 Y73.5947
G01 X39.8403 Y73.6084
G01 X39.8689 Y73.6882
G01 X39.8735 Y73.7022
G01 X39.8774 Y73.7164
G01 X39.8980 Y73.7986
G01 X39.9012 Y73.8130
G01 X39.9038 Y73.8275
G01 X39.9162 Y73.9113
G01 X39.9180 Y73.9259
G01 X39.9191 Y73.9406
G01 X39.9232 Y74.0253
G01 X39.9236 Y74.0400
G01 X39.9232 Y74.0547
G01 X39.9191 Y74.1394
G01 X39.9180 Y74.1541
G01 X39.9162 Y74.1687
G01 X39.9038 Y74.2525
G01 X39.9012 Y74.2670
G01 X39.8980 Y74.2814
G01 X39.8774 Y74.3636
G01 X39.8735 Y74.3778
G01 X39.8689 Y74.3918
G01 X39.8403 Y74.4716
G01 X39.8350 Y74.4853
G01 X39.8291 Y74.4988
G01 X39.7928 Y74.5754
G01 X39.7862 Y74.5885
G01 X39.7789 Y74.6013
G01 X39.7354 Y74.6740
G01 X39.7275 Y74.6865
G01 X39.7190 Y74.6985
G01 X39.6685 Y74.7666
G01 X39.6595 Y74.7782
G01 X39.6499 Y74.7893
G01 X39.5929 Y74.8521
G01 X39.5828 Y74.8628
G01 X39.5721 Y74.8729
G01 X39.5093 Y74.9299
G01 X39.4982 Y74.9395
G01 X39.4866 Y74.9485
G01 X39.4185 Y74.9990
G01 X39.4065 Y75.0075
G01 X39.3940 Y75.0154
G01 X39.3213 Y75.0589
G01 X39.3085 Y75.0662
G01 X39.2954 Y75.0728
G01 X39.2188 Y75.1091
G01 X39.2053 Y75.1150
G01 X39.1916 Y75.1203
G01 X39.1118 Y75.1489
G01 X39.0978 Y75.1535
G01 X39.0836 Y75.1574
G01 X39.0014 Y75.1780
G01 X38.9870 Y75.1812
G01 X38.9725 Y75.1838
G01 X38.8887 Y75.1962
G01 X38.8741 Y75.1980
G01 X38.8594 Y75.1991
G01 X38.7747 Y75.2032
G01 X38.7600 Y75.2036
G01 X38.7453 Y75.2032
G01 X38.6606 Y75.1991
G01 X38.6459 Y75.1980
G01 X38.6313 Y75.1962
G01 X38.5475 Y75.1838
G01 X38.5330 Y75.1812
G01 X38.5186 Y75.1780
G01 X38.4364 Y75.1574
G01 X38.4222 Y75.1535
G01 X38.4082 Y75.1489
G01 X38.3284 Y75.1203
G01 X38.3147 Y75.1150
G01 X38.3012 Y75.1091
G01 X38.2246 Y75.0728
G01 X38.2115 Y75.0662
G01 X38.1987 Y75.0589
G01 X38.1260 Y75.0154
G01 X38.1135 Y75.0075
G01 X38.1015 Y74.9990
G01 X38.0334 Y74.9485
G01 X38.0218 Y74.9395
G01 X38.0107 Y74.9299
G01 X37.9479 Y74.8729
G01 X37.9372 Y74.8628
G01 X37.9271 Y74.8521
G01 X37.8701 Y74.7893
G01 X37.8605 Y74.7782
G01 X37.8515 Y74.7666
G01 X37.8010 Y74.6985
G01 X37.7925 Y74.6865
G01 X37.7846 Y74.6740
G01 X37.7411 Y74.6013
G01 X37.7338 Y74.5885
G01 X37.7272 Y74.5754
G01 X37.6909 Y74.4988
G01 X37.6850 Y74.4853
G01 X37.6797 Y74.4716
G01 X37.6511 Y74.3918
G01 X37.6465 Y74.3778
G01 X37.6426 Y74.3636
G01 X37.6220 Y74.2814
G01 X37.6188 Y74.2670
G01 X37.6162 Y74.2525
G01 X37.6038 Y74.1687
G01 X37.6020 Y74.1541
G01 X37.6009 Y74.1394
G01 X37.5968 Y74.0547
G00 Z2.0000
G00 X37.5968 Y79.1347
G01 F60.00
G01 Z-0.1500
G01 F100.00
G01 X37.5964 Y79.1200
G01 X37.5968 Y79.1053
G01 X37.6009 Y79.0206
G01 X37.6020 Y79.0059
G01 X37.6038 Y78.9913
G01 X37.6162 Y78.9075
G01 X37.6188 Y78.8930
G01 X37.6220 Y78.8786
G01 X37.6426 Y78.7964
G01 X37.6465 Y78.7822
G01 X37.6511 Y78.7682
G01 X37.6797 Y78.6884
G01 X37.6850 Y78.6747
G01 X37.6909 Y78.6612
G01 X37.7272 Y78.5846
G01 X37.7338 Y78.5715
G01 X37.7411 Y78.5587
G01 X37.7846 Y78.4860
G01 X37.7925 Y78.4735
G01 X37.8010 Y78.4615
G01 X37.8515 Y78.3934
G01 X37.8605 Y78.3818
G01 X37.8701 Y78.3707
G01 X37.9271 Y78.3079
G01 X37.9372 Y78.2972
G01 X37.9479 Y78.2871
G01 X38.0107 Y78.2301
G01 X38.0218 Y78.2205
G01 X38.0334 Y78.2115
G01 X38.1015 Y78.1610
G01 X38.1135 Y78.1525
G01 X38.1260 Y78.1446
G01 X38.1987 Y78.1011
G01 X38.2115 Y78.0938
G01 X38.2246 Y78.0872
G01 X38.3012 Y78.0509
G01 X38.3147 Y78.0450
G01 X38.3284 Y78.0397
G01 X38.4082 Y78.0111
G01 X38.4222 Y78.0065
G01 X38.4364 Y78.0026
G01 X38.5186 Y77.9820
G01 X38.5330 Y77.9788
G01 X38.5475 Y77.9762
G01 X38.6313 Y77.9638
G01 X38.6459 Y77.9620
G01 X38.6606 Y77.9609
G01 X38.7453 Y77.9568
G01 X38.7600 Y77.9564
G01 X38.7747 Y77.9568
G01 X38.8594 Y77.9609
G01 X38.8741 Y77.9620
G01 X38.8887 Y77.9638
G01 X38.9725 Y77.9762
G01 X38.9870 Y77.9788
G01 X39.0014 Y77.9820
G01 X39.0836 Y78.0026
G01 X39.0978 Y78.0065
G01 X39.1118 Y78.0111
G01 X39.1916 Y78.0397
G01 X39.2053 Y78.0450
G01 X39.2188 Y78.0509
G01 X39.2954 Y78.0872
G01 X39.3085 Y78.0938
G01 X39.3213 Y78.1011
G01 X39.3940 Y78.1446
G01 X39.4065 Y78.1525
G01 X39.4185 Y78.1610
G01 X39.4866 Y78.2115
G01 X39.4982 Y78.2205
G01 X39.5093 Y78.2301
G01 X39.5721 Y78.2871
G01 X39.5828 Y78.2972
G01 X39.5929 Y78.3079
G01 X39.6499 Y78.3707
G01 X39.6595 Y78.3818
G01 X39.6685 Y78.3934
G01 X39.7190 Y78.4615
G01 X39.7275 Y78.4735
G01 X39.7354 Y78.4860
G01 X39.7789 Y78.5587
G01 X39.7862 Y78.5715
G01 X39.7928 Y78.5846
G01 X39.8291 Y78.6612
G01 X39.8350 Y78.6747
G01 X39.8403 Y78.6884
G01 X39.8689 Y78.7682
G01 X39.8735 Y78.7822
G01 X39.8774 Y78.7964
G01 X39.8980 Y78.8786
G01 X39.9012 Y78.8930
G01 X39.9038 Y78.9075
G01 X39.9162 Y78.9913
G01 X39.9180 Y79.0059
G01 X39.9191 Y79.0206
G01 X39.9232 Y79.1053
G01 X39.9236 Y79.1200
G01 X39.9232 Y79.1347
G01 X39.9191 Y79.2194
G01 X39.9180 Y79.2341
G01 X39.9162 Y79.2487
G01 X39.9038 Y79.3325
G01 X39.9012 Y79.3470
G01 X39.8980 Y79.3614
G01 X39.8774 Y79.4436
G01 X39.8735 Y79.4578
G01 X39.8689 Y79.4718
G01 X39.8403 Y79.5516
G01 X39.8350 Y79.5653
G01 X39.8291 Y79.5788
G01 X39.7928 Y79.6554
G01 X39.7862 Y79.6685
G01 X39.7789 Y79.6813
G01 X39.7354 Y79.7540
G01 X39.7275 Y79.7665
G01 X39.7190 Y79.7785
G01 X39.6685 Y79.8466
G01 X39.6595 Y79.8582
G01 X39.6499 Y79.8693
G01 X39.5929 Y79.9321
G01 X39.5828 Y79.9428
G01 X39.5721 Y79.9529
G01 X39.5093 Y80.0099
G01 X39.4982 Y80.0195
G01 X39.4866 Y80.0285
G01 X39.4185 Y80.0790
G01 X39.4065 Y80.0875
G01 X39.3940 Y80.0954
G01 X39.3213 Y80.1389
G01 X39.3085 Y80.1462
G01 X39.2954 Y80.1528
G01 X39.2188 Y80.1891
G01 X39.2053 Y80.1950
G01 X39.1916 Y80.2003
G01 X39.1118 Y80.2289
G01 X39.0978 Y80.2335
G01 X39.0836 Y80.2374
G01 X39.0014 Y80.2580
G01 X38.9870 Y80.2612
G01 X38.9725 Y80.2638
G01 X38.8887 Y80.2762
G01 X38.8741 Y80.2780
G01 X38.8594 Y80.2791
G01 X38.7747 Y80.2832
G01 X38.7600 Y80.2836
G01 X38.7453 Y80.2832
G01 X38.6606 Y80.2791
G01 X38.6459 Y80.2780
G01 X38.6313 Y80.2762
G01 X38.5475 Y80.2638
G01 X38.5330 Y80.2612
G01 X38.5186 Y80.2580
G01 X38.4364 Y80.2374
G01 X38.4222 Y80.2335
G01 X38.4082 Y80.2289
G01 X38.3284 Y80.2003
G01 X38.3147 Y80.1950
G01 X38.3012 Y80.1891
G01 X38.2246 Y80.1528
G01 X38.2115 Y80.1462
G01 X38.1987 Y80.1389
G01 X38.1260 Y80.0954
G01 X38.1135 Y80.0875
G01 X38.1015 Y80.0790
G01 X38.0334 Y80.0285
G01 X38.0218 Y80.0195
G01 X38.0107 Y80.0099
G01 X37.9479 Y79.9529
G01 X37.9372 Y79.9428
G01 X37.9271 Y79.9321
G01 X37.8701 Y79.8693
G01 X37.8605 Y79.8582
G01 X37.8515 Y79.8466
G01 X37.8010 Y79.7785
G01 X37.7925 Y79.7665
G01 X37.7846 Y79.7540
G01 X37.7411 Y79.6813
G01 X37.7338 Y79.6685
G01 X37.7272 Y79.6554
G01 X37.6909 Y79.5788
G01 X37.6850 Y79.5653
G01 X37.6797 Y79.5516
G01 X37.6511 Y79.4718
G01 X37.6465 Y79.4578
G01 X37.6426 Y79.4436
G01 X37.6220 Y79.3614
G01 X37.6188 Y79.3470
G01 X37.6162 Y79.3325
G01 X37.6038 Y79.2487
G01 X37.6020 Y79.2341
G01 X37.6009 Y79.2194
G01 X37.5968 Y79.1347
G00 Z2.0000
G00 X40.0235 Y79.3713
G01 F60.00
G01 Z-0.1500
G01 F100.00
G01 X39.8312 Y79.8357
G01 X39.4757 Y80.1912
G01 X39.0113 Y80.3835
G01 X38.5087 Y80.3835
G01 X38.0443 Y80.1912
G01 X37.6888 Y79.8357
G01 X37.4965 Y79.3713
G01 X37.4965 Y78.8687
G01 X37.6888 Y78.4043
G01 X38.0443 Y78.0488
G01 X38.5087 Y77.8565
G01 X39.0113 Y77.8565
G01 X39.4757 Y78.0488
G01 X39.8312 Y78.4043
G01 X40.0235 Y78.8687
G01 X40.0235 Y79.3713
G00 Z2.0000
G00 X52.8368 Y74.0547
G01 F60.00
G01 Z-0.1500
G01 F100.00
G01 X52.8364 Y74.0400
G01 X52.8368 Y74.0253
G01 X52.8409 Y73.9406
G01 X52.8420 Y73.9259
G01 X52.8438 Y73.9113
G01 X52.8562 Y73.8275
G01 X52.8588 Y73.8130
G01 X52.8620 Y73.7986
G01 X52.8826 Y73.7164
G01 X52.8865 Y73.7022
G01 X52.8911 Y73.6882
G01 X52.9197 Y73.6084
G01 X52.9250 Y73.5947
G01 X52.9309 Y73.5812
G01 X52.9672 Y73.5046
G01 X52.9738 Y73.4915
G01 X52.9811 Y73.4787
G01 X53.0246 Y73.4060
G01 X53.0325 Y73.3935
G01 X53.0410 Y73.3815
G01 X53.0915 Y73.3134
G01 X53.1005 Y73.3018
G01 X53.1101 Y73.2907
G01 X53.1671 Y73.2279
G01 X53.1772 Y73.2172
G01 X53.1879 Y73.2071
G01 X53.2507 Y73.1501
G01 X53.2618 Y73.1405
G01 X53.2734 Y73.1315
G01 X53.3415 Y73.0810
G01 X53.3535 Y73.0725
G01 X53.3660 Y73.0646
G01 X53.4387 Y73.0211
G01 X53.4515 Y73.0138
G01 X53.4646 Y73.0072
G01 X53.5412 Y72.9709
G01 X53.5547 Y72.9650
G01 X53.5684 Y72.9597
G01 X53.6482 Y72.9311
G01 X53.6622 Y72.9265
G01 X53.6764 Y72.9226
G01 X53.7586 Y72.9020
G01 X53.7730 Y72.8988
G01 X53.7875 Y72.8962
G01 X53.8713 Y72.8838
G01 X53.8859 Y72.8820
G01 X53.9006 Y72.8809
G01 X53.9853 Y72.8768
G01 X54.0000 Y72.8764
G01 X54.0147 Y72.8768
G01 X54.0994 Y72.8809
G01 X54.1141 Y72.8820
G01 X54.1287 Y72.8838
G01 X54.2125 Y72.8962
G01 X54.2270 Y72.8988
G01 X54.2414 Y72.9020
G01 X54.3236 Y72.9226
G01 X54.3378 Y72.9265
G01 X54.3518 Y72.9311
G01 X54.4316 Y72.9597
G01 X54.4453 Y72.9650
G01 X54.4588 Y72.9709
G01 X54.5354 Y73.0072
G01 X54.5485 Y73.0138
G01 X54.5613 Y73.0211
G01 X54.6340 Y73.0646
G01 X54.6465 Y73.0725
G01 X54.6585 Y73.0810
G01 X54.7266 Y73.1315
G01 X54.7382 Y73.1405
G01 X54.7493 Y73.1501
G01 X54.8121 Y73.2071
G01 X54.8228 Y73.2172
G01 X54.8329 Y73.2279
G01 X54.8899 Y73.2907
G01 X54.8995 Y73.3018
G01 X54.9085 Y73.3134
G01 X54.9590 Y73.3815
G01 X54.9675 Y73.3935
G01 X54.9754 Y73.4060
G01 X55.0189 Y73.4787
G01 X55.0262 Y73.4915
G01 X55.0328 Y73.5046
G01 X55.0691 Y73.5812
G01 X55.0750 Y73.5947
G01 X55.0803 Y73.6084
G01 X55.1089 Y73.6882
G01 X55.1135 Y73.7022
G01 X55.1174 Y73.7164
G01 X55.1380 Y73.7986
G01 X55.1412 Y73.8130
G01 X55.1438 Y73.8275
G01 X55.1562 Y73.9113
G01 X55.1580 Y73.9259
G01 X55.1591 Y73.9406
G01 X55.1632 Y74.0253
G01 X55.1636 Y74.0400
G01 X55.1632 Y74.0547
G01 X55.1591 Y74.1394
G01 X55.1580 Y74.1541
G01 X55.1562 Y74.1687
G01 X55.1438 Y74.2525
G01 X55.1412 Y74.2670
G01 X55.1380 Y74.2814
G01 X55.1174 Y74.3636
G01 X55.1135 Y74.3778
G01 X55.1089 Y74.3918
G01 X55.0803 Y74.4716
G01 X55.0750 Y74.4853
G01 X55.0691 Y74.4988
G01 X55.0328 Y74.5754
G01 X55.0262 Y74.5885
G01 X55.0189 Y74.6013
G01 X54.9754 Y74.6740
G01 X54.9675 Y74.6865
G01 X54.9590 Y74.6985
G01 X54.9085 Y74.7666
G01 X54.8995 Y74.7782
G01 X54.8899 Y74.7893
G01 X54.8329 Y74.8521
G01 X54.8228 Y74.8628
G01 X54.8121 Y74.8729
G01 X54.7493 Y74.9299
G01 X54.7382 Y74.9395
G01 X54.7266 Y74.9485
G01 X54.6585 Y74.9990
G01 X54.6465 Y75.0075
G01 X54.6340 Y75.0154
G01 X54.5613 Y75.0589
G01 X54.5485 Y75.0662
G01 X54.5354 Y75.0728
G01 X54.4588 Y75.1091
G01 X54.4453 Y75.1150
G01 X54.4316 Y75.1203
G01 X54.3518 Y75.1489
G01 X54.3378 Y75.1535
G01 X54.3236 Y75.1574
G01 X54.2414 Y75.1780
G01 X54.2270 Y75.1812
G01 X54.2125 Y75.1838
G01 X54.1287 Y75.1962
G01 X54.1141 Y75.1980
G01 X54.0994 Y75.1991
G01 X54.0147 Y75.2032
G01 X54.0000 Y75.2036
G01 X53.9853 Y75.2032
G01 X53.9006 Y75.1991
G01 X53.8859 Y75.1980
G01 X53.8713 Y75.1962
G01 X53.7875 Y75.1838
G01 X53.7730 Y75.1812
G01 X53.7586 Y75.1780
G01 X53.6764 Y75.1574
G01 X53.6622 Y75.1535
G01 X53.6482 Y75.1489
G01 X53.5684 Y75.1203
G01 X53.5547 Y75.1150
G01 X53.5412 Y75.1091
G01 X53.4646 Y75.0728
G01 X53.4515 Y75.0662
G01 X53.4387 Y75.0589
G01 X53.3660 Y75.0154
G01 X53.3535 Y75.0075
G01 X53.3415 Y74.9990
G01 X53.2734 Y74.9485
G01 X53.2618 Y74.9395
G01 X53.2507 Y74.9299
G01 X53.1879 Y74.8729
G01 X53.1772 Y74.8628
G01 X53.1671 Y74.8521
G01 X53.1101 Y74.7893
G01 X53.1005 Y74.7782
G01 X53.0915 Y74.7666
G01 X53.0410 Y74.6985
G01 X53.0325 Y74.6865
G01 X53.0246 Y74.6740
G01 X52.9811 Y74.6013
G01 X52.9738 Y74.5885
G01 X52.9672 Y74.5754
G01 X52.9309 Y74.4988
G01 X52.9250 Y74.4853
G01 X52.9197 Y74.4716
G01 X52.8911 Y74.3918
G01 X52.8865 Y74.3778
G01 X52.8826 Y74.3636
G01 X52.8620 Y74.2814
G01 X52.8588 Y74.2670
G01 X52.8562 Y74.2525
G01 X52.8438 Y74.1687
G01 X52.8420 Y74.1541
G01 X52.8409 Y74.1394
G01 X52.8368 Y74.0547
G00 Z2.0000
G00 X54.8437 Y75.7797
G01 F60.00
G01 Z-0.1500
G01 F100.00
G01 X56.5474 Y75.7798
G01 X56.6038 Y75.7825
G01 X56.6184 Y75.7836
G01 X56.6331 Y75.7854
G01 X56.6816 Y75.7926
G01 X56.7033 Y75.7967
G01 X56.7581 Y75.8103
G01 X56.7793 Y75.8164
G01 X56.8394 Y75.8379
G01 X56.8597 Y75.8466
G01 X56.9041 Y75.8676
G01 X56.9172 Y75.8742
G01 X56.9300 Y75.8815
G01 X56.9722 Y75.9067
G01 X56.9846 Y75.9146
G01 X56.9966 Y75.9231
G01 X57.0361 Y75.9523
G01 X57.0477 Y75.9614
G01 X57.0588 Y75.9710
G01 X57.1006 Y76.0090
G01 X59.9817 Y78.8900
G01 X61.5500 Y78.8900
G01 X61.5647 Y78.8904
G01 X61.5867 Y78.8923
G01 X61.6013 Y78.8944
G01 X61.6157 Y78.8973
G01 X61.6371 Y78.9029
G01 X61.6580 Y78.9101
G01 X61.6783 Y78.9188
G01 X61.6914 Y78.9254
G01 X61.7042 Y78.9327
G01 X61.7227 Y78.9447
G01 X61.7346 Y78.9535
G01 X61.7460 Y78.9628
G01 X61.7621 Y78.9779
G01 X61.7723 Y78.9885
G01 X61.7819 Y78.9997
G01 X61.7910 Y79.0113
G01 X61.7994 Y79.0233
G01 X61.8110 Y79.0421
G01 X61.8180 Y79.0551
G01 X61.8243 Y79.0684
G01 X61.8299 Y79.0820
G01 X61.8349 Y79.0959
G01 X61.8391 Y79.1100
G01 X61.8442 Y79.1315
G01 X61.8468 Y79.1460
G01 X61.8486 Y79.1606
G01 X61.8496 Y79.1753
G01 X61.8500 Y79.1900
G01 X61.8499 Y81.5974
G01 X61.8486 Y81.6194
G01 X61.8468 Y81.6340
G01 X61.8442 Y81.6485
G01 X61.8410 Y81.6629
G01 X61.8371 Y81.6771
G01 X61.8299 Y81.6980
G01 X61.8212 Y81.7183
G01 X61.8146 Y81.7314
G01 X61.8073 Y81.7442
G01 X61.7994 Y81.7567
G01 X61.7910 Y81.7687
G01 X61.7772 Y81.7860
G01 X61.7673 Y81.7969
G01 X61.7515 Y81.8123
G01 X61.7403 Y81.8219
G01 X61.7287 Y81.8310
G01 X61.7167 Y81.8394
G01 X61.7042 Y81.8473
G01 X61.6914 Y81.8546
G01 X61.6783 Y81.8612
G01 X61.6648 Y81.8672
G01 X61.6511 Y81.8725
G01 X61.6371 Y81.8771
G01 X61.6229 Y81.8810
G01 X61.6013 Y81.8856
G01 X61.5867 Y81.8877
G01 X61.5721 Y81.8892
G01 X61.5574 Y81.8899
G01 X59.1426 Y81.8899
G01 X59.1206 Y81.8886
G01 X59.0987 Y81.8856
G01 X59.0771 Y81.8810
G01 X59.0629 Y81.8771
G01 X59.0489 Y81.8725
G01 X59.0284 Y81.8643
G01 X59.0086 Y81.8546
G01 X58.9895 Y81.8435
G01 X58.9773 Y81.8353
G01 X58.9654 Y81.8265
G01 X58.9540 Y81.8172
G01 X58.9431 Y81.8073
G01 X58.9327 Y81.7969
G01 X58.9228 Y81.7860
G01 X58.9135 Y81.7746
G01 X58.9047 Y81.7627
G01 X58.8927 Y81.7442
G01 X58.8854 Y81.7314
G01 X58.8757 Y81.7116
G01 X58.8701 Y81.6980
G01 X58.8651 Y81.6841
G01 X58.8609 Y81.6700
G01 X58.8573 Y81.6557
G01 X58.8544 Y81.6413
G01 X58.8523 Y81.6267
G01 X58.8508 Y81.6121
G01 X58.8500 Y81.5900
G01 X58.8500 Y80.0217
G01 X56.2085 Y77.3803
G01 X54.8437 Y77.3803
G01 X54.8279 Y77.3975
G01 X54.8175 Y77.4079
G01 X54.7438 Y77.4747
G01 X54.7266 Y77.4885
G01 X54.6525 Y77.5433
G01 X54.6340 Y77.5554
G01 X54.5613 Y77.5989
G01 X54.5485 Y77.6062
G01 X54.5354 Y77.6128
G01 X54.4521 Y77.6521
G01 X54.4316 Y77.6603
G01 X54.3518 Y77.6889
G01 X54.3378 Y77.6935
G01 X54.3236 Y77.6974
G01 X54.2414 Y77.7180
G01 X54.2270 Y77.7212
G01 X54.2125 Y77.7238
G01 X54.1287 Y77.7362
G01 X54.1141 Y77.7380
G01 X54.0994 Y77.7391
G01 X54.0147 Y77.7432
G01 X54.0000 Y77.7436
G01 X53.9853 Y77.7432
G01 X53.9006 Y77.7391
G01 X53.8859 Y77.7380
G01 X53.8713 Y77.7362
G01 X53.7875 Y77.7238
G01 X53.7730 Y77.7212
G01 X53.7586 Y77.7180
G01 X53.6764 Y77.6974
G01 X53.6622 Y77.6935
G01 X53.6482 Y77.6889
G01 X53.5684 Y77.6603
G01 X53.5547 Y77.6550
G01 X53.5412 Y77.6491
G01 X53.4646 Y77.6128
G01 X53.4515 Y77.6062
G01 X53.4387 Y77.5989
G01 X53.3660 Y77.5554
G01 X53.3535 Y77.5475
G01 X53.3415 Y77.5390
G01 X53.2734 Y77.4885
G01 X53.2618 Y77.4795
G01 X53.2507 Y77.4699
G01 X53.1879 Y77.4129
G01 X53.1721 Y77.3975
G01 X53.1101 Y77.3293
G01 X53.1005 Y77.3182
G01 X53.0915 Y77.3066
G01 X53.0410 Y77.2385
G01 X53.0325 Y77.2265
G01 X53.0246 Y77.2140
G01 X52.9811 Y77.1413
G01 X52.9738 Y77.1285
G01 X52.9672 Y77.1154
G01 X52.9309 Y77.0388
G01 X52.9250 Y77.0253
G01 X52.9197 Y77.0116
G01 X52.8911 Y76.9318
G01 X52.8865 Y76.9178
G01 X52.8826 Y76.9036
G01 X52.8620 Y76.8214
G01 X52.8588 Y76.8070
G01 X52.8562 Y76.7925
G01 X52.8438 Y76.7087
G01 X52.8420 Y76.6941
G01 X52.8409 Y76.6794
G01 X52.8368 Y76.5947
G01 X52.8364 Y76.5800
G01 X52.8368 Y76.5653
G01 X52.8409 Y76.4806
G01 X52.8420 Y76.4659
G01 X52.8438 Y76.4513
G01 X52.8562 Y76.3675
G01 X52.8588 Y76.3530
G01 X52.8620 Y76.3386
G01 X52.8826 Y76.2564
G01 X52.8865 Y76.2422
G01 X52.8911 Y76.2282
G01 X52.9197 Y76.1484
G01 X52.9250 Y76.1347
G01 X52.9309 Y76.1212
G01 X52.9672 Y76.0446
G01 X52.9738 Y76.0315
G01 X52.9811 Y76.0187
G01 X53.0246 Y75.9460
G01 X53.0325 Y75.9335
G01 X53.0410 Y75.9215
G01 X53.0915 Y75.8534
G01 X53.1005 Y75.8418
G01 X53.1101 Y75.8307
G01 X53.1671 Y75.7679
G01 X53.1825 Y75.7521
G01 X53.2507 Y75.6901
G01 X53.2618 Y75.6805
G01 X53.2734 Y75.6715
G01 X53.3415 Y75.6210
G01 X53.3535 Y75.6125
G01 X53.3660 Y75.6046
G01 X53.4387 Y75.5611
G01 X53.4515 Y75.5538
G01 X53.4646 Y75.5472
G01 X53.5412 Y75.5109
G01 X53.5547 Y75.5050
G01 X53.5684 Y75.4997
G01 X53.6482 Y75.4711
G01 X53.6622 Y75.4665
G01 X53.6764 Y75.4626
G01 X53.7586 Y75.4420
G01 X53.7730 Y75.4388
G01 X53.7875 Y75.4362
G01 X53.8713 Y75.4238
G01 X53.8859 Y75.4220
G01 X53.9006 Y75.4209
G01 X53.9853 Y75.4168
G01 X54.0074 Y75.4165
G01 X54.0994 Y75.4209
G01 X54.1141 Y75.4220
G01 X54.1287 Y75.4238
G01 X54.2125 Y75.4362
G01 X54.2270 Y75.4388
G01 X54.2414 Y75.4420
G01 X54.3236 Y75.4626
G01 X54.3378 Y75.4665
G01 X54.3518 Y75.4711
G01 X54.4316 Y75.4997
G01 X54.4521 Y75.5079
G01 X54.5354 Y75.5472
G01 X54.5485 Y75.5538
G01 X54.5613 Y75.5611
G01 X54.6340 Y75.6046
G01 X54.6525 Y75.6167
G01 X54.7266 Y75.6715
G01 X54.7438 Y75.6853
G01 X54.8175 Y75.7521
G01 X54.8279 Y75.7625
G01 X54.8437 Y75.7797
G00 Z2.0000
G00 X52.8368 Y68.9747
G01 F60.00
G01 Z-0.1500
G01 F100.00
G01 X52.8364 Y68.9600
G01 X52.8368 Y68.9453
G01 X52.8409 Y68.8606
G01 X52.8420 Y68.8459
G01 X52.8438 Y68.8313
G01 X52.8562 Y68.7475
G01 X52.8588 Y68.7330
G01 X52.8620 Y68.7186
G01 X52.8826 Y68.6364
G01 X52.8865 Y68.6222
G01 X52.8911 Y68.6082
G01 X52.9197 Y68.5284
G01 X52.9250 Y68.5147
G01 X52.9309 Y68.5012
G01 X52.9672 Y68.4246
G01 X52.9738 Y68.4115
G01 X52.9811 Y68.3987
