(G-CODE GENERATED BY FLATCAM v8.994 - www.flatcam.org - Version Date: 2020/11/7)

(Name: cut_cnc)
(Type: G-code from Geometry)
(Units: MM)

(Created on Saturday, 21 November 2020 at 18:08)

(This preprocessor is the default preprocessor used by FlatCAM.)
(It is made to work with MACH3 compatible motion controllers.)

(TOOL DIAMETER: 1.0 mm)
(Feedrate_XY: 100.0 mm/min)
(Feedrate_Z: 60.0 mm/min)
(Feedrate rapids 1500.0 mm/min)

(Z_Cut: -1.8 mm)
(DepthPerCut: 0.6 mm <=>3 passes)
(Z_Move: 2.0 mm)
(Z Start: None mm)
(Z End: 20.0 mm)
(X,Y End: None mm)
(Steps per circle: 64)
(Preprocessor Geometry: default)

(X range:   -0.6750 ...  142.1750  mm)
(Y range:   -0.6500 ...   95.9000  mm)

(Spindle Speed: 12000.0 RPM)
G21
G90
G94

G01 F100.00

M5
G00 Z20.0000
G00 X0.0000 Y0.0000
T1
M6    
(MSG, Change to Tool Dia = 1.0000)
M0
G00 Z20.0000

M03 S12000.0
G01 F100.00
G00 X37.6000 Y8.3250
G01 F60.00
G01 Z-0.6000
G01 F100.00
G01 X0.0000 Y8.3250
G01 X-0.0368 Y8.3260
G01 X-0.0954 Y8.3318
G01 X-0.1027 Y8.3329
G01 X-0.1604 Y8.3444
G01 X-0.1676 Y8.3462
G01 X-0.2239 Y8.3633
G01 X-0.2308 Y8.3657
G01 X-0.2852 Y8.3883
G01 X-0.2919 Y8.3914
G01 X-0.3438 Y8.4192
G01 X-0.3502 Y8.4230
G01 X-0.3991 Y8.4557
G01 X-0.4050 Y8.4601
G01 X-0.4505 Y8.4974
G01 X-0.4560 Y8.5024
G01 X-0.4976 Y8.5440
G01 X-0.5026 Y8.5495
G01 X-0.5399 Y8.5950
G01 X-0.5443 Y8.6009
G01 X-0.5770 Y8.6498
G01 X-0.5808 Y8.6562
G01 X-0.6086 Y8.7081
G01 X-0.6117 Y8.7148
G01 X-0.6343 Y8.7692
G01 X-0.6367 Y8.7761
G01 X-0.6538 Y8.8324
G01 X-0.6556 Y8.8396
G01 X-0.6671 Y8.8973
G01 X-0.6682 Y8.9046
G01 X-0.6740 Y8.9632
G01 X-0.6750 Y9.0000
G01 X-0.6750 Y46.6000
G00 X-0.6750 Y46.6000
G01 F60.00
G01 Z-1.2000
G01 F100.00
G01 X-0.6750 Y9.0000
G01 X-0.6740 Y8.9632
G01 X-0.6682 Y8.9046
G01 X-0.6671 Y8.8973
G01 X-0.6556 Y8.8396
G01 X-0.6538 Y8.8324
G01 X-0.6367 Y8.7761
G01 X-0.6343 Y8.7692
G01 X-0.6117 Y8.7148
G01 X-0.6086 Y8.7081
G01 X-0.5808 Y8.6562
G01 X-0.5770 Y8.6498
G01 X-0.5443 Y8.6009
G01 X-0.5399 Y8.5950
G01 X-0.5026 Y8.5495
G01 X-0.4976 Y8.5440
G01 X-0.4560 Y8.5024
G01 X-0.4505 Y8.4974
G01 X-0.4050 Y8.4601
G01 X-0.3991 Y8.4557
G01 X-0.3502 Y8.4230
G01 X-0.3438 Y8.4192
G01 X-0.2919 Y8.3914
G01 X-0.2852 Y8.3883
G01 X-0.2308 Y8.3657
G01 X-0.2239 Y8.3633
G01 X-0.1676 Y8.3462
G01 X-0.1604 Y8.3444
G01 X-0.1027 Y8.3329
G01 X-0.0954 Y8.3318
G01 X-0.0368 Y8.3260
G01 X0.0000 Y8.3250
G01 X37.6000 Y8.3250
G00 X37.6000 Y8.3250
G01 F60.00
G01 Z-1.8000
G01 F100.00
G01 X0.0000 Y8.3250
G01 X-0.0368 Y8.3260
G01 X-0.0954 Y8.3318
G01 X-0.1027 Y8.3329
G01 X-0.1604 Y8.3444
G01 X-0.1676 Y8.3462
G01 X-0.2239 Y8.3633
G01 X-0.2308 Y8.3657
G01 X-0.2852 Y8.3883
G01 X-0.2919 Y8.3914
G01 X-0.3438 Y8.4192
G01 X-0.3502 Y8.4230
G01 X-0.3991 Y8.4557
G01 X-0.4050 Y8.4601
G01 X-0.4505 Y8.4974
G01 X-0.4560 Y8.5024
G01 X-0.4976 Y8.5440
G01 X-0.5026 Y8.5495
G01 X-0.5399 Y8.5950
G01 X-0.5443 Y8.6009
G01 X-0.5770 Y8.6498
G01 X-0.5808 Y8.6562
G01 X-0.6086 Y8.7081
G01 X-0.6117 Y8.7148
G01 X-0.6343 Y8.7692
G01 X-0.6367 Y8.7761
G01 X-0.6538 Y8.8324
G01 X-0.6556 Y8.8396
G01 X-0.6671 Y8.8973
G01 X-0.6682 Y8.9046
G01 X-0.6740 Y8.9632
G01 X-0.6750 Y9.0000
G01 X-0.6750 Y46.6000
G00 Z2.0000
G00 X-0.6750 Y51.6000
G01 F60.00
G01 Z-0.6000
G01 F100.00
G01 X-0.6750 Y89.0000
G01 X-0.6740 Y89.0368
G01 X-0.6682 Y89.0954
G01 X-0.6671 Y89.1027
G01 X-0.6556 Y89.1604
G01 X-0.6538 Y89.1676
G01 X-0.6367 Y89.2239
G01 X-0.6343 Y89.2308
G01 X-0.6117 Y89.2852
G01 X-0.6086 Y89.2919
G01 X-0.5808 Y89.3438
G01 X-0.5770 Y89.3502
G01 X-0.5443 Y89.3991
G01 X-0.5399 Y89.4050
G01 X-0.5026 Y89.4505
G01 X-0.4976 Y89.4560
G01 X-0.4560 Y89.4976
G01 X-0.4505 Y89.5026
G01 X-0.4050 Y89.5399
G01 X-0.3991 Y89.5443
G01 X-0.3502 Y89.5770
G01 X-0.3438 Y89.5808
G01 X-0.2919 Y89.6086
G01 X-0.2852 Y89.6117
G01 X-0.2308 Y89.6343
G01 X-0.2239 Y89.6367
G01 X-0.1676 Y89.6538
G01 X-0.1604 Y89.6556
G01 X-0.1027 Y89.6671
G01 X-0.0954 Y89.6682
G01 X-0.0368 Y89.6740
G01 X0.0000 Y89.6750
G01 X37.6000 Y89.6750
G00 X37.6000 Y89.6750
G01 F60.00
G01 Z-1.2000
G01 F100.00
G01 X0.0000 Y89.6750
G01 X-0.0368 Y89.6740
G01 X-0.0954 Y89.6682
G01 X-0.1027 Y89.6671
G01 X-0.1604 Y89.6556
G01 X-0.1676 Y89.6538
G01 X-0.2239 Y89.6367
G01 X-0.2308 Y89.6343
G01 X-0.2852 Y89.6117
G01 X-0.2919 Y89.6086
G01 X-0.3438 Y89.5808
G01 X-0.3502 Y89.5770
G01 X-0.3991 Y89.5443
G01 X-0.4050 Y89.5399
G01 X-0.4505 Y89.5026
G01 X-0.4560 Y89.4976
G01 X-0.4976 Y89.4560
G01 X-0.5026 Y89.4505
G01 X-0.5399 Y89.4050
G01 X-0.5443 Y89.3991
G01 X-0.5770 Y89.3502
G01 X-0.5808 Y89.3438
G01 X-0.6086 Y89.2919
G01 X-0.6117 Y89.2852
G01 X-0.6343 Y89.2308
G01 X-0.6367 Y89.2239
G01 X-0.6538 Y89.1676
G01 X-0.6556 Y89.1604
G01 X-0.6671 Y89.1027
G01 X-0.6682 Y89.0954
G01 X-0.6740 Y89.0368
G01 X-0.6750 Y89.0000
G01 X-0.6750 Y51.6000
G00 X-0.6750 Y51.6000
G01 F60.00
G01 Z-1.8000
G01 F100.00
G01 X-0.6750 Y89.0000
G01 X-0.6740 Y89.0368
G01 X-0.6682 Y89.0954
G01 X-0.6671 Y89.1027
G01 X-0.6556 Y89.1604
G01 X-0.6538 Y89.1676
G01 X-0.6367 Y89.2239
G01 X-0.6343 Y89.2308
G01 X-0.6117 Y89.2852
G01 X-0.6086 Y89.2919
G01 X-0.5808 Y89.3438
G01 X-0.5770 Y89.3502
G01 X-0.5443 Y89.3991
G01 X-0.5399 Y89.4050
G01 X-0.5026 Y89.4505
G01 X-0.4976 Y89.4560
G01 X-0.4560 Y89.4976
G01 X-0.4505 Y89.5026
G01 X-0.4050 Y89.5399
G01 X-0.3991 Y89.5443
G01 X-0.3502 Y89.5770
G01 X-0.3438 Y89.5808
G01 X-0.2919 Y89.6086
G01 X-0.2852 Y89.6117
G01 X-0.2308 Y89.6343
G01 X-0.2239 Y89.6367
G01 X-0.1676 Y89.6538
G01 X-0.1604 Y89.6556
G01 X-0.1027 Y89.6671
G01 X-0.0954 Y89.6682
G01 X-0.0368 Y89.6740
G01 X0.0000 Y89.6750
G01 X37.6000 Y89.6750
G00 Z2.0000
G00 X42.6000 Y89.6750
G01 F60.00
G01 Z-0.6000
G01 F100.00
G01 X80.0000 Y89.6750
G01 X80.0368 Y89.6740
G01 X80.0954 Y89.6682
G01 X80.1027 Y89.6671
G01 X80.1604 Y89.6556
G01 X80.1676 Y89.6538
G01 X80.2239 Y89.6367
G01 X80.2308 Y89.6343
G01 X80.2852 Y89.6117
G01 X80.2919 Y89.6086
G01 X80.3438 Y89.5808
G01 X80.3502 Y89.5770
G01 X80.3991 Y89.5443
G01 X80.4050 Y89.5399
G01 X80.4505 Y89.5026
G01 X80.4560 Y89.4976
G01 X80.4976 Y89.4560
G01 X80.5026 Y89.4505
G01 X80.5399 Y89.4050
G01 X80.5443 Y89.3991
G01 X80.5770 Y89.3502
G01 X80.5808 Y89.3438
G01 X80.6086 Y89.2919
G01 X80.6117 Y89.2852
G01 X80.6343 Y89.2308
G01 X80.6367 Y89.2239
G01 X80.6538 Y89.1676
G01 X80.6556 Y89.1604
G01 X80.6671 Y89.1027
G01 X80.6682 Y89.0954
G01 X80.6740 Y89.0368
G01 X80.6750 Y89.0000
G01 X80.6750 Y51.6000
G00 X80.6750 Y51.6000
G01 F60.00
G01 Z-1.2000
G01 F100.00
G01 X80.6750 Y89.0000
G01 X80.6740 Y89.0368
G01 X80.6682 Y89.0954
G01 X80.6671 Y89.1027
G01 X80.6556 Y89.1604
G01 X80.6538 Y89.1676
G01 X80.6367 Y89.2239
G01 X80.6343 Y89.2308
G01 X80.6117 Y89.2852
G01 X80.6086 Y89.2919
G01 X80.5808 Y89.3438
G01 X80.5770 Y89.3502
G01 X80.5443 Y89.3991
G01 X80.5399 Y89.4050
G01 X80.5026 Y89.4505
G01 X80.4976 Y89.4560
G01 X80.4560 Y89.4976
G01 X80.4505 Y89.5026
G01 X80.4050 Y89.5399
G01 X80.3991 Y89.5443
G01 X80.3502 Y89.5770
G01 X80.3438 Y89.5808
G01 X80.2919 Y89.6086
G01 X80.2852 Y89.6117
G01 X80.2308 Y89.6343
G01 X80.2239 Y89.6367
G01 X80.1676 Y89.6538
G01 X80.1604 Y89.6556
G01 X80.1027 Y89.6671
G01 X80.0954 Y89.6682
G01 X80.0368 Y89.6740
G01 X80.0000 Y89.6750
G01 X42.6000 Y89.6750
G00 X42.6000 Y89.6750
G01 F60.00
G01 Z-1.8000
G01 F100.00
G01 X80.0000 Y89.6750
G01 X80.0368 Y89.6740
G01 X80.0954 Y89.6682
G01 X80.1027 Y89.6671
G01 X80.1604 Y89.6556
G01 X80.1676 Y89.6538
G01 X80.2239 Y89.6367
G01 X80.2308 Y89.6343
G01 X80.2852 Y89.6117
G01 X80.2919 Y89.6086
G01 X80.3438 Y89.5808
G01 X80.3502 Y89.5770
G01 X80.3991 Y89.5443
G01 X80.4050 Y89.5399
G01 X80.4505 Y89.5026
G01 X80.4560 Y89.4976
G01 X80.4976 Y89.4560
G01 X80.5026 Y89.4505
G01 X80.5399 Y89.4050
G01 X80.5443 Y89.3991
G01 X80.5770 Y89.3502
G01 X80.5808 Y89.3438
G01 X80.6086 Y89.2919
G01 X80.6117 Y89.2852
G01 X80.6343 Y89.2308
G01 X80.6367 Y89.2239
G01 X80.6538 Y89.1676
G01 X80.6556 Y89.1604
G01 X80.6671 Y89.1027
G01 X80.6682 Y89.0954
G01 X80.6740 Y89.0368
G01 X80.6750 Y89.0000
G01 X80.6750 Y51.6000
G00 Z2.0000
G00 X81.3500 Y50.2250
G01 F60.00
G01 Z-0.6000
G01 F100.00
G01 X81.3500 Y95.2500
G01 X81.3509 Y95.2843
G01 X81.3574 Y95.3478
G01 X81.3701 Y95.4103
G01 X81.3872 Y95.4667
G01 X81.4135 Y95.5301
G01 X81.4438 Y95.5863
G01 X81.4765 Y95.6352
G01 X81.5168 Y95.6847
G01 X81.5617 Y95.7299
G01 X81.6148 Y95.7735
G01 X81.6637 Y95.8062
G01 X81.7199 Y95.8365
G01 X81.7833 Y95.8628
G01 X81.8397 Y95.8799
G01 X81.9022 Y95.8926
G01 X81.9706 Y95.8993
G01 X82.0000 Y95.9000
G01 X96.1100 Y95.9000
G00 X96.1100 Y95.9000
G01 F60.00
G01 Z-1.2000
G01 F100.00
G01 X82.0000 Y95.9000
G01 X81.9706 Y95.8993
G01 X81.9022 Y95.8926
G01 X81.8397 Y95.8799
G01 X81.7833 Y95.8628
G01 X81.7199 Y95.8365
G01 X81.6637 Y95.8062
G01 X81.6148 Y95.7735
G01 X81.5617 Y95.7299
G01 X81.5168 Y95.6847
G01 X81.4765 Y95.6352
G01 X81.4438 Y95.5863
G01 X81.4135 Y95.5301
G01 X81.3872 Y95.4667
G01 X81.3701 Y95.4103
G01 X81.3574 Y95.3478
G01 X81.3509 Y95.2843
G01 X81.3500 Y95.2500
G01 X81.3500 Y50.2250
G00 X81.3500 Y50.2250
G01 F60.00
G01 Z-1.8000
G01 F100.00
G01 X81.3500 Y95.2500
G01 X81.3509 Y95.2843
G01 X81.3574 Y95.3478
G01 X81.3701 Y95.4103
G01 X81.3872 Y95.4667
G01 X81.4135 Y95.5301
G01 X81.4438 Y95.5863
G01 X81.4765 Y95.6352
G01 X81.5168 Y95.6847
G01 X81.5617 Y95.7299
G01 X81.6148 Y95.7735
G01 X81.6637 Y95.8062
G01 X81.7199 Y95.8365
G01 X81.7833 Y95.8628
G01 X81.8397 Y95.8799
G01 X81.9022 Y95.8926
G01 X81.9706 Y95.8993
G01 X82.0000 Y95.9000
G01 X96.1100 Y95.9000
G00 Z2.0000
G00 X101.1100 Y95.9000
G01 F60.00
G01 Z-0.6000
G01 F100.00
G01 X115.0200 Y95.9000
G01 X115.0494 Y95.8993
G01 X115.1178 Y95.8926
G01 X115.1803 Y95.8799
G01 X115.2367 Y95.8628
G01 X115.3001 Y95.8365
G01 X115.3563 Y95.8062
G01 X115.4052 Y95.7735
G01 X115.4547 Y95.7332
G01 X115.4999 Y95.6883
G01 X115.5435 Y95.6352
G01 X115.5762 Y95.5863
G01 X115.6065 Y95.5301
G01 X115.6328 Y95.4667
G01 X115.6499 Y95.4103
G01 X115.6626 Y95.3478
G01 X115.6691 Y95.2843
G01 X115.6700 Y95.2500
G01 X115.6700 Y50.2250
G00 X115.6700 Y50.2250
G01 F60.00
G01 Z-1.2000
G01 F100.00
G01 X115.6700 Y95.2500
G01 X115.6691 Y95.2843
G01 X115.6626 Y95.3478
G01 X115.6499 Y95.4103
G01 X115.6328 Y95.4667
G01 X115.6065 Y95.5301
G01 X115.5762 Y95.5863
G01 X115.5435 Y95.6352
G01 X115.4999 Y95.6883
G01 X115.4547 Y95.7332
G01 X115.4052 Y95.7735
G01 X115.3563 Y95.8062
G01 X115.3001 Y95.8365
G01 X115.2367 Y95.8628
G01 X115.1803 Y95.8799
G01 X115.1178 Y95.8926
G01 X115.0494 Y95.8993
G01 X115.0200 Y95.9000
G01 X101.1100 Y95.9000
G00 X101.1100 Y95.9000
G01 F60.00
G01 Z-1.8000
G01 F100.00
G01 X115.0200 Y95.9000
G01 X115.0494 Y95.8993
G01 X115.1178 Y95.8926
G01 X115.1803 Y95.8799
G01 X115.2367 Y95.8628
G01 X115.3001 Y95.8365
G01 X115.3563 Y95.8062
G01 X115.4052 Y95.7735
G01 X115.4547 Y95.7332
G01 X115.4999 Y95.6883
G01 X115.5435 Y95.6352
G01 X115.5762 Y95.5863
G01 X115.6065 Y95.5301
G01 X115.6328 Y95.4667
G01 X115.6499 Y95.4103
G01 X115.6626 Y95.3478
G01 X115.6691 Y95.2843
G01 X115.6700 Y95.2500
G01 X115.6700 Y50.2250
G00 Z2.0000
G00 X116.8250 Y50.6000
G01 F60.00
G01 Z-0.6000
G01 F100.00
G01 X116.8250 Y69.5000
G01 X116.8260 Y69.5368
G01 X116.8318 Y69.5954
G01 X116.8329 Y69.6027
G01 X116.8444 Y69.6604
G01 X116.8462 Y69.6676
G01 X116.8633 Y69.7239
G01 X116.8657 Y69.7308
G01 X116.8883 Y69.7852
G01 X116.8914 Y69.7919
G01 X116.9192 Y69.8438
G01 X116.9230 Y69.8502
G01 X116.9557 Y69.8991
G01 X116.9601 Y69.9050
G01 X116.9974 Y69.9505
G01 X117.0024 Y69.9560
G01 X117.0440 Y69.9976
G01 X117.0495 Y70.0026
G01 X117.0950 Y70.0399
G01 X117.1009 Y70.0443
G01 X117.1498 Y70.0770
G01 X117.1562 Y70.0808
G01 X117.2081 Y70.1086
G01 X117.2148 Y70.1117
G01 X117.2692 Y70.1343
G01 X117.2761 Y70.1367
G01 X117.3324 Y70.1538
G01 X117.3396 Y70.1556
G01 X117.3973 Y70.1671
G01 X117.4046 Y70.1682
G01 X117.4632 Y70.1740
G01 X117.4706 Y70.1743
G01 X117.5000 Y70.1750
G01 X127.1000 Y70.1750
G00 X127.1000 Y70.1750
G01 F60.00
G01 Z-1.2000
G01 F100.00
G01 X117.5000 Y70.1750
G01 X117.4706 Y70.1743
G01 X117.4632 Y70.1740
G01 X117.4046 Y70.1682
G01 X117.3973 Y70.1671
G01 X117.3396 Y70.1556
G01 X117.3324 Y70.1538
G01 X117.2761 Y70.1367
G01 X117.2692 Y70.1343
G01 X117.2148 Y70.1117
G01 X117.2081 Y70.1086
G01 X117.1562 Y70.0808
G01 X117.1498 Y70.0770
G01 X117.1009 Y70.0443
G01 X117.0950 Y70.0399
G01 X117.0495 Y70.0026
G01 X117.0440 Y69.9976
G01 X117.0024 Y69.9560
G01 X116.9974 Y69.9505
G01 X116.9601 Y69.9050
G01 X116.9557 Y69.8991
G01 X116.9230 Y69.8502
G01 X116.9192 Y69.8438
G01 X116.8914 Y69.7919
G01 X116.8883 Y69.7852
G01 X116.8657 Y69.7308
G01 X116.8633 Y69.7239
G01 X116.8462 Y69.6676
G01 X116.8444 Y69.6604
G01 X116.8329 Y69.6027
G01 X116.8318 Y69.5954
G01 X116.8260 Y69.5368
G01 X116.8250 Y69.5000
G01 X116.8250 Y50.6000
G00 X116.8250 Y50.6000
G01 F60.00
G01 Z-1.8000
G01 F100.00
G01 X116.8250 Y69.5000
G01 X116.8260 Y69.5368
G01 X116.8318 Y69.5954
G01 X116.8329 Y69.6027
G01 X116.8444 Y69.6604
G01 X116.8462 Y69.6676
G01 X116.8633 Y69.7239
G01 X116.8657 Y69.7308
G01 X116.8883 Y69.7852
G01 X116.8914 Y69.7919
G01 X116.9192 Y69.8438
G01 X116.9230 Y69.8502
G01 X116.9557 Y69.8991
G01 X116.9601 Y69.9050
G01 X116.9974 Y69.9505
G01 X117.0024 Y69.9560
G01 X117.0440 Y69.9976
G01 X117.0495 Y70.0026
G01 X117.0950 Y70.0399
G01 X117.1009 Y70.0443
G01 X117.1498 Y70.0770
G01 X117.1562 Y70.0808
G01 X117.2081 Y70.1086
G01 X117.2148 Y70.1117
G01 X117.2692 Y70.1343
G01 X117.2761 Y70.1367
G01 X117.3324 Y70.1538
G01 X117.3396 Y70.1556
G01 X117.3973 Y70.1671
G01 X117.4046 Y70.1682
G01 X117.4632 Y70.1740
G01 X117.4706 Y70.1743
G01 X117.5000 Y70.1750
G01 X127.1000 Y70.1750
G00 Z2.0000
G00 X132.1000 Y70.1750
G01 F60.00
G01 Z-0.6000
G01 F100.00
G01 X141.5000 Y70.1750
G01 X141.5294 Y70.1743
G01 X141.5368 Y70.1740
G01 X141.5954 Y70.1682
G01 X141.6027 Y70.1671
G01 X141.6604 Y70.1556
G01 X141.6676 Y70.1538
G01 X141.7239 Y70.1367
G01 X141.7308 Y70.1343
G01 X141.7852 Y70.1117
G01 X141.7919 Y70.1086
G01 X141.8438 Y70.0808
G01 X141.8502 Y70.0770
G01 X141.8991 Y70.0443
G01 X141.9050 Y70.0399
G01 X141.9505 Y70.0026
G01 X141.9560 Y69.9976
G01 X141.9976 Y69.9560
G01 X142.0026 Y69.9505
G01 X142.0399 Y69.9050
G01 X142.0443 Y69.8991
G01 X142.0770 Y69.8502
G01 X142.0808 Y69.8438
G01 X142.1086 Y69.7919
G01 X142.1117 Y69.7852
G01 X142.1343 Y69.7308
G01 X142.1367 Y69.7239
G01 X142.1538 Y69.6676
G01 X142.1556 Y69.6604
G01 X142.1671 Y69.6027
G01 X142.1682 Y69.5954
G01 X142.1740 Y69.5368
G01 X142.1750 Y69.5000
G01 X142.1750 Y50.6000
G00 X142.1750 Y50.6000
G01 F60.00
G01 Z-1.2000
G01 F100.00
G01 X142.1750 Y69.5000
G01 X142.1740 Y69.5368
G01 X142.1682 Y69.5954
G01 X142.1671 Y69.6027
G01 X142.1556 Y69.6604
G01 X142.1538 Y69.6676
G01 X142.1367 Y69.7239
G01 X142.1343 Y69.7308
G01 X142.1117 Y69.7852
G01 X142.1086 Y69.7919
G01 X142.0808 Y69.8438
G01 X142.0770 Y69.8502
G01 X142.0443 Y69.8991
G01 X142.0399 Y69.9050
G01 X142.0026 Y69.9505
G01 X141.9976 Y69.9560
G01 X141.9560 Y69.9976
G01 X141.9505 Y70.0026
G01 X141.9050 Y70.0399
G01 X141.8991 Y70.0443
G01 X141.8502 Y70.0770
G01 X141.8438 Y70.0808
G01 X141.7919 Y70.1086
G01 X141.7852 Y70.1117
G01 X141.7308 Y70.1343
G01 X141.7239 Y70.1367
G01 X141.6676 Y70.1538
G01 X141.6604 Y70.1556
G01 X141.6027 Y70.1671
G01 X141.5954 Y70.1682
G01 X141.5368 Y70.1740
G01 X141.5294 Y70.1743
G01 X141.5000 Y70.1750
G01 X132.1000 Y70.1750
G00 X132.1000 Y70.1750
G01 F60.00
G01 Z-1.8000
G01 F100.00
G01 X141.5000 Y70.1750
G01 X141.5294 Y70.1743
G01 X141.5368 Y70.1740
G01 X141.5954 Y70.1682
G01 X141.6027 Y70.1671
G01 X141.6604 Y70.1556
G01 X141.6676 Y70.1538
G01 X141.7239 Y70.1367
G01 X141.7308 Y70.1343
G01 X141.7852 Y70.1117
G01 X141.7919 Y70.1086
G01 X141.8438 Y70.0808
G01 X141.8502 Y70.0770
G01 X141.8991 Y70.0443
G01 X141.9050 Y70.0399
G01 X141.9505 Y70.0026
G01 X141.9560 Y69.9976
G01 X141.9976 Y69.9560
G01 X142.0026 Y69.9505
G01 X142.0399 Y69.9050
G01 X142.0443 Y69.8991
G01 X142.0770 Y69.8502
G01 X142.0808 Y69.8438
G01 X142.1086 Y69.7919
G01 X142.1117 Y69.7852
G01 X142.1343 Y69.7308
G01 X142.1367 Y69.7239
G01 X142.1538 Y69.6676
G01 X142.1556 Y69.6604
G01 X142.1671 Y69.6027
G01 X142.1682 Y69.5954
G01 X142.1740 Y69.5368
G01 X142.1750 Y69.5000
G01 X142.1750 Y50.6000
G00 Z2.0000
G00 X142.1750 Y45.6000
G01 F60.00
G01 Z-0.6000
G01 F100.00
G01 X142.1750 Y26.5000
G01 X142.1740 Y26.4632
G01 X142.1682 Y26.4046
G01 X142.1671 Y26.3973
G01 X142.1556 Y26.3396
G01 X142.1538 Y26.3324
G01 X142.1367 Y26.2761
G01 X142.1343 Y26.2692
G01 X142.1117 Y26.2148
G01 X142.1086 Y26.2081
G01 X142.0808 Y26.1562
G01 X142.0770 Y26.1498
G01 X142.0443 Y26.1009
G01 X142.0399 Y26.0950
G01 X142.0026 Y26.0495
G01 X141.9976 Y26.0440
G01 X141.9560 Y26.0024
G01 X141.9505 Y25.9974
G01 X141.9050 Y25.9601
G01 X141.8991 Y25.9557
G01 X141.8502 Y25.9230
G01 X141.8438 Y25.9192
G01 X141.7919 Y25.8914
G01 X141.7852 Y25.8883
G01 X141.7308 Y25.8657
G01 X141.7239 Y25.8633
G01 X141.6676 Y25.8462
G01 X141.6604 Y25.8444
G01 X141.6027 Y25.8329
G01 X141.5954 Y25.8318
G01 X141.5368 Y25.8260
G01 X141.5294 Y25.8257
G01 X141.5000 Y25.8250
G01 X132.1000 Y25.8250
G00 X132.1000 Y25.8250
G01 F60.00
G01 Z-1.2000
G01 F100.00
G01 X141.5000 Y25.8250
G01 X141.5294 Y25.8257
G01 X141.5368 Y25.8260
G01 X141.5954 Y25.8318
G01 X141.6027 Y25.8329
G01 X141.6604 Y25.8444
G01 X141.6676 Y25.8462
G01 X141.7239 Y25.8633
G01 X141.7308 Y25.8657
G01 X141.7852 Y25.8883
G01 X141.7919 Y25.8914
G01 X141.8438 Y25.9192
G01 X141.8502 Y25.9230
G01 X141.8991 Y25.9557
G01 X141.9050 Y25.9601
G01 X141.9505 Y25.9974
G01 X141.9560 Y26.0024
G01 X141.9976 Y26.0440
G01 X142.0026 Y26.0495
G01 X142.0399 Y26.0950
G01 X142.0443 Y26.1009
G01 X142.0770 Y26.1498
G01 X142.0808 Y26.1562
G01 X142.1086 Y26.2081
G01 X142.1117 Y26.2148
G01 X142.1343 Y26.2692
G01 X142.1367 Y26.2761
G01 X142.1538 Y26.3324
G01 X142.1556 Y26.3396
G01 X142.1671 Y26.3973
G01 X142.1682 Y26.4046
G01 X142.1740 Y26.4632
G01 X142.1750 Y26.5000
G01 X142.1750 Y45.6000
G00 X142.1750 Y45.6000
G01 F60.00
G01 Z-1.8000
G01 F100.00
G01 X142.1750 Y26.5000
G01 X142.1740 Y26.4632
G01 X142.1682 Y26.4046
G01 X142.1671 Y26.3973
G01 X142.1556 Y26.3396
G01 X142.1538 Y26.3324
G01 X142.1367 Y26.2761
G01 X142.1343 Y26.2692
G01 X142.1117 Y26.2148
G01 X142.1086 Y26.2081
G01 X142.0808 Y26.1562
G01 X142.0770 Y26.1498
G01 X142.0443 Y26.1009
G01 X142.0399 Y26.0950
G01 X142.0026 Y26.0495
G01 X141.9976 Y26.0440
G01 X141.9560 Y26.0024
G01 X141.9505 Y25.9974
G01 X141.9050 Y25.9601
G01 X141.8991 Y25.9557
G01 X141.8502 Y25.9230
G01 X141.8438 Y25.9192
G01 X141.7919 Y25.8914
G01 X141.7852 Y25.8883
G01 X141.7308 Y25.8657
G01 X141.7239 Y25.8633
G01 X141.6676 Y25.8462
G01 X141.6604 Y25.8444
G01 X141.6027 Y25.8329
G01 X141.5954 Y25.8318
G01 X141.5368 Y25.8260
G01 X141.5294 Y25.8257
G01 X141.5000 Y25.8250
G01 X132.1000 Y25.8250
G00 Z2.0000
G00 X127.1000 Y25.8250
G01 F60.00
G01 Z-0.6000
G01 F100.00
G01 X117.5000 Y25.8250
G01 X117.4706 Y25.8257
G01 X117.4632 Y25.8260
G01 X117.4046 Y25.8318
G01 X117.3973 Y25.8329
G01 X117.3396 Y25.8444
G01 X117.3324 Y25.8462
G01 X117.2761 Y25.8633
G01 X117.2692 Y25.8657
G01 X117.2148 Y25.8883
G01 X117.2081 Y25.8914
G01 X117.1562 Y25.9192
G01 X117.1498 Y25.9230
G01 X117.1009 Y25.9557
G01 X117.0950 Y25.9601
G01 X117.0495 Y25.9974
G01 X117.0440 Y26.0024
G01 X117.0024 Y26.0440
G01 X116.9974 Y26.0495
G01 X116.9601 Y26.0950
G01 X116.9557 Y26.1009
G01 X116.9230 Y26.1498
G01 X116.9192 Y26.1562
G01 X116.8914 Y26.2081
G01 X116.8883 Y26.2148
G01 X116.8657 Y26.2692
G01 X116.8633 Y26.2761
G01 X116.8462 Y26.3324
G01 X116.8444 Y26.3396
G01 X116.8329 Y26.3973
G01 X116.8318 Y26.4046
G01 X116.8260 Y26.4632
G01 X116.8250 Y26.5000
G01 X116.8250 Y45.6000
G00 X116.8250 Y45.6000
G01 F60.00
G01 Z-1.2000
G01 F100.00
G01 X116.8250 Y26.5000
G01 X116.8260 Y26.4632
G01 X116.8318 Y26.4046
G01 X116.8329 Y26.3973
G01 X116.8444 Y26.3396
G01 X116.8462 Y26.3324
G01 X116.8633 Y26.2761
G01 X116.8657 Y26.2692
G01 X116.8883 Y26.2148
G01 X116.8914 Y26.2081
G01 X116.9192 Y26.1562
G01 X116.9230 Y26.1498
G01 X116.9557 Y26.1009
G01 X116.9601 Y26.0950
G01 X116.9974 Y26.0495
G01 X117.0024 Y26.0440
G01 X117.0440 Y26.0024
G01 X117.0495 Y25.9974
G01 X117.0950 Y25.9601
G01 X117.1009 Y25.9557
G01 X117.1498 Y25.9230
G01 X117.1562 Y25.9192
G01 X117.2081 Y25.8914
G01 X117.2148 Y25.8883
G01 X117.2692 Y25.8657
G01 X117.2761 Y25.8633
G01 X117.3324 Y25.8462
G01 X117.3396 Y25.8444
G01 X117.3973 Y25.8329
G01 X117.4046 Y25.8318
G01 X117.4632 Y25.8260
G01 X117.4706 Y25.8257
G01 X117.5000 Y25.8250
G01 X127.1000 Y25.8250
G00 X127.1000 Y25.8250
G01 F60.00
G01 Z-1.8000
G01 F100.00
G01 X117.5000 Y25.8250
G01 X117.4706 Y25.8257
G01 X117.4632 Y25.8260
G01 X117.4046 Y25.8318
G01 X117.3973 Y25.8329
G01 X117.3396 Y25.8444
G01 X117.3324 Y25.8462
G01 X117.2761 Y25.8633
G01 X117.2692 Y25.8657
G01 X117.2148 Y25.8883
G01 X117.2081 Y25.8914
G01 X117.1562 Y25.9192
G01 X117.1498 Y25.9230
G01 X117.1009 Y25.9557
G01 X117.0950 Y25.9601
G01 X117.0495 Y25.9974
G01 X117.0440 Y26.0024
G01 X117.0024 Y26.0440
G01 X116.9974 Y26.0495
G01 X116.9601 Y26.0950
G01 X116.9557 Y26.1009
G01 X116.9230 Y26.1498
G01 X116.9192 Y26.1562
G01 X116.8914 Y26.2081
G01 X116.8883 Y26.2148
G01 X116.8657 Y26.2692
G01 X116.8633 Y26.2761
G01 X116.8462 Y26.3324
G01 X116.8444 Y26.3396
G01 X116.8329 Y26.3973
G01 X116.8318 Y26.4046
G01 X116.8260 Y26.4632
G01 X116.8250 Y26.5000
G01 X116.8250 Y45.6000
G00 Z2.0000
G00 X115.6700 Y45.2250
G01 F60.00
G01 Z-0.6000
G01 F100.00
G01 X115.6700 Y0.0000
G01 X115.6691 Y-0.0343
G01 X115.6626 Y-0.0978
G01 X115.6499 Y-0.1603
G01 X115.6328 Y-0.2167
G01 X115.6065 Y-0.2801
G01 X115.5762 Y-0.3363
G01 X115.5435 Y-0.3852
G01 X115.5032 Y-0.4347
G01 X115.4583 Y-0.4799
G01 X115.4052 Y-0.5235
G01 X115.3563 Y-0.5562
G01 X115.3001 Y-0.5865
G01 X115.2367 Y-0.6128
G01 X115.1803 Y-0.6299
G01 X115.1178 Y-0.6426
G01 X115.0494 Y-0.6493
G01 X115.0200 Y-0.6500
G01 X101.1100 Y-0.6500
G00 X101.1100 Y-0.6500
G01 F60.00
G01 Z-1.2000
G01 F100.00
G01 X115.0200 Y-0.6500
G01 X115.0494 Y-0.6493
G01 X115.1178 Y-0.6426
G01 X115.1803 Y-0.6299
G01 X115.2367 Y-0.6128
G01 X115.3001 Y-0.5865
G01 X115.3563 Y-0.5562
G01 X115.4052 Y-0.5235
G01 X115.4583 Y-0.4799
G01 X115.5032 Y-0.4347
G01 X115.5435 Y-0.3852
G01 X115.5762 Y-0.3363
G01 X115.6065 Y-0.2801
G01 X115.6328 Y-0.2167
G01 X115.6499 Y-0.1603
G01 X115.6626 Y-0.0978
G01 X115.6691 Y-0.0343
G01 X115.6700 Y0.0000
G01 X115.6700 Y45.2250
G00 X115.6700 Y45.2250
G01 F60.00
G01 Z-1.8000
G01 F100.00
G01 X115.6700 Y0.0000
G01 X115.6691 Y-0.0343
G01 X115.6626 Y-0.0978
G01 X115.6499 Y-0.1603
G01 X115.6328 Y-0.2167
G01 X115.6065 Y-0.2801
G01 X115.5762 Y-0.3363
G01 X115.5435 Y-0.3852
G01 X115.5032 Y-0.4347
G01 X115.4583 Y-0.4799
G01 X115.4052 Y-0.5235
G01 X115.3563 Y-0.5562
G01 X115.3001 Y-0.5865
G01 X115.2367 Y-0.6128
G01 X115.1803 Y-0.6299
G01 X115.1178 Y-0.6426
G01 X115.0494 Y-0.6493
G01 X115.0200 Y-0.6500
G01 X101.1100 Y-0.6500
G00 Z2.0000
G00 X96.1100 Y-0.6500
G01 F60.00
G01 Z-0.6000
G01 F100.00
G01 X82.0000 Y-0.6500
G01 X81.9706 Y-0.6493
G01 X81.9022 Y-0.6426
G01 X81.8397 Y-0.6299
G01 X81.7833 Y-0.6128
G01 X81.7199 Y-0.5865
G01 X81.6637 Y-0.5562
G01 X81.6148 Y-0.5235
G01 X81.5653 Y-0.4832
G01 X81.5201 Y-0.4383
G01 X81.4765 Y-0.3852
G01 X81.4438 Y-0.3363
G01 X81.4135 Y-0.2801
G01 X81.3872 Y-0.2167
G01 X81.3701 Y-0.1603
G01 X81.3574 Y-0.0978
G01 X81.3509 Y-0.0343
G01 X81.3500 Y0.0000
G01 X81.3500 Y45.2250
G00 X81.3500 Y45.2250
G01 F60.00
G01 Z-1.2000
G01 F100.00
G01 X81.3500 Y0.0000
G01 X81.3509 Y-0.0343
G01 X81.3574 Y-0.0978
G01 X81.3701 Y-0.1603
G01 X81.3872 Y-0.2167
G01 X81.4135 Y-0.2801
G01 X81.4438 Y-0.3363
G01 X81.4765 Y-0.3852
G01 X81.5201 Y-0.4383
G01 X81.5653 Y-0.4832
G01 X81.6148 Y-0.5235
G01 X81.6637 Y-0.5562
G01 X81.7199 Y-0.5865
G01 X81.7833 Y-0.6128
G01 X81.8397 Y-0.6299
G01 X81.9022 Y-0.6426
G01 X81.9706 Y-0.6493
G01 X82.0000 Y-0.6500
G01 X96.1100 Y-0.6500
G00 X96.1100 Y-0.6500
G01 F60.00
G01 Z-1.8000
G01 F100.00
G01 X82.0000 Y-0.6500
G01 X81.9706 Y-0.6493
G01 X81.9022 Y-0.6426
G01 X81.8397 Y-0.6299
G01 X81.7833 Y-0.6128
G01 X81.7199 Y-0.5865
G01 X81.6637 Y-0.5562
G01 X81.6148 Y-0.5235
G01 X81.5653 Y-0.4832
G01 X81.5201 Y-0.4383
G01 X81.4765 Y-0.3852
G01 X81.4438 Y-0.3363
G01 X81.4135 Y-0.2801
G01 X81.3872 Y-0.2167
G01 X81.3701 Y-0.1603
G01 X81.3574 Y-0.0978
G01 X81.3509 Y-0.0343
G01 X81.3500 Y0.0000
G01 X81.3500 Y45.2250
G00 Z2.0000
G00 X80.6750 Y46.6000
G01 F60.00
G01 Z-0.6000
G01 F100.00
G01 X80.6750 Y9.0000
G01 X80.6740 Y8.9632
G01 X80.6682 Y8.9046
G01 X80.6671 Y8.8973
G01 X80.6556 Y8.8396
G01 X80.6538 Y8.8324
G01 X80.6367 Y8.7761
G01 X80.6343 Y8.7692
G01 X80.6117 Y8.7148
G01 X80.6086 Y8.7081
G01 X80.5808 Y8.6562
G01 X80.5770 Y8.6498
G01 X80.5443 Y8.6009
G01 X80.5399 Y8.5950
G01 X80.5026 Y8.5495
G01 X80.4976 Y8.5440
G01 X80.4560 Y8.5024
G01 X80.4505 Y8.4974
G01 X80.4050 Y8.4601
G01 X80.3991 Y8.4557
G01 X80.3502 Y8.4230
G01 X80.3438 Y8.4192
G01 X80.2919 Y8.3914
G01 X80.2852 Y8.3883
G01 X80.2308 Y8.3657
G01 X80.2239 Y8.3633
G01 X80.1676 Y8.3462
G01 X80.1604 Y8.3444
G01 X80.1027 Y8.3329
G01 X80.0954 Y8.3318
G01 X80.0368 Y8.3260
G01 X80.0000 Y8.3250
G01 X42.6000 Y8.3250
G00 X42.6000 Y8.3250
G01 F60.00
G01 Z-1.2000
G01 F100.00
G01 X80.0000 Y8.3250
G01 X80.0368 Y8.3260
G01 X80.0954 Y8.3318
G01 X80.1027 Y8.3329
G01 X80.1604 Y8.3444
G01 X80.1676 Y8.3462
G01 X80.2239 Y8.3633
G01 X80.2308 Y8.3657
G01 X80.2852 Y8.3883
G01 X80.2919 Y8.3914
G01 X80.3438 Y8.4192
G01 X80.3502 Y8.4230
G01 X80.3991 Y8.4557
G01 X80.4050 Y8.4601
G01 X80.4505 Y8.4974
G01 X80.4560 Y8.5024
G01 X80.4976 Y8.5440
G01 X80.5026 Y8.5495
G01 X80.5399 Y8.5950
G01 X80.5443 Y8.6009
G01 X80.5770 Y8.6498
G01 X80.5808 Y8.6562
G01 X80.6086 Y8.7081
G01 X80.6117 Y8.7148
G01 X80.6343 Y8.7692
G01 X80.6367 Y8.7761
G01 X80.6538 Y8.8324
G01 X80.6556 Y8.8396
G01 X80.6671 Y8.8973
G01 X80.6682 Y8.9046
G01 X80.6740 Y8.9632
G01 X80.6750 Y9.0000
G01 X80.6750 Y46.6000
G00 X80.6750 Y46.6000
G01 F60.00
G01 Z-1.8000
G01 F100.00
G01 X80.6750 Y9.0000
G01 X80.6740 Y8.9632
G01 X80.6682 Y8.9046
G01 X80.6671 Y8.8973
G01 X80.6556 Y8.8396
G01 X80.6538 Y8.8324
G01 X80.6367 Y8.7761
G01 X80.6343 Y8.7692
G01 X80.6117 Y8.7148
G01 X80.6086 Y8.7081
G01 X80.5808 Y8.6562
G01 X80.5770 Y8.6498
G01 X80.5443 Y8.6009
G01 X80.5399 Y8.5950
G01 X80.5026 Y8.5495
G01 X80.4976 Y8.5440
G01 X80.4560 Y8.5024
G01 X80.4505 Y8.4974
G01 X80.4050 Y8.4601
G01 X80.3991 Y8.4557
G01 X80.3502 Y8.4230
G01 X80.3438 Y8.4192
G01 X80.2919 Y8.3914
G01 X80.2852 Y8.3883
G01 X80.2308 Y8.3657
G01 X80.2239 Y8.3633
G01 X80.1676 Y8.3462
G01 X80.1604 Y8.3444
G01 X80.1027 Y8.3329
G01 X80.0954 Y8.3318
G01 X80.0368 Y8.3260
G01 X80.0000 Y8.3250
G01 X42.6000 Y8.3250
G00 Z2.0000
M05
G00 Z2.0000
G00 Z20.00


