(G-CODE GENERATED BY FLATCAM v8.994 - www.flatcam.org - Version Date: 2020/11/7)

(Name: drill_cnc)
(Type: G-code from Geometry)
(Units: MM)

(Created on Saturday, 21 November 2020 at 18:06)

(This preprocessor is the default preprocessor used by FlatCAM.)
(It is made to work with MACH3 compatible motion controllers.)


(TOOLS DIAMETER: )
(Tool: 1 -> Dia: 0.76)
(Tool: 2 -> Dia: 0.762)
(Tool: 3 -> Dia: 0.8)
(Tool: 4 -> Dia: 1.0)
(Tool: 5 -> Dia: 1.016)
(Tool: 6 -> Dia: 1.2)
(Tool: 7 -> Dia: 1.52)
(Tool: 8 -> Dia: 0.9)

(FEEDRATE Z: )
(Tool: 1 -> Feedrate: 60.0)
(Tool: 2 -> Feedrate: 60.0)
(Tool: 3 -> Feedrate: 60.0)
(Tool: 4 -> Feedrate: 60.0)
(Tool: 5 -> Feedrate: 60.0)
(Tool: 6 -> Feedrate: 60.0)
(Tool: 7 -> Feedrate: 60.0)
(Tool: 8 -> Feedrate: 60.0)

(FEEDRATE RAPIDS: )
(Tool: 1 -> Feedrate Rapids: 150.0)
(Tool: 2 -> Feedrate Rapids: 150.0)
(Tool: 3 -> Feedrate Rapids: 150.0)
(Tool: 4 -> Feedrate Rapids: 150.0)
(Tool: 5 -> Feedrate Rapids: 150.0)
(Tool: 6 -> Feedrate Rapids: 150.0)
(Tool: 7 -> Feedrate Rapids: 150.0)
(Tool: 8 -> Feedrate Rapids: 150.0)

(Z_CUT: )
(Tool: 1 -> Z_Cut: -1.8)
(Tool: 2 -> Z_Cut: -1.8)
(Tool: 3 -> Z_Cut: -1.8)
(Tool: 4 -> Z_Cut: -1.8)
(Tool: 5 -> Z_Cut: -1.8)
(Tool: 6 -> Z_Cut: -1.8)
(Tool: 7 -> Z_Cut: -1.8)
(Tool: 8 -> Z_Cut: -1.8)

(Tools Offset: )
(Tool: 1 -> Offset Z: 0.0)
(Tool: 2 -> Offset Z: 0.0)
(Tool: 3 -> Offset Z: 0.0)
(Tool: 5 -> Offset Z: 0.0)

(Z_MOVE: )
(Tool: 1 -> Z_Move: 2)
(Tool: 2 -> Z_Move: 2)
(Tool: 3 -> Z_Move: 2)
(Tool: 4 -> Z_Move: 2)
(Tool: 5 -> Z_Move: 2)
(Tool: 6 -> Z_Move: 2)
(Tool: 7 -> Z_Move: 2)
(Tool: 8 -> Z_Move: 2)

(Z Toolchange: 20.0 mm)
(X,Y Toolchange: 0.0000, 0.0000 mm)
(Z Start: None mm)
(Z End: 20.0 mm)
(X,Y End: None mm)
(Steps per circle: 64)
(Preprocessor Excellon: default)

(X range:    3.9900 ...  139.0100  mm)
(Y range:    3.5880 ...   91.9710  mm)

(Spindle Speed: 12000 RPM)
G21
G90
G94

G01 F60.00

M5
G00 Z20.0000
T1
G00 X0.0000 Y0.0000                
M6
(MSG, Change to Tool Dia = 0.7600 ||| Total drills for tool T1 = 117)
M0
G00 Z20.0000

G01 F60.00
M03 S12000
G00 X23.5200 Y70.0000
G01 Z-1.8000
G01 Z0
G00 Z2.0000
G00 X15.9200 Y70.0000
G01 Z-1.8000
G01 Z0
G00 Z2.0000
G00 X8.3200 Y42.0000
G01 Z-1.8000
G01 Z0
G00 Z2.0000
G00 X23.5200 Y42.0000
G01 Z-1.8000
G01 Z0
G00 Z2.0000
G00 X43.8400 Y38.4800
G01 Z-1.8000
G01 Z0
G00 Z2.0000
G00 X41.3000 Y41.0200
G01 Z-1.8000
G01 Z0
G00 Z2.0000
G00 X38.7600 Y43.5600
G01 Z-1.8000
G01 Z0
G00 Z2.0000
G00 X38.7600 Y46.1000
G01 Z-1.8000
G01 Z0
G00 Z2.0000
G00 X38.7600 Y48.6400
G01 Z-1.8000
G01 Z0
G00 Z2.0000
G00 X38.7600 Y51.1800
G01 Z-1.8000
G01 Z0
G00 Z2.0000
G00 X38.7600 Y53.7200
G01 Z-1.8000
G01 Z0
G00 Z2.0000
G00 X38.7600 Y56.2600
G01 Z-1.8000
G01 Z0
G00 Z2.0000
G00 X38.7600 Y58.8000
G01 Z-1.8000
G01 Z0
G00 Z2.0000
G00 X38.7600 Y61.3400
G01 Z-1.8000
G01 Z0
G00 Z2.0000
G00 X38.7600 Y63.8800
G01 Z-1.8000
G01 Z0
G00 Z2.0000
G00 X54.0000 Y56.2600
G01 Z-1.8000
G01 Z0
G00 Z2.0000
G00 X54.0000 Y53.7200
G01 Z-1.8000
G01 Z0
G00 Z2.0000
G00 X54.0000 Y51.1800
G01 Z-1.8000
G01 Z0
G00 Z2.0000
G00 X54.0000 Y48.6400
G01 Z-1.8000
G01 Z0
G00 Z2.0000
G00 X54.0000 Y46.1000
G01 Z-1.8000
G01 Z0
G00 Z2.0000
G00 X54.0000 Y43.5600
G01 Z-1.8000
G01 Z0
G00 Z2.0000
G00 X62.8900 Y41.0200
G01 Z-1.8000
G01 Z0
G00 Z2.0000
G00 X71.8600 Y42.2900
G01 Z-1.8000
G01 Z0
G00 Z2.0000
G00 X75.5900 Y38.4800
G01 Z-1.8000
G01 Z0
G00 Z2.0000
G00 X90.4330 Y37.0080
G01 Z-1.8000
G01 Z0
G00 Z2.0000
G00 X90.4330 Y34.4680
G01 Z-1.8000
G01 Z0
G00 Z2.0000
G00 X90.4330 Y31.9280
G01 Z-1.8000
G01 Z0
G00 Z2.0000
G00 X90.4330 Y29.3880
G01 Z-1.8000
G01 Z0
G00 Z2.0000
G00 X90.4330 Y26.8480
G01 Z-1.8000
G01 Z0
G00 Z2.0000
G00 X90.4330 Y24.3080
G01 Z-1.8000
G01 Z0
G00 Z2.0000
G00 X90.4330 Y21.7680
G01 Z-1.8000
G01 Z0
G00 Z2.0000
G00 X90.4330 Y19.2280
G01 Z-1.8000
G01 Z0
G00 Z2.0000
G00 X90.4330 Y16.6880
G01 Z-1.8000
G01 Z0
G00 Z2.0000
G00 X90.4330 Y14.1480
G01 Z-1.8000
G01 Z0
G00 Z2.0000
G00 X90.4330 Y11.6080
G01 Z-1.8000
G01 Z0
G00 Z2.0000
G00 X90.4330 Y9.0680
G01 Z-1.8000
G01 Z0
G00 Z2.0000
G00 X90.4330 Y6.5280
G01 Z-1.8000
G01 Z0
G00 Z2.0000
G00 X90.4330 Y3.9880
G01 Z-1.8000
G01 Z0
G00 Z2.0000
G00 X105.6730 Y3.9880
G01 Z-1.8000
G01 Z0
G00 Z2.0000
G00 X105.6730 Y6.5280
G01 Z-1.8000
G01 Z0
G00 Z2.0000
G00 X105.6730 Y9.0680
G01 Z-1.8000
G01 Z0
G00 Z2.0000
G00 X105.6730 Y11.6080
G01 Z-1.8000
G01 Z0
G00 Z2.0000
G00 X105.6730 Y14.1480
G01 Z-1.8000
G01 Z0
G00 Z2.0000
G00 X105.6730 Y16.6880
G01 Z-1.8000
G01 Z0
G00 Z2.0000
G00 X105.6730 Y19.2280
G01 Z-1.8000
G01 Z0
G00 Z2.0000
G00 X105.6730 Y21.7680
G01 Z-1.8000
G01 Z0
G00 Z2.0000
G00 X105.6730 Y24.3080
G01 Z-1.8000
G01 Z0
G00 Z2.0000
G00 X105.6730 Y26.8480
G01 Z-1.8000
G01 Z0
G00 Z2.0000
G00 X105.6730 Y29.3880
G01 Z-1.8000
G01 Z0
G00 Z2.0000
G00 X105.6730 Y31.9280
G01 Z-1.8000
G01 Z0
G00 Z2.0000
G00 X105.6730 Y34.4680
G01 Z-1.8000
G01 Z0
G00 Z2.0000
G00 X105.6730 Y37.0080
G01 Z-1.8000
G01 Z0
G00 Z2.0000
G00 X105.6730 Y39.5480
G01 Z-1.8000
G01 Z0
G00 Z2.0000
G00 X128.2500 Y37.1200
G01 Z-1.8000
G01 Z0
G00 Z2.0000
G00 X130.7900 Y37.1200
G01 Z-1.8000
G01 Z0
G00 Z2.0000
G00 X133.3300 Y37.1200
G01 Z-1.8000
G01 Z0
G00 Z2.0000
G00 X135.8700 Y37.1200
G01 Z-1.8000
G01 Z0
G00 Z2.0000
G00 X138.4100 Y37.1200
G01 Z-1.8000
G01 Z0
G00 Z2.0000
G00 X121.9000 Y48.5500
G01 Z-1.8000
G01 Z0
G00 Z2.0000
G00 X121.9000 Y51.0900
G01 Z-1.8000
G01 Z0
G00 Z2.0000
G00 X121.9000 Y53.6300
G01 Z-1.8000
G01 Z0
G00 Z2.0000
G00 X138.4100 Y66.3300
G01 Z-1.8000
G01 Z0
G00 Z2.0000
G00 X135.8700 Y66.3300
G01 Z-1.8000
G01 Z0
G00 Z2.0000
G00 X133.3300 Y66.3300
G01 Z-1.8000
G01 Z0
G00 Z2.0000
G00 X130.7900 Y66.3300
G01 Z-1.8000
G01 Z0
G00 Z2.0000
G00 X111.9340 Y71.5260
G01 Z-1.8000
G01 Z0
G00 Z2.0000
G00 X111.9340 Y76.6060
G01 Z-1.8000
G01 Z0
G00 Z2.0000
G00 X85.2640 Y76.6060
G01 Z-1.8000
G01 Z0
G00 Z2.0000
G00 X85.2640 Y71.5260
G01 Z-1.8000
G01 Z0
G00 Z2.0000
G00 X90.9790 Y62.6360
G01 Z-1.8000
G01 Z0
G00 Z2.0000
G00 X93.5190 Y62.6360
G01 Z-1.8000
G01 Z0
G00 Z2.0000
G00 X96.0590 Y62.6360
G01 Z-1.8000
G01 Z0
G00 Z2.0000
G00 X98.5990 Y62.6360
G01 Z-1.8000
G01 Z0
G00 Z2.0000
G00 X101.1390 Y62.6360
G01 Z-1.8000
G01 Z0
G00 Z2.0000
G00 X103.6790 Y62.6360
G01 Z-1.8000
G01 Z0
G00 Z2.0000
G00 X106.2190 Y62.6360
G01 Z-1.8000
G01 Z0
G00 Z2.0000
G00 X108.7590 Y57.5560
G01 Z-1.8000
G01 Z0
G00 Z2.0000
G00 X111.2990 Y57.5560
G01 Z-1.8000
G01 Z0
G00 Z2.0000
G00 X111.2990 Y55.0160
G01 Z-1.8000
G01 Z0
G00 Z2.0000
G00 X111.2990 Y52.4760
G01 Z-1.8000
G01 Z0
G00 Z2.0000
G00 X111.2990 Y49.9360
G01 Z-1.8000
G01 Z0
G00 Z2.0000
G00 X112.4800 Y44.4500
G01 Z-1.8000
G01 Z0
G00 Z2.0000
G00 X106.7650 Y44.4500
G01 Z-1.8000
G01 Z0
G00 Z2.0000
G00 X104.8600 Y42.5450
G01 Z-1.8000
G01 Z0
G00 Z2.0000
G00 X102.3200 Y46.3550
G01 Z-1.8000
G01 Z0
G00 Z2.0000
G00 X104.8600 Y50.1650
G01 Z-1.8000
G01 Z0
G00 Z2.0000
G00 X108.7590 Y49.9360
G01 Z-1.8000
G01 Z0
G00 Z2.0000
G00 X108.7590 Y52.4760
G01 Z-1.8000
G01 Z0
G00 Z2.0000
G00 X108.7590 Y55.0160
G01 Z-1.8000
G01 Z0
G00 Z2.0000
G00 X104.8600 Y55.2450
G01 Z-1.8000
G01 Z0
G00 Z2.0000
G00 X93.4300 Y46.3550
G01 Z-1.8000
G01 Z0
G00 Z2.0000
G00 X93.4300 Y42.5450
G01 Z-1.8000
G01 Z0
G00 Z2.0000
G00 X90.4330 Y39.5480
G01 Z-1.8000
G01 Z0
G00 Z2.0000
G00 X76.8600 Y42.2900
G01 Z-1.8000
G01 Z0
G00 Z2.0000
G00 X73.0500 Y47.3700
G01 Z-1.8000
G01 Z0
G00 Z2.0000
G00 X73.0500 Y49.9100
G01 Z-1.8000
G01 Z0
G00 Z2.0000
G00 X70.5100 Y47.3700
G01 Z-1.8000
G01 Z0
G00 Z2.0000
G00 X70.5100 Y49.9100
G01 Z-1.8000
G01 Z0
G00 Z2.0000
G00 X67.9700 Y49.9100
G01 Z-1.8000
G01 Z0
G00 Z2.0000
G00 X67.9700 Y47.3700
G01 Z-1.8000
G01 Z0
G00 Z2.0000
G00 X65.4300 Y47.3700
G01 Z-1.8000
G01 Z0
G00 Z2.0000
G00 X65.4300 Y49.9100
G01 Z-1.8000
G01 Z0
G00 Z2.0000
G00 X54.0000 Y58.8000
G01 Z-1.8000
G01 Z0
G00 Z2.0000
G00 X54.0000 Y61.3400
G01 Z-1.8000
G01 Z0
G00 Z2.0000
G00 X54.0000 Y63.8800
G01 Z-1.8000
G01 Z0
G00 Z2.0000
G00 X54.0000 Y66.4200
G01 Z-1.8000
G01 Z0
G00 Z2.0000
G00 X54.0000 Y68.9600
G01 Z-1.8000
G01 Z0
G00 Z2.0000
G00 X54.0000 Y71.5000
G01 Z-1.8000
G01 Z0
G00 Z2.0000
G00 X54.0000 Y74.0400
G01 Z-1.8000
G01 Z0
G00 Z2.0000
G00 X54.0000 Y76.5800
G01 Z-1.8000
G01 Z0
G00 Z2.0000
G00 X54.0000 Y79.1200
G01 Z-1.8000
G01 Z0
G00 Z2.0000
G00 X38.7600 Y79.1200
G01 Z-1.8000
G01 Z0
G00 Z2.0000
G00 X38.7600 Y76.5800
G01 Z-1.8000
G01 Z0
G00 Z2.0000
G00 X38.7600 Y74.0400
G01 Z-1.8000
G01 Z0
G00 Z2.0000
G00 X38.7600 Y71.5000
G01 Z-1.8000
G01 Z0
G00 Z2.0000
G00 X38.7600 Y68.9600
G01 Z-1.8000
G01 Z0
G00 Z2.0000
G00 X38.7600 Y66.4200
G01 Z-1.8000
G01 Z0
G00 Z2.0000
M05
G00 Z20.00


